; generated by Slic3r 0.7.3-dev on 2012-05-19 at 20:04:30

; layer_height = 0.3
; perimeters = 3
; solid_layers = 3
; fill_density = 0.25
; nozzle_diameter = 0.5
; filament_diameter = 3
; extrusion_multiplier = 0.75
; perimeter_speed = 90
; infill_speed = 120
; travel_speed = 330
; extrusion_width_ratio = 0
; scale = 1
; single wall width = 0.70mm

M104 S190 ; set temperature
G28 ; home all axes
M109 S190 ; wait for temperature to be reached
G90 ; use absolute coordinates
G21 ; set units to millimeters
G92 E0 ; reset extrusion distance
M82 ; use absolute distances for extrusion
G1 Z0.300 F19800.000
G1 X72.600 Y75.310
G1 F1800.000 E1.00000
G1 X75.690 Y72.240 F2700.000 E1.09075
G1 X76.330 Y71.780 E1.10717
G1 X76.550 Y71.640 E1.11260
G1 X77.010 Y71.400 E1.12341
G1 X77.500 Y71.200 E1.13443
G1 X78.000 Y71.040 E1.14537
G1 X78.510 Y70.930 E1.15624
G1 X79.030 Y70.860 E1.16717
G1 X79.550 Y70.840 E1.17801
G1 X120.960 Y70.860 E2.04072
G1 X121.480 Y70.930 E2.05165
G1 X121.990 Y71.040 E2.06252
G1 X122.490 Y71.200 E2.07346
G1 X122.980 Y71.400 E2.08448
G1 X123.440 Y71.640 E2.09529
G1 X124.090 Y72.080 E2.11165
G1 X124.300 Y72.240 E2.11715
G1 X127.750 Y75.690 E2.21879
G1 X128.210 Y76.330 E2.23521
G1 X128.350 Y76.550 E2.24065
G1 X128.590 Y77.010 E2.25145
G1 X128.790 Y77.500 E2.26248
G1 X128.950 Y78.000 E2.27342
G1 X129.060 Y78.510 E2.28429
G1 X129.130 Y79.030 E2.29522
G1 X129.130 Y120.960 E3.16876
G1 X129.060 Y121.480 E3.17969
G1 X128.950 Y121.990 E3.19056
G1 X128.790 Y122.490 E3.20150
G1 X128.590 Y122.980 E3.21252
G1 X128.350 Y123.440 E3.22333
G1 X127.910 Y124.090 E3.23968
G1 X127.750 Y124.300 E3.24519
G1 X124.300 Y127.750 E3.34683
G1 X123.660 Y128.210 E3.36325
G1 X123.440 Y128.350 E3.36868
G1 X122.980 Y128.590 E3.37949
G1 X122.490 Y128.790 E3.39052
G1 X121.990 Y128.950 E3.40146
G1 X121.480 Y129.060 E3.41233
G1 X120.960 Y129.130 E3.42326
G1 X120.440 Y129.150 E3.43410
G1 X79.030 Y129.130 E4.29681
G1 X78.510 Y129.060 E4.30774
G1 X78.000 Y128.950 E4.31861
G1 X77.500 Y128.790 E4.32954
G1 X77.010 Y128.590 E4.34057
G1 X76.550 Y128.350 E4.35138
G1 X75.900 Y127.910 E4.36773
G1 X75.690 Y127.750 E4.37323
G1 X72.240 Y124.300 E4.47488
G1 X71.780 Y123.660 E4.49130
G1 X71.640 Y123.440 E4.49673
G1 X71.400 Y122.980 E4.50754
G1 X71.200 Y122.490 E4.51857
G1 X71.040 Y121.990 E4.52950
G1 X70.930 Y121.480 E4.54037
G1 X70.860 Y120.960 E4.55130
G1 X70.860 Y79.030 E5.42485
G1 X70.930 Y78.510 E5.43578
G1 X71.040 Y78.000 E5.44665
G1 X71.200 Y77.500 E5.45758
G1 X71.400 Y77.010 E5.46861
G1 X71.640 Y76.550 E5.47942
G1 X72.080 Y75.900 E5.49577
G1 X72.240 Y75.690 E5.50127
G1 X72.528 Y75.386 E5.51000
G1 F1800.000 E4.51000
G92 E0
G1 X103.087 Y105.066 F19800.000
G1 F1800.000 E1.00000
G1 X105.066 Y103.087 F2700.000 E1.05829
G1 X119.934 Y103.087 E1.36805
G1 X121.913 Y105.066 E1.42634
G1 X121.913 Y119.934 E1.73611
G1 X119.934 Y121.913 E1.79439
G1 X105.066 Y121.913 E2.10416
G1 X103.087 Y119.934 E2.16245
G1 X103.087 Y105.170 E2.47004
G1 X102.468 Y104.809 F19800.000
G1 X104.809 Y102.468 F2700.000 E2.53901
G1 X120.191 Y102.468 E2.85947
G1 X122.532 Y104.809 E2.92845
G1 X122.532 Y120.191 E3.24891
G1 X120.191 Y122.532 E3.31789
G1 X104.809 Y122.532 E3.63835
G1 X102.468 Y120.191 E3.70732
G1 X102.468 Y104.913 E4.02560
G1 X101.848 Y104.552 F19800.000
G1 X104.552 Y101.848 F2700.000 E4.10527
G1 X120.448 Y101.848 E4.43642
G1 X123.152 Y104.552 E4.51609
G1 X123.152 Y120.448 E4.84724
G1 X120.448 Y123.152 E4.92691
G1 X104.552 Y123.152 E5.25806
G1 X101.848 Y120.448 E5.33773
G1 X101.848 Y104.657 E5.66670
G1 F1800.000 E4.66670
G92 E0
G1 X96.913 Y105.066 F19800.000
G1 F1800.000 E1.00000
G1 X96.913 Y119.934 F2700.000 E1.30977
G1 X94.934 Y121.913 E1.36805
G1 X80.066 Y121.913 E1.67782
G1 X78.087 Y119.934 E1.73611
G1 X78.087 Y105.066 E2.04587
G1 X80.066 Y103.087 E2.10416
G1 X94.934 Y103.087 E2.41393
G1 X96.839 Y104.992 E2.47004
G1 X97.532 Y104.809 F19800.000
G1 X97.532 Y120.191 F2700.000 E2.79050
G1 X95.191 Y122.532 E2.85947
G1 X79.809 Y122.532 E3.17993
G1 X77.468 Y120.191 E3.24891
G1 X77.468 Y104.809 E3.56937
G1 X79.809 Y102.468 E3.63835
G1 X95.191 Y102.468 E3.95880
G1 X97.458 Y104.735 E4.02560
G1 X98.152 Y104.552 F19800.000
G1 X98.152 Y120.448 F2700.000 E4.35675
G1 X95.448 Y123.152 E4.43642
G1 X79.552 Y123.152 E4.76757
G1 X76.848 Y120.448 E4.84724
G1 X76.848 Y104.552 E5.17839
G1 X79.552 Y101.848 E5.25806
G1 X95.448 Y101.848 E5.58921
G1 X98.078 Y104.478 E5.66670
G1 F1800.000 E4.66670
G92 E0
G1 X94.934 Y96.913 F19800.000
G1 F1800.000 E1.00000
G1 X80.066 Y96.913 F2700.000 E1.30977
G1 X78.087 Y94.934 E1.36805
G1 X78.087 Y80.066 E1.67782
G1 X80.066 Y78.087 E1.73611
G1 X94.934 Y78.087 E2.04587
G1 X96.913 Y80.066 E2.10416
G1 X96.913 Y94.934 E2.41393
G1 X95.008 Y96.839 E2.47004
G1 X95.191 Y97.532 F19800.000
G1 X79.809 Y97.532 F2700.000 E2.79049
G1 X77.468 Y95.191 E2.85947
G1 X77.468 Y79.809 E3.17993
G1 X79.809 Y77.468 E3.24891
G1 X95.191 Y77.468 E3.56937
G1 X97.532 Y79.809 E3.63834
G1 X97.532 Y95.191 E3.95880
G1 X95.265 Y97.458 E4.02560
G1 X95.448 Y98.152 F19800.000
G1 X79.552 Y98.152 F2700.000 E4.35675
G1 X76.848 Y95.448 E4.43642
G1 X76.848 Y79.552 E4.76757
G1 X79.552 Y76.848 E4.84724
G1 X95.448 Y76.848 E5.17839
G1 X98.152 Y79.552 E5.25806
G1 X98.152 Y95.448 E5.58921
G1 X95.521 Y98.078 E5.66670
G1 F1800.000 E4.66670
G92 E0
G1 X103.087 Y94.934 F19800.000
G1 F1800.000 E1.00000
G1 X103.087 Y80.066 F2700.000 E1.30977
G1 X105.066 Y78.087 E1.36805
G1 X119.934 Y78.087 E1.67782
G1 X121.913 Y80.066 E1.73611
G1 X121.913 Y94.934 E2.04587
G1 X119.934 Y96.913 E2.10416
G1 X105.066 Y96.913 E2.41393
G1 X103.161 Y95.008 E2.47004
G1 X102.468 Y95.191 F19800.000
G1 X102.468 Y79.809 F2700.000 E2.79050
G1 X104.809 Y77.468 E2.85947
G1 X120.191 Y77.468 E3.17993
G1 X122.532 Y79.809 E3.24891
G1 X122.532 Y95.191 E3.56937
G1 X120.191 Y97.532 E3.63835
G1 X104.809 Y97.532 E3.95880
G1 X102.542 Y95.265 E4.02560
G1 X101.848 Y95.448 F19800.000
G1 X101.848 Y79.552 F2700.000 E4.35675
G1 X104.552 Y76.848 E4.43642
G1 X120.448 Y76.848 E4.76757
G1 X123.152 Y79.552 E4.84724
G1 X123.152 Y95.448 E5.17839
G1 X120.448 Y98.152 E5.25806
G1 X104.552 Y98.152 E5.58921
G1 X101.922 Y95.522 E5.66670
G1 F1800.000 E4.66670
G92 E0
G1 X93.885 Y103.510 F19800.000
G1 F1800.000 E1.00000
G1 X96.490 Y106.115 F2700.000 E1.07709
G1 X96.490 Y106.994 F19800.000
G1 X93.006 Y103.510 F2700.000 E1.18018
G1 X92.128 Y103.510 F19800.000
G1 X96.490 Y107.872 F2700.000 E1.30926
G1 X96.490 Y108.751 F19800.000
G1 X91.249 Y103.510 F2700.000 E1.46434
G1 X90.371 Y103.510 F19800.000
G1 X96.490 Y109.629 F2700.000 E1.64542
G1 X96.490 Y110.508 F19800.000
G1 X89.492 Y103.510 F2700.000 E1.85249
G1 X88.613 Y103.510 F19800.000
G1 X96.490 Y111.387 F2700.000 E2.08557
G1 X96.490 Y112.265 F19800.000
G1 X87.735 Y103.510 F2700.000 E2.34464
G1 X86.856 Y103.510 F19800.000
G1 X96.490 Y113.144 F2700.000 E2.62971
G1 X96.490 Y114.022 F19800.000
G1 X85.978 Y103.510 F2700.000 E2.94077
G1 X85.099 Y103.510 F19800.000
G1 X96.490 Y114.901 F2700.000 E3.27783
G1 X96.490 Y115.780 F19800.000
G1 X84.221 Y103.510 F2700.000 E3.64089
G1 X83.342 Y103.510 F19800.000
G1 X96.490 Y116.658 F2700.000 E4.02995
G1 X96.490 Y117.537 F19800.000
G1 X82.463 Y103.510 F2700.000 E4.44500
G1 X81.585 Y103.510 F19800.000
G1 X96.490 Y118.415 F2700.000 E4.88605
G1 X96.490 Y119.294 F19800.000
G1 X80.706 Y103.510 F2700.000 E5.35310
G1 X79.976 Y103.658 F19800.000
G1 X96.342 Y120.024 F2700.000 E5.83734
G1 X95.902 Y120.463 F19800.000
G1 X79.537 Y104.098 F2700.000 E6.32159
G1 X79.098 Y104.537 F19800.000
G1 X95.463 Y120.902 F2700.000 E6.80583
G1 X95.024 Y121.342 F19800.000
G1 X78.658 Y104.976 F2700.000 E7.29007
G1 X78.510 Y105.706 F19800.000
G1 X94.294 Y121.490 F2700.000 E7.75712
G1 X93.415 Y121.490 F19800.000
G1 X78.510 Y106.585 F2700.000 E8.19817
G1 X78.510 Y107.463 F19800.000
G1 X92.537 Y121.490 F2700.000 E8.61322
G1 X91.658 Y121.490 F19800.000
G1 X78.510 Y108.342 F2700.000 E9.00228
G1 X78.510 Y109.220 F19800.000
G1 X90.780 Y121.490 F2700.000 E9.36534
G1 X89.901 Y121.490 F19800.000
G1 X78.510 Y110.099 F2700.000 E9.70240
G1 X78.510 Y110.978 F19800.000
G1 X89.022 Y121.490 F2700.000 E10.01347
G1 X88.144 Y121.490 F19800.000
G1 X78.510 Y111.856 F2700.000 E10.29854
G1 X78.510 Y112.735 F19800.000
G1 X87.265 Y121.490 F2700.000 E10.55761
G1 X86.387 Y121.490 F19800.000
G1 X78.510 Y113.613 F2700.000 E10.79068
G1 X78.510 Y114.492 F19800.000
G1 X85.508 Y121.490 F2700.000 E10.99776
G1 X84.629 Y121.490 F19800.000
G1 X78.510 Y115.371 F2700.000 E11.17884
G1 X78.510 Y116.249 F19800.000
G1 X83.751 Y121.490 F2700.000 E11.33392
G1 X82.872 Y121.490 F19800.000
G1 X78.510 Y117.128 F2700.000 E11.46300
G1 X78.510 Y118.006 F19800.000
G1 X81.994 Y121.490 F2700.000 E11.56609
G1 X81.115 Y121.490 F19800.000
G1 X78.510 Y118.885 F2700.000 E11.64318
G1 F1800.000 E10.64318
G92 E0
G1 X103.510 Y118.885 F19800.000
G1 F1800.000 E1.00000
G1 X106.115 Y121.490 F2700.000 E1.07709
G1 X106.993 Y121.490 F19800.000
G1 X103.510 Y118.006 F2700.000 E1.18018
G1 X103.510 Y117.128 F19800.000
G1 X107.872 Y121.490 F2700.000 E1.30926
G1 X108.751 Y121.490 F19800.000
G1 X103.510 Y116.249 F2700.000 E1.46434
G1 X103.510 Y115.371 F19800.000
G1 X109.629 Y121.490 F2700.000 E1.64542
G1 X110.508 Y121.490 F19800.000
G1 X103.510 Y114.492 F2700.000 E1.85250
G1 X103.510 Y113.614 F19800.000
G1 X111.386 Y121.490 F2700.000 E2.08557
G1 X112.265 Y121.490 F19800.000
G1 X103.510 Y112.735 F2700.000 E2.34464
G1 X103.510 Y111.856 F19800.000
G1 X113.144 Y121.490 F2700.000 E2.62971
G1 X114.022 Y121.490 F19800.000
G1 X103.510 Y110.978 F2700.000 E2.94078
G1 X103.510 Y110.099 F19800.000
G1 X114.901 Y121.490 F2700.000 E3.27784
G1 X115.779 Y121.490 F19800.000
G1 X103.510 Y109.221 F2700.000 E3.64090
G1 X103.510 Y108.342 F19800.000
G1 X116.658 Y121.490 F2700.000 E4.02996
G1 X117.537 Y121.490 F19800.000
G1 X103.510 Y107.463 F2700.000 E4.44501
G1 X103.510 Y106.585 F19800.000
G1 X118.415 Y121.490 F2700.000 E4.88606
G1 X119.294 Y121.490 F19800.000
G1 X103.510 Y105.706 F2700.000 E5.35311
G1 X103.658 Y104.976 F19800.000
G1 X120.024 Y121.342 F2700.000 E5.83735
G1 X120.463 Y120.902 F19800.000
G1 X104.098 Y104.537 F2700.000 E6.32160
G1 X104.537 Y104.098 F19800.000
G1 X120.902 Y120.463 F2700.000 E6.80584
G1 X121.342 Y120.024 F19800.000
G1 X104.976 Y103.658 F2700.000 E7.29008
G1 X105.706 Y103.510 F19800.000
G1 X121.490 Y119.294 F2700.000 E7.75713
G1 X121.490 Y118.415 F19800.000
G1 X106.585 Y103.510 F2700.000 E8.19818
G1 X107.463 Y103.510 F19800.000
G1 X121.490 Y117.537 F2700.000 E8.61323
G1 X121.490 Y116.658 F19800.000
G1 X108.342 Y103.510 F2700.000 E9.00229
G1 X109.221 Y103.510 F19800.000
G1 X121.490 Y115.779 F2700.000 E9.36535
G1 X121.490 Y114.901 F19800.000
G1 X110.099 Y103.510 F2700.000 E9.70241
G1 X110.978 Y103.510 F19800.000
G1 X121.490 Y114.022 F2700.000 E10.01348
G1 X121.490 Y113.144 F19800.000
G1 X111.856 Y103.510 F2700.000 E10.29854
G1 X112.735 Y103.510 F19800.000
G1 X121.490 Y112.265 F2700.000 E10.55761
G1 X121.490 Y111.387 F19800.000
G1 X113.613 Y103.510 F2700.000 E10.79068
G1 X114.492 Y103.509 F19800.000
G1 X121.491 Y110.508 F2700.000 E10.99776
G1 X121.490 Y109.629 F19800.000
G1 X115.371 Y103.510 F2700.000 E11.17884
G1 X116.249 Y103.510 F19800.000
G1 X121.490 Y108.751 F2700.000 E11.33392
G1 X121.491 Y107.872 F19800.000
G1 X117.128 Y103.509 F2700.000 E11.46301
G1 X118.007 Y103.510 F19800.000
G1 X121.490 Y106.993 F2700.000 E11.56609
G1 X121.490 Y106.115 F19800.000
G1 X118.885 Y103.510 F2700.000 E11.64318
G1 X119.294 Y96.490 F19800.000
G1 X103.510 Y80.706 F2700.000 E12.11023
G1 X103.659 Y79.976 F19800.000
G1 X120.024 Y96.341 F2700.000 E12.59447
G1 X120.463 Y95.902 F19800.000
G1 X104.098 Y79.537 F2700.000 E13.07872
G1 X104.537 Y79.098 F19800.000
G1 X120.902 Y95.463 F2700.000 E13.56296
G1 X121.342 Y95.023 F19800.000
G1 X104.977 Y78.658 F2700.000 E14.04720
G1 X105.706 Y78.510 F19800.000
G1 X121.490 Y94.294 F2700.000 E14.51425
G1 X121.490 Y93.415 F19800.000
G1 X106.585 Y78.510 F2700.000 E14.95530
G1 X107.463 Y78.510 F19800.000
G1 X121.490 Y92.537 F2700.000 E15.37035
G1 X121.491 Y91.658 F19800.000
G1 X108.342 Y78.509 F2700.000 E15.75941
G1 X109.221 Y78.510 F19800.000
G1 X121.490 Y90.779 F2700.000 E16.12247
G1 X121.490 Y89.901 F19800.000
G1 X110.099 Y78.510 F2700.000 E16.45953
G1 X110.977 Y78.510 F19800.000
G1 X121.490 Y89.023 F2700.000 E16.77060
G1 X121.491 Y88.143 F19800.000
G1 X111.857 Y78.509 F2700.000 E17.05567
G1 X112.735 Y78.510 F19800.000
G1 X121.490 Y87.265 F2700.000 E17.31474
G1 X121.490 Y86.387 F19800.000
G1 X113.613 Y78.510 F2700.000 E17.54781
G1 X114.492 Y78.510 F19800.000
G1 X121.490 Y85.508 F2700.000 E17.75489
G1 X121.491 Y84.629 F19800.000
G1 X115.371 Y78.509 F2700.000 E17.93596
G1 X116.249 Y78.510 F19800.000
G1 X121.490 Y83.751 F2700.000 E18.09104
G1 X121.490 Y82.872 F19800.000
G1 X117.128 Y78.510 F2700.000 E18.22013
G1 X118.006 Y78.510 F19800.000
G1 X121.490 Y81.994 F2700.000 E18.32322
G1 X121.491 Y81.115 F19800.000
G1 X118.885 Y78.509 F2700.000 E18.40031
G1 F1800.000 E17.40031
G92 E0
G1 X103.509 Y81.585 F19800.000
G1 F1800.000 E1.00000
G1 X118.415 Y96.490 F2700.000 E1.44105
G1 X117.537 Y96.490 F19800.000
G1 X103.510 Y82.463 F2700.000 E1.85611
G1 X103.510 Y83.342 F19800.000
G1 X116.658 Y96.490 F2700.000 E2.24516
G1 X115.779 Y96.491 F19800.000
G1 X103.509 Y84.221 F2700.000 E2.60822
G1 X103.510 Y85.099 F19800.000
G1 X114.901 Y96.490 F2700.000 E2.94528
G1 X114.022 Y96.490 F19800.000
G1 X103.510 Y85.978 F2700.000 E3.25635
G1 X103.510 Y86.856 F19800.000
G1 X113.144 Y96.490 F2700.000 E3.54142
G1 X112.265 Y96.491 F19800.000
G1 X103.509 Y87.735 F2700.000 E3.80049
G1 X103.510 Y88.614 F19800.000
G1 X111.386 Y96.490 F2700.000 E4.03356
G1 X110.508 Y96.490 F19800.000
G1 X103.510 Y89.492 F2700.000 E4.24064
G1 X103.510 Y90.370 F19800.000
G1 X109.630 Y96.490 F2700.000 E4.42172
G1 X108.750 Y96.491 F19800.000
G1 X103.509 Y91.250 F2700.000 E4.57680
G1 X103.510 Y92.128 F19800.000
G1 X107.872 Y96.490 F2700.000 E4.70588
G1 X106.994 Y96.490 F19800.000
G1 X103.510 Y93.006 F2700.000 E4.80897
G1 X103.510 Y93.885 F19800.000
G1 X106.115 Y96.490 F2700.000 E4.88606
G1 F1800.000 E3.88606
G92 E0
G1 X96.490 Y94.294 F19800.000
G1 F1800.000 E1.00000
G1 X80.706 Y78.510 F2700.000 E1.46705
G1 X79.976 Y78.658 F19800.000
G1 X96.342 Y95.024 F2700.000 E1.95129
G1 X95.902 Y95.463 F19800.000
G1 X79.537 Y79.098 F2700.000 E2.43553
G1 X79.098 Y79.537 F19800.000
G1 X95.463 Y95.902 F2700.000 E2.91977
G1 X95.024 Y96.342 F19800.000
G1 X78.658 Y79.976 F2700.000 E3.40402
G1 X78.510 Y80.706 F19800.000
G1 X94.294 Y96.490 F2700.000 E3.87106
G1 X93.415 Y96.490 F19800.000
G1 X78.510 Y81.585 F2700.000 E4.31211
G1 X78.510 Y82.463 F19800.000
G1 X92.537 Y96.490 F2700.000 E4.72717
G1 X91.658 Y96.490 F19800.000
G1 X78.510 Y83.342 F2700.000 E5.11623
G1 X78.510 Y84.221 F19800.000
G1 X90.779 Y96.490 F2700.000 E5.47929
G1 X89.901 Y96.490 F19800.000
G1 X78.510 Y85.099 F2700.000 E5.81635
G1 X78.510 Y85.978 F19800.000
G1 X89.022 Y96.490 F2700.000 E6.12741
G1 X88.144 Y96.490 F19800.000
G1 X78.510 Y86.856 F2700.000 E6.41248
G1 X78.510 Y87.735 F19800.000
G1 X87.265 Y96.490 F2700.000 E6.67155
G1 X86.386 Y96.490 F19800.000
G1 X78.510 Y88.613 F2700.000 E6.90462
G1 X78.510 Y89.492 F19800.000
G1 X85.508 Y96.490 F2700.000 E7.11170
G1 X84.629 Y96.490 F19800.000
G1 X78.510 Y90.371 F2700.000 E7.29278
G1 X78.510 Y91.249 F19800.000
G1 X83.751 Y96.490 F2700.000 E7.44786
G1 X82.872 Y96.490 F19800.000
G1 X78.510 Y92.128 F2700.000 E7.57694
G1 X78.510 Y93.006 F19800.000
G1 X81.994 Y96.490 F2700.000 E7.68003
G1 X81.115 Y96.490 F19800.000
G1 X78.510 Y93.885 F2700.000 E7.75712
G1 F1800.000 E6.75712
G92 E0
G1 X81.585 Y78.510 F19800.000
G1 F1800.000 E1.00000
G1 X96.490 Y93.415 F2700.000 E1.44105
G1 X96.490 Y92.537 F19800.000
G1 X82.463 Y78.510 F2700.000 E1.85610
G1 X83.342 Y78.510 F19800.000
G1 X96.490 Y91.658 F2700.000 E2.24516
G1 X96.490 Y90.779 F19800.000
G1 X84.221 Y78.510 F2700.000 E2.60822
G1 X85.099 Y78.510 F19800.000
G1 X96.490 Y89.901 F2700.000 E2.94528
G1 X96.490 Y89.022 F19800.000
G1 X85.978 Y78.510 F2700.000 E3.25635
G1 X86.856 Y78.510 F19800.000
G1 X96.490 Y88.144 F2700.000 E3.54142
G1 X96.490 Y87.265 F19800.000
G1 X87.735 Y78.510 F2700.000 E3.80049
