; generated by Slic3r 0.7.2b on 2012-05-12 at 17:29:15

; layer_height = 0.4
; perimeters = 1
; solid_layers = 3
; fill_density = 0.45
; nozzle_diameter = 0.75
; filament_diameter = 3
; extrusion_multiplier = 1
; perimeter_speed = 60
; infill_speed = 95
; travel_speed = 130
; extrusion_width_ratio = 2.3
; scale = 1
; single wall width = 0.92mm

M104 S230 ; set temperature
M92 E380
G92 X0 Y0 Z0  E0.0
G1 Z2.0 F150.0
G1 X-250.0 F2100.0
G1 X-249.0 F300.0
G1 X-251.0 F100.0
G92 X3.0
G1 Y-250.0 F2100.0
G1 Y-249.0 F300.0
G1 Y-251.0 F300.0
G92 Y10.0
G1 Y70.0 F2100.0
G1 Z-250.0 F150.0
G1 Z-249.0 F50.0
G1 Z-251.0 F50.0
G1 Y75.0 E2.0  F1000.0
G1 Y100.0 E2.3  F1000.0
G92 Z0.3
G92 E0.0
M106 S70
M107
M109 S230 ; wait for temperature to be reached
G90 ; use absolute coordinates
G21 ; set units to millimeters
G92 E0 ; reset extrusion distance
M82 ; use absolute distances for extrusion
M107
G1 Z0.400 F7800.000
G1 X64.130 Y61.310
G1 F600.000 E0.50000
G1 X64.310 Y61.130 F2880.000 E0.51273
G1 X64.690 Y60.790 E0.53822
G1 X65.310 Y60.350 E0.57623
G1 X65.530 Y60.220 E0.58901
G1 X65.990 Y59.990 E0.61472
G1 X66.460 Y59.800 E0.64007
G1 X66.950 Y59.650 E0.66569
G1 X67.200 Y59.590 E0.67854
G1 X67.950 Y59.480 E0.71644
G1 X68.460 Y59.460 E0.74196
G1 X132.050 Y59.480 E3.92126
G1 X132.800 Y59.590 E3.95916
G1 X133.300 Y59.720 E3.98499
G1 X133.780 Y59.890 E4.01045
G1 X134.240 Y60.100 E4.03573
G1 X134.470 Y60.220 E4.04870
G1 X134.690 Y60.350 E4.06148
G1 X135.310 Y60.790 E4.09949
G1 X135.690 Y61.130 E4.12498
G1 X135.870 Y61.310 E4.13771
G1 X136.210 Y61.690 E4.16320
G1 X136.650 Y62.310 E4.20121
G1 X136.780 Y62.530 E4.21399
G1 X137.010 Y62.990 E4.23970
G1 X137.200 Y63.460 E4.26505
G1 X137.350 Y63.950 E4.29067
G1 X137.410 Y64.200 E4.30352
G1 X137.520 Y64.950 E4.34142
G1 X137.520 Y135.050 E7.84620
G1 X137.410 Y135.800 E7.88410
G1 X137.280 Y136.300 E7.90993
G1 X137.110 Y136.780 E7.93539
G1 X136.900 Y137.240 E7.96067
G1 X136.780 Y137.470 E7.97364
G1 X136.650 Y137.690 E7.98642
G1 X136.210 Y138.310 E8.02443
G1 X135.870 Y138.690 E8.04992
G1 X135.690 Y138.870 E8.06265
G1 X135.310 Y139.210 E8.08814
G1 X134.690 Y139.650 E8.12615
G1 X134.470 Y139.780 E8.13893
G1 X134.010 Y140.010 E8.16464
G1 X133.540 Y140.200 E8.18999
G1 X133.050 Y140.350 E8.21561
G1 X132.800 Y140.410 E8.22846
G1 X132.050 Y140.520 E8.26636
G1 X131.540 Y140.540 E8.29188
G1 X67.950 Y140.520 E11.47118
G1 X67.200 Y140.410 E11.50908
G1 X66.700 Y140.280 E11.53491
G1 X66.220 Y140.110 E11.56037
G1 X65.760 Y139.900 E11.58565
G1 X65.530 Y139.780 E11.59862
G1 X65.310 Y139.650 E11.61140
G1 X64.690 Y139.210 E11.64941
G1 X64.310 Y138.870 E11.67490
G1 X64.130 Y138.690 E11.68763
G1 X63.790 Y138.310 E11.71312
G1 X63.350 Y137.690 E11.75113
G1 X63.220 Y137.470 E11.76391
G1 X62.990 Y137.010 E11.78962
G1 X62.800 Y136.540 E11.81497
G1 X62.650 Y136.050 E11.84059
G1 X62.590 Y135.800 E11.85344
G1 X62.480 Y135.050 E11.89134
G1 X62.480 Y64.950 E15.39612
G1 X62.590 Y64.200 E15.43402
G1 X62.720 Y63.700 E15.45985
G1 X62.890 Y63.220 E15.48531
G1 X63.100 Y62.760 E15.51059
G1 X63.220 Y62.530 E15.52356
G1 X63.350 Y62.310 E15.53634
G1 X63.790 Y61.690 E15.57435
G1 X64.038 Y61.413 E15.59294
G1 F600.000 E15.09294
G92 E0
G1 X80.000 Y122.002 F7800.000
G1 F600.000 E0.50000
G1 X82.120 Y122.880 F2880.000 E0.61472
G1 X82.998 Y125.000 E0.72944
G1 X82.120 Y127.120 E0.84416
G1 X80.000 Y127.998 E0.95887
G1 X77.880 Y127.120 E1.07359
G1 X77.002 Y125.000 E1.18831
G1 X77.880 Y122.880 E1.30303
G1 X79.873 Y122.055 E1.41084
G1 F600.000 E0.91084
G92 E0
G1 X80.000 Y77.998 F7800.000
G1 F600.000 E0.50000
G1 X77.880 Y77.120 F2880.000 E0.61472
G1 X77.002 Y75.000 E0.72944
G1 X77.880 Y72.880 E0.84416
G1 X80.000 Y72.002 E0.95887
G1 X82.120 Y72.880 E1.07359
G1 X82.998 Y75.000 E1.18831
G1 X82.120 Y77.120 E1.30303
G1 X80.127 Y77.945 E1.41084
G1 F600.000 E0.91084
G92 E0
G1 X80.036 Y93.290 F7800.000
G1 F600.000 E0.50000
G1 X68.460 Y93.290 F2880.000 E1.07877
G1 X68.460 Y65.460 E2.47019
G1 X96.540 Y65.460 E3.87410
G1 X96.540 Y134.540 E7.32788
G1 X68.460 Y134.540 E8.73180
G1 X68.460 Y106.710 E10.12321
G1 X80.036 Y106.710 E10.70198
G1 X82.075 Y106.387 E10.80520
G1 X83.947 Y105.433 E10.91025
G1 X85.433 Y103.947 E11.01530
G1 X86.387 Y102.075 E11.12035
G1 X86.716 Y100.000 E11.22540
G1 X86.387 Y97.925 E11.33045
G1 X85.433 Y96.053 E11.43550
G1 X83.947 Y94.567 E11.54056
G1 X82.075 Y93.613 E11.64561
G1 X80.173 Y93.312 E11.74192
G1 X80.046 Y92.697 F7800.000
G1 X69.053 Y81.704 F4560.000 E12.52452
G1 X69.053 Y82.916 F7800.000
G1 X78.834 Y92.697 F4560.000 E13.22082
G1 X77.622 Y92.697 F7800.000
G1 X69.053 Y84.128 F4560.000 E13.83082
G1 X69.053 Y85.341 F7800.000
G1 X76.409 Y92.697 F4560.000 E14.35452
G1 X75.197 Y92.697 F7800.000
G1 X69.053 Y86.553 F4560.000 E14.79193
G1 X69.053 Y87.765 F7800.000
G1 X73.985 Y92.697 F4560.000 E15.14305
G1 X72.773 Y92.697 F7800.000
G1 X69.053 Y88.977 F4560.000 E15.40787
G1 X69.053 Y90.189 F7800.000
G1 X71.561 Y92.697 F4560.000 E15.58639
G1 X70.349 Y92.697 F7800.000
G1 X69.053 Y91.401 F4560.000 E15.67861
G1 F600.000 E15.17861
G92 E0
G1 X69.053 Y80.492 F7800.000
G1 F600.000 E0.50000
G1 X81.426 Y92.865 F4560.000 E1.38087
G1 X83.055 Y93.282 F7800.000
G1 X69.053 Y79.280 F4560.000 E2.37773
G1 X69.053 Y78.068 F7800.000
G1 X95.947 Y104.962 F4560.000 E4.29240
G1 X95.947 Y106.174 F7800.000
G1 X86.718 Y96.945 F4560.000 E4.94946
G1 X87.135 Y98.574 F7800.000
G1 X95.947 Y107.386 F4560.000 E5.57683
G1 X95.947 Y108.598 F7800.000
G1 X87.288 Y99.939 F4560.000 E6.19331
G1 X87.122 Y100.985 F7800.000
G1 X95.947 Y109.810 F4560.000 E6.82158
G1 X95.947 Y111.022 F7800.000
G1 X86.957 Y102.032 F4560.000 E7.46165
G1 X86.558 Y102.847 F7800.000
G1 X95.947 Y112.235 F4560.000 E8.13003
G1 X95.947 Y113.447 F7800.000
G1 X86.149 Y103.650 F4560.000 E8.82753
G1 X85.677 Y104.390 F7800.000
G1 X95.947 Y114.659 F4560.000 E9.55867
G1 X95.947 Y115.871 F7800.000
G1 X85.071 Y104.996 F4560.000 E10.33295
G1 X84.465 Y105.602 F7800.000
G1 X95.947 Y117.083 F4560.000 E11.15038
G1 X95.947 Y118.295 F7800.000
G1 X83.750 Y106.098 F4560.000 E12.01872
G1 X82.947 Y106.507 F7800.000
G1 X95.947 Y119.508 F4560.000 E12.94423
G1 X95.947 Y120.720 F7800.000
G1 X82.144 Y106.917 F4560.000 E13.92691
G1 X81.117 Y107.101 F7800.000
G1 X95.948 Y121.932 F4560.000 E14.98277
G1 X95.947 Y123.145 F7800.000
G1 X80.070 Y107.267 F4560.000 E16.11313
G1 X78.894 Y107.303 F7800.000
G1 X95.947 Y124.357 F4560.000 E17.32722
G1 X95.947 Y125.569 F7800.000
G1 X77.681 Y107.303 F4560.000 E18.62759
G1 X76.469 Y107.303 F7800.000
G1 X95.947 Y126.781 F4560.000 E20.01426
G1 X95.947 Y127.993 F7800.000
G1 X75.257 Y107.303 F4560.000 E21.48722
G1 X74.045 Y107.303 F7800.000
G1 X95.947 Y129.205 F4560.000 E23.04646
G1 X95.947 Y130.417 F7800.000
G1 X72.833 Y107.303 F4560.000 E24.69201
G1 X71.621 Y107.303 F7800.000
G1 X95.947 Y131.629 F4560.000 E26.42384
G1 X95.947 Y132.842 F7800.000
G1 X70.408 Y107.303 F4560.000 E28.24201
G1 X69.196 Y107.303 F7800.000
G1 X95.840 Y133.947 F4560.000 E30.13887
G1 X94.628 Y133.947 F7800.000
G1 X69.053 Y108.372 F4560.000 E31.95966
G1 X69.053 Y109.584 F7800.000
G1 X81.195 Y121.726 F4560.000 E32.82411
G1 X79.790 Y121.533 F7800.000
G1 X69.053 Y110.796 F4560.000 E33.58855
G1 X69.053 Y112.008 F7800.000
G1 X78.933 Y121.888 F4560.000 E34.29197
G1 X78.076 Y122.243 F7800.000
G1 X69.053 Y113.220 F4560.000 E34.93436
G1 X69.053 Y114.432 F7800.000
G1 X77.376 Y122.755 F4560.000 E35.52692
G1 X77.022 Y123.612 F7800.000
G1 X69.053 Y115.644 F4560.000 E36.09420
G1 X69.053 Y116.857 F7800.000
G1 X76.666 Y124.470 F4560.000 E36.63621
G1 X76.405 Y125.421 F7800.000
G1 X69.053 Y118.069 F4560.000 E37.15965
G1 X69.053 Y119.281 F7800.000
G1 X77.262 Y127.491 F4560.000 E37.74411
G1 X77.509 Y127.738 F7800.000
G1 X83.719 Y133.947 F4560.000 E38.18618
G1 X84.931 Y133.947 F7800.000
G1 X79.579 Y128.595 F4560.000 E38.56723
G1 X80.530 Y128.334 F7800.000
G1 X86.143 Y133.947 F4560.000 E38.96684
G1 X87.356 Y133.946 F7800.000
G1 X81.388 Y127.979 F4560.000 E39.39171
G1 X82.245 Y127.624 F7800.000
G1 X88.568 Y133.947 F4560.000 E39.84191
G1 X89.780 Y133.947 F7800.000
G1 X82.757 Y126.924 F4560.000 E40.34194
G1 X83.112 Y126.067 F7800.000
G1 X90.992 Y133.947 F4560.000 E40.90298
G1 X92.204 Y133.947 F7800.000
G1 X83.467 Y125.210 F4560.000 E41.52504
G1 X83.274 Y123.805 F7800.000
G1 X93.416 Y133.947 F4560.000 E42.24711
G1 F600.000 E41.74711
G92 E0
G1 X82.507 Y133.947 F7800.000
G1 F600.000 E0.50000
G1 X69.053 Y120.493 F4560.000 E1.45783
G1 X69.053 Y121.705 F7800.000
G1 X81.295 Y133.947 F4560.000 E2.32937
G1 X80.083 Y133.947 F7800.000
G1 X69.053 Y122.917 F4560.000 E3.11461
G1 X69.053 Y124.129 F7800.000
G1 X78.871 Y133.947 F4560.000 E3.81355
G1 X77.658 Y133.947 F7800.000
G1 X69.053 Y125.342 F4560.000 E4.42620
G1 X69.053 Y126.554 F7800.000
G1 X76.446 Y133.947 F4560.000 E4.95255
G1 X75.234 Y133.947 F7800.000
G1 X69.053 Y127.766 F4560.000 E5.39261
G1 X69.053 Y128.978 F7800.000
G1 X74.022 Y133.947 F4560.000 E5.74636
G1 X72.810 Y133.947 F7800.000
G1 X69.053 Y130.190 F4560.000 E6.01383
G1 X69.053 Y131.402 F7800.000
G1 X71.598 Y133.947 F4560.000 E6.19499
G1 X70.386 Y133.947 F7800.000
G1 X69.053 Y132.614 F4560.000 E6.28986
G1 F600.000 E5.78986
G92 E0
G1 X95.947 Y103.750 F7800.000
G1 F600.000 E0.50000
G1 X69.053 Y76.856 F4560.000 E2.41466
G1 X69.053 Y75.644 F7800.000
G1 X95.947 Y102.538 F4560.000 E4.32933
G1 X95.947 Y101.326 F7800.000
G1 X69.053 Y74.432 F4560.000 E6.24399
G1 X69.053 Y73.219 F7800.000
G1 X95.947 Y100.113 F4560.000 E8.15866
G1 X95.947 Y98.901 F7800.000
G1 X69.053 Y72.007 F4560.000 E10.07333
G1 X69.053 Y70.795 F7800.000
G1 X95.947 Y97.689 F4560.000 E11.98800
G1 X95.947 Y96.477 F7800.000
G1 X76.994 Y77.524 F4560.000 E13.33734
G1 X77.476 Y78.006 F7800.000
G1 X69.053 Y69.583 F4560.000 E13.93701
G1 X69.053 Y68.371 F7800.000
G1 X76.619 Y75.937 F4560.000 E14.47567
G1 X76.578 Y74.684 F7800.000
G1 X69.053 Y67.159 F4560.000 E15.01137
G1 X69.159 Y66.053 F7800.000
G1 X76.933 Y73.826 F4560.000 E15.56478
G1 X77.287 Y72.969 F7800.000
G1 X70.371 Y66.053 F4560.000 E16.05716
G1 X71.583 Y66.053 F7800.000
G1 X77.862 Y72.332 F4560.000 E16.50417
G1 X78.720 Y71.977 F7800.000
G1 X72.796 Y66.053 F4560.000 E16.92591
G1 X74.008 Y66.053 F7800.000
G1 X79.577 Y71.622 F4560.000 E17.32238
G1 X80.680 Y71.512 F7800.000
G1 X75.220 Y66.053 F4560.000 E17.71106
G1 X76.432 Y66.053 F7800.000
G1 X82.749 Y72.370 F4560.000 E18.16076
G1 X82.630 Y72.251 F7800.000
G1 X95.947 Y85.568 F4560.000 E19.10881
G1 X95.947 Y86.780 F7800.000
G1 X83.488 Y74.320 F4560.000 E19.99584
G1 X83.378 Y75.423 F7800.000
G1 X95.947 Y87.992 F4560.000 E20.89066
G1 X95.947 Y89.204 F7800.000
G1 X83.023 Y76.280 F4560.000 E21.81075
G1 X82.668 Y77.138 F7800.000
G1 X95.947 Y90.417 F4560.000 E22.75612
G1 X95.947 Y91.629 F7800.000
G1 X82.031 Y77.713 F4560.000 E23.74685
G1 X81.174 Y78.067 F7800.000
G1 X95.947 Y92.841 F4560.000 E24.79861
G1 X95.947 Y94.053 F7800.000
G1 X80.316 Y78.422 F4560.000 E25.91138
G1 X79.063 Y78.381 F7800.000
G1 X95.947 Y95.265 F4560.000 E27.11340
G1 F600.000 E26.61340
G92 E0
G1 X95.947 Y84.356 F7800.000
G1 F600.000 E0.50000
G1 X77.644 Y66.053 F4560.000 E1.80302
G1 X78.856 Y66.053 F7800.000
G1 X95.947 Y83.144 F4560.000 E3.01974
G1 X95.947 Y81.931 F7800.000
G1 X80.069 Y66.053 F4560.000 E4.15016
G1 X81.281 Y66.053 F7800.000
G1 X95.947 Y80.719 F4560.000 E5.19429
G1 X95.947 Y79.507 F7800.000
G1 X82.493 Y66.053 F4560.000 E6.15213
G1 X83.705 Y66.053 F7800.000
G1 X95.947 Y78.295 F4560.000 E7.02366
G1 X95.947 Y77.083 F7800.000
G1 X84.917 Y66.053 F4560.000 E7.80890
G1 X86.130 Y66.053 F7800.000
G1 X95.947 Y75.870 F4560.000 E8.50784
G1 X95.947 Y74.658 F7800.000
G1 X87.342 Y66.053 F4560.000 E9.12049
G1 X88.554 Y66.053 F7800.000
G1 X95.947 Y73.446 F4560.000 E9.64684
G1 X95.947 Y72.234 F7800.000
G1 X89.766 Y66.053 F4560.000 E10.08690
G1 X90.978 Y66.053 F7800.000
G1 X95.947 Y71.022 F4560.000 E10.44066
G1 X95.947 Y69.810 F7800.000
G1 X92.190 Y66.053 F4560.000 E10.70812
G1 X93.403 Y66.053 F7800.000
G1 X95.947 Y68.597 F4560.000 E10.88928
G1 X95.947 Y67.385 F7800.000
G1 X94.615 Y66.053 F4560.000 E10.98415
G1 F600.000 E10.48415
G92 E0
G1 X115.000 Y122.002 F7800.000
G1 F600.000 E0.50000
G1 X117.120 Y122.880 F2880.000 E0.61472
G1 X117.998 Y125.000 E0.72944
G1 X117.120 Y127.120 E0.84416
G1 X115.000 Y127.998 E0.95887
G1 X112.880 Y127.120 E1.07359
G1 X112.002 Y125.000 E1.18831
G1 X112.880 Y122.880 E1.30303
G1 X114.873 Y122.055 E1.41084
G1 F600.000 E0.91084
G92 E0
G1 X115.000 Y77.998 F7800.000
G1 F600.000 E0.50000
G1 X112.880 Y77.120 F2880.000 E0.61472
G1 X112.002 Y75.000 E0.72944
G1 X112.880 Y72.880 E0.84416
G1 X115.000 Y72.002 E0.95887
G1 X117.120 Y72.880 E1.07359
G1 X117.998 Y75.000 E1.18831
G1 X117.120 Y77.120 E1.30303
G1 X115.127 Y77.945 E1.41084
G1 F600.000 E0.91084
G92 E0
G1 X115.036 Y93.290 F7800.000
G1 F600.000 E0.50000
G1 X103.460 Y93.290 F2880.000 E1.07877
G1 X103.460 Y65.460 E2.47019
G1 X131.540 Y65.460 E3.87410
G1 X131.540 Y134.540 E7.32788
G1 X103.460 Y134.540 E8.73180
G1 X103.460 Y106.710 E10.12321
G1 X115.036 Y106.710 E10.70198
G1 X117.075 Y106.387 E10.80520
G1 X118.947 Y105.433 E10.91025
G1 X120.433 Y103.947 E11.01530
G1 X121.387 Y102.075 E11.12035
G1 X121.716 Y100.000 E11.22540
G1 X121.387 Y97.925 E11.33045
G1 X120.433 Y96.053 E11.43550
G1 X118.947 Y94.567 E11.54056
G1 X117.075 Y93.613 E11.64561
G1 X115.173 Y93.312 E11.74192
G1 X115.046 Y92.697 F7800.000
G1 X104.053 Y81.704 F4560.000 E12.52452
G1 X104.053 Y82.916 F7800.000
G1 X113.834 Y92.697 F4560.000 E13.22082
G1 X112.622 Y92.697 F7800.000
G1 X104.053 Y84.128 F4560.000 E13.83082
G1 X104.053 Y85.341 F7800.000
G1 X111.409 Y92.697 F4560.000 E14.35452
G1 X110.197 Y92.697 F7800.000
G1 X104.053 Y86.553 F4560.000 E14.79193
G1 X104.053 Y87.765 F7800.000
G1 X108.985 Y92.697 F4560.000 E15.14305
G1 X107.773 Y92.697 F7800.000
G1 X104.053 Y88.977 F4560.000 E15.40787
G1 X104.053 Y90.189 F7800.000
G1 X106.561 Y92.697 F4560.000 E15.58639
G1 X105.349 Y92.697 F7800.000
G1 X104.053 Y91.401 F4560.000 E15.67861
G1 F600.000 E15.17861
G92 E0
G1 X104.053 Y80.492 F7800.000
G1 F600.000 E0.50000
G1 X116.426 Y92.865 F4560.000 E1.38087
G1 X118.055 Y93.282 F7800.000
G1 X104.053 Y79.280 F4560.000 E2.37773
G1 X104.053 Y78.068 F7800.000
G1 X130.947 Y104.962 F4560.000 E4.29240
G1 X130.947 Y106.174 F7800.000
G1 X121.718 Y96.945 F4560.000 E4.94946
G1 X122.135 Y98.574 F7800.000
G1 X130.947 Y107.386 F4560.000 E5.57683
G1 X130.947 Y108.598 F7800.000
G1 X122.288 Y99.939 F4560.000 E6.19331
G1 X122.122 Y100.985 F7800.000
G1 X130.947 Y109.810 F4560.000 E6.82158
G1 X130.947 Y111.022 F7800.000
G1 X121.957 Y102.032 F4560.000 E7.46165
G1 X121.558 Y102.847 F7800.000
G1 X130.947 Y112.235 F4560.000 E8.13003
G1 X130.947 Y113.447 F7800.000
G1 X121.149 Y103.650 F4560.000 E8.82753
G1 X120.677 Y104.390 F7800.000
G1 X130.947 Y114.659 F4560.000 E9.55867
G1 X130.947 Y115.871 F7800.000
G1 X120.071 Y104.996 F4560.000 E10.33295
G1 X119.465 Y105.602 F7800.000
G1 X130.947 Y117.083 F4560.000 E11.15038
G1 X130.947 Y118.295 F7800.000
G1 X118.750 Y106.098 F4560.000 E12.01872
G1 X117.947 Y106.507 F7800.000
G1 X130.947 Y119.508 F4560.000 E12.94423
G1 X130.947 Y120.720 F7800.000
G1 X117.144 Y106.917 F4560.000 E13.92691
G1 X116.117 Y107.101 F7800.000
G1 X130.948 Y121.932 F4560.000 E14.98277
G1 X130.947 Y123.145 F7800.000
G1 X115.070 Y107.267 F4560.000 E16.11313
G1 X113.894 Y107.303 F7800.000
G1 X130.947 Y124.357 F4560.000 E17.32722
G1 X130.947 Y125.569 F7800.000
G1 X112.681 Y107.303 F4560.000 E18.62759
G1 X111.469 Y107.303 F7800.000
G1 X130.947 Y126.781 F4560.000 E20.01426
G1 X130.947 Y127.993 F7800.000
G1 X110.257 Y107.303 F4560.000 E21.48722
G1 X109.045 Y107.303 F7800.000
G1 X130.947 Y129.205 F4560.000 E23.04646
G1 X130.947 Y130.417 F7800.000
G1 X107.833 Y107.303 F4560.000 E24.69201
G1 X106.621 Y107.303 F7800.000
G1 X130.947 Y131.629 F4560.000 E26.42384
G1 X130.947 Y132.842 F7800.000
G1 X105.408 Y107.303 F4560.000 E28.24201
G1 X104.196 Y107.303 F7800.000
G1 X130.840 Y133.947 F4560.000 E30.13887
G1 X129.628 Y133.947 F7800.000
G1 X104.053 Y108.372 F4560.000 E31.95966
G1 X104.053 Y109.584 F7800.000
G1 X116.195 Y121.726 F4560.000 E32.82411
G1 X114.790 Y121.533 F7800.000
G1 X104.053 Y110.796 F4560.000 E33.58855
