; generated by Slic3r 0.7.3-dev on 2012-05-10 at 08:28:14

; layer_height = 0.3
; perimeters = 2
; solid_layers = 3
; fill_density = 0.25
; nozzle_diameter = 0.5
; filament_diameter = 3
; extrusion_multiplier = 1.05
; perimeter_speed = 40
; infill_speed = 60
; travel_speed = 100
; extrusion_width_ratio = 2.5
; scale = 1
; single wall width = 0.75mm

M104 S230 ; set temperature
M92 E720
G92 X0 Y0 Z0  E0.0
M109 S230 ; wait for temperature to be reached
G90 ; use absolute coordinates
G21 ; set units to millimeters
G92 E0 ; reset extrusion distance
M82 ; use absolute distances for extrusion
M107
G1 Z0.300 F6000.000
G1 X65.525 Y40.062
G1 F600.000 E1.00000
G1 X65.975 Y39.802 F1920.000 E1.01613
G1 X66.215 Y39.682 E1.02445
G1 X66.695 Y39.482 E1.04059
G1 X67.455 Y39.262 E1.06514
G1 X67.965 Y39.172 E1.08121
G1 X68.235 Y39.142 E1.08964
G1 X68.755 Y39.122 E1.10579
G1 X158.745 Y39.142 E3.89833
G1 X159.265 Y39.212 E3.91462
G1 X159.775 Y39.322 E3.93081
G1 X160.275 Y39.482 E3.94710
G1 X160.765 Y39.682 E3.96352
G1 X161.225 Y39.922 E3.97962
G1 X161.875 Y40.362 E4.00398
G1 X162.085 Y40.522 E4.01217
G1 X165.285 Y43.702 E4.15217
G1 X165.625 Y44.102 E4.16846
G1 X165.775 Y44.312 E4.17647
G1 X166.055 Y44.752 E4.19265
G1 X166.405 Y45.442 E4.21666
G1 X166.655 Y46.182 E4.24090
G1 X166.765 Y46.692 E4.25709
G1 X166.835 Y47.202 E4.27306
G1 X167.175 Y110.752 E6.24515
G1 X167.105 Y111.272 E6.26144
G1 X167.055 Y111.532 E6.26965
G1 X166.835 Y112.292 E6.29420
G1 X166.635 Y112.772 E6.31034
G1 X166.255 Y113.462 E6.33479
G1 X166.105 Y113.682 E6.34305
G1 X165.615 Y114.292 E6.36733
G1 X162.595 Y117.302 E6.49964
G1 X162.175 Y117.652 E6.51661
G1 X161.495 Y118.092 E6.54174
G1 X161.005 Y118.342 E6.55881
G1 X160.245 Y118.622 E6.58395
G1 X159.715 Y118.752 E6.60088
G1 X159.175 Y118.832 E6.61782
G1 X109.645 Y119.532 E8.15497
G1 X68.235 Y119.512 E9.44000
G1 X67.715 Y119.442 E9.45628
G1 X67.455 Y119.392 E9.46449
G1 X66.695 Y119.172 E9.48905
G1 X66.215 Y118.972 E9.50518
G1 X65.525 Y118.592 E9.52963
G1 X65.305 Y118.442 E9.53789
G1 X64.695 Y117.952 E9.56217
G1 X61.685 Y114.932 E9.69449
G1 X61.505 Y114.722 E9.70307
G1 X61.185 Y114.292 E9.71970
G1 X60.895 Y113.832 E9.73658
G1 X60.645 Y113.342 E9.75365
G1 X60.365 Y112.582 E9.77878
G1 X60.235 Y112.052 E9.79571
G1 X60.155 Y111.512 E9.81265
G1 X60.135 Y47.402 E11.80210
G1 X60.155 Y47.132 E11.81050
G1 X60.235 Y46.602 E11.82713
G1 X60.365 Y46.072 E11.84407
G1 X60.545 Y45.562 E11.86085
G1 X60.765 Y45.062 E11.87780
G1 X61.035 Y44.592 E11.89462
G1 X61.505 Y43.932 E11.91976
G1 X61.685 Y43.722 E11.92835
G1 X64.695 Y40.702 E12.06066
G1 X65.305 Y40.212 E12.08494
G1 X65.432 Y40.125 E12.08971
G1 F600.000 E11.08971
G92 E0
G1 X105.585 Y88.882 F6000.000
G1 F600.000 E1.00000
G1 X106.205 Y88.442 F1920.000 E1.02359
G1 X106.425 Y88.312 E1.03152
G1 X106.885 Y88.082 E1.04748
G1 X107.355 Y87.892 E1.06321
G1 X108.085 Y87.682 E1.08678
G1 X108.845 Y87.572 E1.11061
G1 X109.355 Y87.552 E1.12645
G1 X168.815 Y87.572 E2.97160
G1 X169.325 Y87.642 E2.98757
G1 X169.815 Y87.742 E3.00309
G1 X170.305 Y87.892 E3.01899
G1 X170.775 Y88.082 E3.03472
G1 X171.235 Y88.312 E3.05068
G1 X171.455 Y88.442 E3.05861
G1 X171.875 Y88.732 E3.07445
G1 X172.275 Y89.052 E3.09035
G1 X172.465 Y89.222 E3.09826
G1 X172.645 Y89.402 E3.10616
G1 X172.815 Y89.592 E3.11407
G1 X173.135 Y89.992 E3.12997
G1 X173.285 Y90.202 E3.13798
G1 X173.545 Y90.632 E3.15357
G1 X173.775 Y91.092 E3.16953
G1 X190.645 Y139.022 E4.74632
G1 X190.895 Y139.972 E4.77680
G1 X191.265 Y142.142 E4.84511
G1 X191.295 Y142.562 E4.85818
G1 X191.285 Y174.192 E5.83971
G1 X191.265 Y174.402 E5.84626
G1 X190.835 Y176.862 E5.92375
G1 X190.765 Y177.152 E5.93301
G1 X190.675 Y177.442 E5.94243
G1 X190.455 Y178.002 E5.96110
G1 X190.325 Y178.272 E5.97040
G1 X189.135 Y180.322 E6.04396
G1 X188.795 Y180.802 E6.06221
G1 X188.405 Y181.252 E6.08069
G1 X188.195 Y181.462 E6.08991
G1 X186.375 Y182.992 E6.16369
G1 X186.125 Y183.172 E6.17325
G1 X185.615 Y183.492 E6.19193
G1 X185.065 Y183.752 E6.21081
G1 X182.535 Y184.652 E6.29414
G1 X181.655 Y184.802 E6.32184
G1 X181.055 Y184.832 E6.34048
G1 X121.625 Y184.672 E8.18470
G1 X121.325 Y184.652 E8.19404
G1 X120.735 Y184.562 E8.21256
G1 X120.155 Y184.412 E8.23115
G1 X117.935 Y183.602 E8.30448
G1 X117.665 Y183.482 E8.31365
G1 X117.155 Y183.202 E8.33170
G1 X116.665 Y182.872 E8.35003
G1 X99.645 Y168.692 E9.03748
G1 X99.225 Y168.282 E9.05569
G1 X98.855 Y167.852 E9.07329
G1 X97.475 Y165.862 E9.14844
G1 X97.185 Y165.342 E9.16692
G1 X96.205 Y162.812 E9.25111
G1 X95.995 Y161.962 E9.27828
G1 X95.735 Y159.822 E9.34518
G1 X95.695 Y159.112 E9.36725
G1 X95.695 Y139.152 E9.98664
G1 X95.735 Y138.442 E10.00871
G1 X103.485 Y92.292 E11.46087
G1 X103.615 Y91.802 E11.47660
G1 X103.785 Y91.322 E11.49241
G1 X103.995 Y90.852 E11.50838
G1 X104.385 Y90.192 E11.53217
G1 X104.685 Y89.782 E11.54794
G1 X105.015 Y89.402 E11.56355
G1 X105.385 Y89.052 E11.57936
G1 X105.500 Y88.955 E11.58401
G1 F600.000 E10.58401
G92 E0
G1 X130.955 Y76.372 F6000.000
G1 F600.000 E1.00000
G1 X131.465 Y76.392 F1920.000 E1.01584
G1 X132.215 Y76.502 E1.03936
G1 X132.715 Y76.632 E1.05539
G1 X133.195 Y76.802 E1.07119
G1 X133.655 Y77.012 E1.08689
G1 X133.885 Y77.132 E1.09494
G1 X134.105 Y77.262 E1.10287
G1 X134.725 Y77.702 E1.12646
G1 X135.105 Y78.042 E1.14228
G1 X135.285 Y78.222 E1.15018
G1 X135.625 Y78.602 E1.16600
G1 X136.065 Y79.222 E1.18960
G1 X136.195 Y79.442 E1.19753
G1 X136.425 Y79.902 E1.21349
G1 X136.615 Y80.372 E1.22922
G1 X136.765 Y80.862 E1.24512
G1 X136.825 Y81.112 E1.25310
G1 X136.935 Y81.862 E1.27662
G1 X136.935 Y118.132 E2.40214
G1 X136.825 Y118.882 E2.42566
G1 X136.695 Y119.382 E2.44169
G1 X136.525 Y119.862 E2.45750
G1 X136.315 Y120.322 E2.47319
G1 X136.195 Y120.552 E2.48124
G1 X136.065 Y120.772 E2.48917
G1 X135.625 Y121.392 E2.51276
G1 X135.285 Y121.772 E2.52858
G1 X135.105 Y121.952 E2.53648
G1 X134.725 Y122.292 E2.55231
G1 X134.105 Y122.732 E2.57590
G1 X133.885 Y122.862 E2.58383
G1 X133.425 Y123.092 E2.59979
G1 X132.955 Y123.282 E2.61552
G1 X132.465 Y123.432 E2.63142
G1 X132.215 Y123.492 E2.63940
G1 X131.465 Y123.602 E2.66292
G1 X130.955 Y123.622 E2.67876
G1 X67.865 Y123.602 E4.63655
G1 X67.115 Y123.492 E4.66007
G1 X66.615 Y123.362 E4.67610
G1 X66.135 Y123.192 E4.69191
G1 X65.675 Y122.982 E4.70760
G1 X65.445 Y122.862 E4.71565
G1 X65.225 Y122.732 E4.72358
G1 X64.605 Y122.292 E4.74717
G1 X64.225 Y121.952 E4.76299
G1 X64.045 Y121.772 E4.77089
G1 X63.705 Y121.392 E4.78672
G1 X63.265 Y120.772 E4.81031
G1 X63.135 Y120.552 E4.81824
G1 X62.905 Y120.092 E4.83420
G1 X62.715 Y119.622 E4.84993
G1 X62.565 Y119.132 E4.86583
G1 X62.505 Y118.882 E4.87381
G1 X62.395 Y118.132 E4.89733
G1 X62.395 Y81.862 E6.02285
G1 X62.505 Y81.112 E6.04637
G1 X62.635 Y80.612 E6.06241
G1 X62.805 Y80.132 E6.07821
G1 X63.015 Y79.672 E6.09390
G1 X63.135 Y79.442 E6.10195
G1 X63.265 Y79.222 E6.10988
G1 X63.705 Y78.602 E6.13347
G1 X64.045 Y78.222 E6.14929
G1 X64.225 Y78.042 E6.15719
G1 X64.605 Y77.702 E6.17302
G1 X65.225 Y77.262 E6.19661
G1 X65.445 Y77.132 E6.20454
G1 X65.905 Y76.902 E6.22050
G1 X66.375 Y76.712 E6.23623
G1 X66.865 Y76.562 E6.25213
G1 X67.115 Y76.502 E6.26011
G1 X67.865 Y76.392 E6.28363
G1 X68.375 Y76.372 E6.29947
G1 X130.843 Y76.372 E8.23794
G1 X131.615 Y76.372 F6000.000
G1 X132.125 Y76.392 F1920.000 E8.25378
G1 X132.875 Y76.502 E8.27731
G1 X133.375 Y76.632 E8.29334
G1 X133.855 Y76.802 E8.30914
G1 X134.315 Y77.012 E8.32483
G1 X134.545 Y77.132 E8.33288
G1 X134.765 Y77.262 E8.34081
G1 X135.385 Y77.702 E8.36440
G1 X135.765 Y78.042 E8.38023
G1 X135.945 Y78.222 E8.38813
G1 X136.285 Y78.602 E8.40395
G1 X136.725 Y79.222 E8.42754
G1 X136.855 Y79.442 E8.43547
G1 X137.085 Y79.902 E8.45143
G1 X137.275 Y80.372 E8.46716
G1 X137.425 Y80.862 E8.48306
G1 X137.485 Y81.112 E8.49104
G1 X137.595 Y81.862 E8.51456
G1 X137.595 Y118.132 E9.64008
G1 X137.485 Y118.882 E9.66361
G1 X137.355 Y119.382 E9.67964
G1 X137.185 Y119.862 E9.69544
G1 X136.975 Y120.322 E9.71113
G1 X136.855 Y120.552 E9.71918
G1 X136.725 Y120.772 E9.72711
G1 X136.285 Y121.392 E9.75070
G1 X135.945 Y121.772 E9.76653
G1 X135.765 Y121.952 E9.77443
G1 X135.385 Y122.292 E9.79025
G1 X134.765 Y122.732 E9.81384
G1 X134.545 Y122.862 E9.82177
G1 X134.085 Y123.092 E9.83773
G1 X133.615 Y123.282 E9.85346
G1 X133.125 Y123.432 E9.86937
G1 X132.875 Y123.492 E9.87734
G1 X132.125 Y123.602 E9.90087
G1 X131.615 Y123.622 E9.91670
G1 X67.865 Y123.602 E11.89497
G1 X67.115 Y123.492 E11.91850
G1 X66.615 Y123.362 E11.93453
G1 X66.135 Y123.192 E11.95033
G1 X65.675 Y122.982 E11.96602
G1 X65.445 Y122.862 E11.97407
G1 X65.225 Y122.732 E11.98200
G1 X64.605 Y122.292 E12.00560
G1 X64.225 Y121.952 E12.02142
G1 X64.045 Y121.772 E12.02932
G1 X63.705 Y121.392 E12.04514
G1 X63.265 Y120.772 E12.06873
G1 X63.135 Y120.552 E12.07666
G1 X62.905 Y120.092 E12.09262
G1 X62.715 Y119.622 E12.10835
G1 X62.565 Y119.132 E12.12426
G1 X62.505 Y118.882 E12.13223
G1 X62.395 Y118.132 E12.15576
G1 X62.395 Y81.862 E13.28128
G1 X62.505 Y81.112 E13.30480
G1 X62.635 Y80.612 E13.32083
G1 X62.805 Y80.132 E13.33663
G1 X63.015 Y79.672 E13.35232
G1 X63.135 Y79.442 E13.36037
G1 X63.265 Y79.222 E13.36830
G1 X63.705 Y78.602 E13.39190
G1 X64.045 Y78.222 E13.40772
G1 X64.225 Y78.042 E13.41562
G1 X64.605 Y77.702 E13.43144
G1 X65.225 Y77.262 E13.45503
G1 X65.445 Y77.132 E13.46296
G1 X65.905 Y76.902 E13.47892
G1 X66.375 Y76.712 E13.49466
G1 X66.865 Y76.562 E13.51056
G1 X67.115 Y76.502 E13.51854
G1 X67.865 Y76.392 E13.54206
G1 X68.375 Y76.372 E13.55790
G1 X131.503 Y76.372 E15.51685
G1 F600.000 E14.51685
G92 E0
G1 X85.973 Y116.971 F6000.000
G1 F600.000 E1.00000
G1 X69.029 Y116.971 F1920.000 E1.52581
G1 X69.029 Y83.027 E2.57916
G1 X70.975 Y83.027 E2.63956
G1 X70.975 Y100.074 E3.16856
G1 X84.029 Y100.074 E3.57364
G1 X84.029 Y83.027 E4.10264
G1 X85.973 Y83.027 E4.16297
G1 X85.973 Y116.859 E5.21283
G1 X86.625 Y117.623 F6000.000
G1 X68.377 Y117.623 F1920.000 E5.77910
G1 X68.377 Y82.375 E6.87290
G1 X71.627 Y82.375 E6.97376
G1 X71.627 Y99.422 E7.50275
G1 X83.377 Y99.422 E7.86738
G1 X83.377 Y82.375 E8.39638
G1 X86.625 Y82.375 E8.49717
G1 X86.625 Y117.511 E9.58748
G1 X85.236 Y116.531 F6000.000
G1 X69.469 Y100.764 F1920.000 E10.28412
G1 X70.144 Y100.513 F6000.000
G1 X85.534 Y115.903 F1920.000 E10.96407
G1 X85.533 Y114.977 F6000.000
G1 X71.070 Y100.514 F1920.000 E11.60310
G1 X70.536 Y100.905 F6000.000
G1 X69.469 Y99.838 F1920.000 E11.65024
G1 X69.468 Y98.912 F6000.000
G1 X70.535 Y99.979 F1920.000 E11.69739
G1 X70.535 Y99.053 F6000.000
G1 X69.468 Y97.986 F1920.000 E11.74453
G1 X69.468 Y97.060 F6000.000
G1 X70.535 Y98.127 F1920.000 E11.79167
G1 X70.536 Y97.201 F6000.000
G1 X69.469 Y96.134 F1920.000 E11.83881
G1 X69.469 Y95.208 F6000.000
G1 X70.536 Y96.275 F1920.000 E11.88595
G1 X70.536 Y95.348 F6000.000
G1 X69.469 Y94.281 F1920.000 E11.93310
G1 X69.468 Y93.356 F6000.000
G1 X70.535 Y94.423 F1920.000 E11.98024
G1 X70.535 Y93.497 F6000.000
G1 X69.468 Y92.430 F1920.000 E12.02738
G1 X69.468 Y91.503 F6000.000
G1 X70.535 Y92.570 F1920.000 E12.07452
G1 X70.536 Y91.644 F6000.000
G1 X69.469 Y90.577 F1920.000 E12.12167
G1 X69.469 Y89.651 F6000.000
G1 X70.536 Y90.718 F1920.000 E12.16881
G1 X70.535 Y89.793 F6000.000
G1 X69.468 Y88.726 F1920.000 E12.21595
G1 X69.468 Y87.799 F6000.000
G1 X70.535 Y88.866 F1920.000 E12.26309
G1 X70.535 Y87.940 F6000.000
G1 X69.468 Y86.873 F1920.000 E12.31024
G1 X69.469 Y85.947 F6000.000
G1 X70.535 Y87.014 F1920.000 E12.35738
G1 X70.536 Y86.088 F6000.000
G1 X69.469 Y85.021 F1920.000 E12.40452
G1 X69.469 Y84.095 F6000.000
G1 X70.536 Y85.162 F1920.000 E12.45166
G1 X70.535 Y84.236 F6000.000
G1 X69.766 Y83.467 F1920.000 E12.48565
G1 F600.000 E11.48565
G92 E0
G1 X84.469 Y84.278 F6000.000
G1 F600.000 E1.00000
G1 X85.534 Y85.343 F1920.000 E1.04705
G1 X85.533 Y86.269 F6000.000
G1 X84.468 Y85.204 F1920.000 E1.09411
G1 X84.468 Y86.130 F6000.000
G1 X85.533 Y87.195 F1920.000 E1.14116
G1 X85.533 Y88.121 F6000.000
G1 X84.468 Y87.056 F1920.000 E1.18821
G1 X84.469 Y87.982 F6000.000
G1 X85.534 Y89.047 F1920.000 E1.23527
G1 X85.534 Y89.973 F6000.000
G1 X84.469 Y88.908 F1920.000 E1.28232
G1 X84.469 Y89.834 F6000.000
G1 X85.534 Y90.899 F1920.000 E1.32938
G1 X85.533 Y91.825 F6000.000
G1 X84.468 Y90.760 F1920.000 E1.37643
G1 X84.468 Y91.687 F6000.000
G1 X85.533 Y92.752 F1920.000 E1.42348
G1 X85.533 Y93.678 F6000.000
G1 X84.468 Y92.613 F1920.000 E1.47054
G1 X84.469 Y93.538 F6000.000
G1 X85.534 Y94.603 F1920.000 E1.51759
G1 X85.534 Y95.529 F6000.000
G1 X84.469 Y94.464 F1920.000 E1.56465
G1 X84.469 Y95.391 F6000.000
G1 X85.534 Y96.456 F1920.000 E1.61170
G1 X85.533 Y97.382 F6000.000
G1 X84.468 Y96.317 F1920.000 E1.65875
G1 X84.468 Y97.243 F6000.000
G1 X85.533 Y98.308 F1920.000 E1.70581
G1 X85.533 Y99.234 F6000.000
G1 X84.468 Y98.169 F1920.000 E1.75286
G1 X84.469 Y99.095 F6000.000
G1 X85.534 Y100.160 F1920.000 E1.79991
G1 X85.534 Y101.086 F6000.000
G1 X84.469 Y100.021 F1920.000 E1.84697
G1 X84.035 Y100.514 F6000.000
G1 X85.534 Y102.012 F1920.000 E1.91317
G1 X85.533 Y102.938 F6000.000
G1 X83.109 Y100.514 F1920.000 E2.02030
G1 X82.183 Y100.514 F6000.000
G1 X85.533 Y103.864 F1920.000 E2.16834
G1 X85.533 Y104.791 F6000.000
G1 X81.256 Y100.514 F1920.000 E2.35730
G1 X80.331 Y100.513 F6000.000
G1 X85.534 Y105.716 F1920.000 E2.58717
G1 X85.534 Y106.642 F6000.000
G1 X79.405 Y100.513 F1920.000 E2.85796
G1 X78.479 Y100.514 F6000.000
G1 X85.534 Y107.568 F1920.000 E3.16967
G1 X85.533 Y108.495 F6000.000
G1 X77.552 Y100.514 F1920.000 E3.52229
G1 X76.626 Y100.514 F6000.000
G1 X85.533 Y109.421 F1920.000 E3.91582
G1 X85.534 Y110.346 F6000.000
G1 X75.701 Y100.513 F1920.000 E4.35028
G1 X74.775 Y100.513 F6000.000
G1 X85.534 Y111.273 F1920.000 E4.82565
G1 X85.534 Y112.199 F6000.000
G1 X73.848 Y100.513 F1920.000 E5.34193
G1 X72.922 Y100.514 F6000.000
G1 X85.533 Y113.125 F1920.000 E5.89913
G1 X85.533 Y114.051 F6000.000
G1 X71.996 Y100.514 F1920.000 E6.49725
G1 X69.469 Y101.690 F6000.000
G1 X84.310 Y116.531 F1920.000 E7.15298
G1 X83.384 Y116.532 F6000.000
G1 X69.468 Y102.616 F1920.000 E7.76779
G1 X69.468 Y103.543 F6000.000
G1 X82.458 Y116.532 F1920.000 E8.34169
G1 X81.531 Y116.532 F6000.000
G1 X69.468 Y104.469 F1920.000 E8.87467
G1 X69.469 Y105.394 F6000.000
G1 X80.606 Y116.531 F1920.000 E9.36673
G1 X79.680 Y116.531 F6000.000
G1 X69.469 Y106.320 F1920.000 E9.81788
G1 X69.469 Y107.247 F6000.000
G1 X78.753 Y116.531 F1920.000 E10.22811
G1 X77.827 Y116.532 F6000.000
G1 X69.468 Y108.173 F1920.000 E10.59743
G1 X69.468 Y109.099 F6000.000
G1 X76.901 Y116.532 F1920.000 E10.92583
G1 X75.975 Y116.532 F6000.000
G1 X69.468 Y110.025 F1920.000 E11.21331
G1 X69.469 Y110.951 F6000.000
G1 X75.049 Y116.531 F1920.000 E11.45988
G1 X74.123 Y116.531 F6000.000
G1 X69.469 Y111.877 F1920.000 E11.66553
G1 X69.469 Y112.803 F6000.000
G1 X73.197 Y116.531 F1920.000 E11.83026
G1 X72.271 Y116.532 F6000.000
G1 X69.468 Y113.729 F1920.000 E11.95409
G1 X69.468 Y114.655 F6000.000
G1 X71.345 Y116.532 F1920.000 E12.03699
G1 X70.418 Y116.532 F6000.000
G1 X69.468 Y115.582 F1920.000 E12.07898
G1 F600.000 E11.07898
G92 E0
G1 X85.534 Y84.417 F6000.000
G1 F600.000 E1.00000
G1 X84.583 Y83.466 F1920.000 E1.04199
G1 F600.000 E0.04199
G92 E0
G1 X129.027 Y83.029 F6000.000
G1 F600.000 E1.00000
G1 X130.971 Y83.029 F1920.000 E1.06034
G1 X130.971 Y116.973 E2.11369
G1 X114.027 Y116.973 E2.63950
G1 X114.027 Y83.029 E3.69285
G1 X115.973 Y83.029 E3.75325
G1 X115.973 Y100.076 E4.28225
G1 X129.027 Y100.076 E4.68732
G1 X129.027 Y83.141 E5.21283
G1 X128.375 Y82.377 F6000.000
G1 X131.623 Y82.377 F1920.000 E5.31362
G1 X131.623 Y117.625 E6.40743
G1 X113.375 Y117.625 E6.97369
G1 X113.375 Y82.377 E8.06750
G1 X116.625 Y82.377 E8.16835
G1 X116.625 Y99.424 E8.69735
G1 X128.375 Y99.424 E9.06197
G1 X128.375 Y82.489 E9.58748
G1 X129.581 Y83.468 F6000.000
G1 X130.532 Y84.419 F1920.000 E9.62947
G1 X130.532 Y85.345 F6000.000
G1 X129.467 Y84.280 F1920.000 E9.67652
G1 X129.466 Y85.206 F6000.000
G1 X130.531 Y86.271 F1920.000 E9.72358
G1 X130.531 Y87.197 F6000.000
G1 X129.466 Y86.132 F1920.000 E9.77063
G1 X129.466 Y87.058 F6000.000
G1 X130.531 Y88.123 F1920.000 E9.81768
G1 X130.532 Y89.049 F6000.000
G1 X129.467 Y87.984 F1920.000 E9.86474
G1 X129.467 Y88.910 F6000.000
