; generated by Slic3r 0.7.3-dev on 2012-05-10 at 08:29:10

; layer_height = 0.3
; perimeters = 2
; solid_layers = 3
; fill_density = 0.25
; nozzle_diameter = 0.5
; filament_diameter = 3
; extrusion_multiplier = 1.05
; perimeter_speed = 40
; infill_speed = 60
; travel_speed = 100
; extrusion_width_ratio = 2.5
; scale = 1
; single wall width = 0.75mm

M104 S230 ; set temperature
M92 E720
G92 X0 Y0 Z0  E0.0
G90 ; use absolute coordinates
G21 ; set units to millimeters
G92 E0 ; reset extrusion distance
M82 ; use absolute distances for extrusion
M107
G1 Z0.300 F6000.000
G1 X64.042 Y78.220
G1 F600.000 E1.00000
G1 X64.222 Y78.040 F1920.000 E1.00790
G1 X64.602 Y77.700 E1.02372
G1 X65.222 Y77.260 E1.04731
G1 X65.442 Y77.130 E1.05524
G1 X65.902 Y76.900 E1.07120
G1 X66.372 Y76.710 E1.08694
G1 X66.862 Y76.560 E1.10284
G1 X67.112 Y76.500 E1.11082
G1 X67.862 Y76.390 E1.13434
G1 X68.372 Y76.370 E1.15018
G1 X132.132 Y76.390 E3.12876
G1 X132.882 Y76.500 E3.15228
G1 X133.382 Y76.630 E3.16831
G1 X133.862 Y76.800 E3.18411
G1 X134.322 Y77.010 E3.19981
G1 X134.552 Y77.130 E3.20786
G1 X134.772 Y77.260 E3.21579
G1 X135.392 Y77.700 E3.23938
G1 X135.772 Y78.040 E3.25520
G1 X135.952 Y78.220 E3.26310
G1 X136.292 Y78.600 E3.27892
G1 X136.732 Y79.220 E3.30252
G1 X136.862 Y79.440 E3.31045
G1 X137.092 Y79.900 E3.32641
G1 X137.282 Y80.370 E3.34214
G1 X137.432 Y80.860 E3.35804
G1 X137.492 Y81.110 E3.36602
G1 X137.602 Y81.860 E3.38954
G1 X137.602 Y118.130 E4.51506
G1 X137.492 Y118.880 E4.53858
G1 X137.362 Y119.380 E4.55461
G1 X137.192 Y119.860 E4.57042
G1 X136.982 Y120.320 E4.58611
G1 X136.862 Y120.550 E4.59416
G1 X136.732 Y120.770 E4.60209
G1 X136.292 Y121.390 E4.62568
G1 X135.952 Y121.770 E4.64150
G1 X135.772 Y121.950 E4.64940
G1 X135.392 Y122.290 E4.66523
G1 X134.772 Y122.730 E4.68882
G1 X134.552 Y122.860 E4.69675
G1 X134.092 Y123.090 E4.71271
G1 X133.622 Y123.280 E4.72844
G1 X133.132 Y123.430 E4.74434
G1 X132.882 Y123.490 E4.75232
G1 X132.132 Y123.600 E4.77584
G1 X131.622 Y123.620 E4.79168
G1 X67.862 Y123.600 E6.77026
G1 X67.112 Y123.490 E6.79378
G1 X66.612 Y123.360 E6.80981
G1 X66.132 Y123.190 E6.82562
G1 X65.672 Y122.980 E6.84131
G1 X65.442 Y122.860 E6.84936
G1 X65.222 Y122.730 E6.85729
G1 X64.602 Y122.290 E6.88088
G1 X64.222 Y121.950 E6.89670
G1 X64.042 Y121.770 E6.90460
G1 X63.702 Y121.390 E6.92043
G1 X63.262 Y120.770 E6.94402
G1 X63.132 Y120.550 E6.95195
G1 X62.902 Y120.090 E6.96791
G1 X62.712 Y119.620 E6.98364
G1 X62.562 Y119.130 E6.99954
G1 X62.502 Y118.880 E7.00752
G1 X62.392 Y118.130 E7.03104
G1 X62.392 Y81.860 E8.15656
G1 X62.502 Y81.110 E8.18008
G1 X62.632 Y80.610 E8.19612
G1 X62.802 Y80.130 E8.21192
G1 X63.012 Y79.670 E8.22761
G1 X63.132 Y79.440 E8.23566
G1 X63.262 Y79.220 E8.24359
G1 X63.702 Y78.600 E8.26718
G1 X63.967 Y78.304 E8.27951
G1 F600.000 E7.27951
G92 E0
G1 X114.027 Y83.029 F6000.000
G1 F600.000 E1.00000
G1 X115.973 Y83.029 F1920.000 E1.06040
G1 X115.973 Y100.076 E1.58940
G1 X129.027 Y100.076 E1.99447
G1 X129.027 Y83.029 E2.52347
G1 X130.971 Y83.029 E2.58381
G1 X130.971 Y116.973 E3.63716
G1 X114.027 Y116.973 E4.16297
G1 X114.027 Y83.141 E5.21283
G1 X113.375 Y82.377 F6000.000
G1 X116.625 Y82.377 F1920.000 E5.31368
G1 X116.625 Y99.424 E5.84268
G1 X128.375 Y99.424 E6.20731
G1 X128.375 Y82.377 E6.73630
G1 X131.623 Y82.377 E6.83710
G1 X131.623 Y117.625 E7.93090
G1 X113.375 Y117.625 E8.49717
G1 X113.375 Y82.489 E9.58748
G1 F600.000 E8.58748
G92 E0
G1 X108.305 Y83.027 F6000.000
G1 F600.000 E1.00000
G1 X108.305 Y116.971 F1920.000 E2.05335
G1 X91.360 Y116.971 E2.57916
G1 X91.360 Y83.027 E3.63251
G1 X93.307 Y83.027 E3.69291
G1 X93.307 Y100.074 E4.22191
G1 X106.360 Y100.074 E4.62699
G1 X106.360 Y83.027 E5.15599
G1 X108.192 Y83.027 E5.21283
G1 X108.956 Y82.375 F6000.000
G1 X108.956 Y117.623 F1920.000 E6.30664
G1 X90.708 Y117.623 E6.87290
G1 X90.708 Y82.375 E7.96671
G1 X93.958 Y82.375 E8.06756
G1 X93.958 Y99.422 E8.59656
G1 X105.708 Y99.422 E8.96118
G1 X105.708 Y82.375 E9.49018
G1 X108.844 Y82.375 E9.58748
G1 F600.000 E8.58748
G92 E0
G1 X85.973 Y83.027 F6000.000
G1 F600.000 E1.00000
G1 X85.973 Y116.971 F1920.000 E2.05335
G1 X69.029 Y116.971 E2.57916
G1 X69.029 Y83.027 E3.63251
G1 X70.975 Y83.027 E3.69291
G1 X70.975 Y100.074 E4.22191
G1 X84.029 Y100.074 E4.62699
G1 X84.029 Y83.027 E5.15599
G1 X85.861 Y83.027 E5.21283
G1 X86.625 Y82.375 F6000.000
G1 X86.625 Y117.623 F1920.000 E6.30664
G1 X68.377 Y117.623 E6.87290
G1 X68.377 Y82.375 E7.96671
G1 X71.627 Y82.375 E8.06756
G1 X71.627 Y99.422 E8.59656
G1 X83.377 Y99.422 E8.96118
G1 X83.377 Y82.375 E9.49018
G1 X86.512 Y82.375 E9.58748
G1 F600.000 E8.58748
G92 E0
G1 X114.467 Y84.097 F6000.000
G1 F600.000 E1.00000
G1 X115.534 Y85.164 F1920.000 E1.04714
G1 X115.533 Y84.238 F6000.000
G1 X114.764 Y83.469 F1920.000 E1.08114
G1 X114.467 Y85.023 F6000.000
G1 X115.534 Y86.090 F1920.000 E1.12828
G1 X115.534 Y87.016 F6000.000
G1 X114.467 Y85.949 F1920.000 E1.17542
G1 X114.466 Y86.875 F6000.000
G1 X115.533 Y87.942 F1920.000 E1.22256
G1 X115.533 Y88.868 F6000.000
G1 X114.466 Y87.801 F1920.000 E1.26971
G1 X114.466 Y88.728 F6000.000
G1 X115.533 Y89.795 F1920.000 E1.31685
G1 X115.534 Y90.720 F6000.000
G1 X114.467 Y89.653 F1920.000 E1.36399
G1 X114.467 Y90.579 F6000.000
G1 X115.534 Y91.646 F1920.000 E1.41113
G1 X115.534 Y92.572 F6000.000
G1 X114.467 Y91.506 F1920.000 E1.45827
G1 X114.466 Y92.432 F6000.000
G1 X115.533 Y93.499 F1920.000 E1.50541
G1 X115.533 Y94.425 F6000.000
G1 X114.466 Y93.358 F1920.000 E1.55256
G1 X114.467 Y94.283 F6000.000
G1 X115.534 Y95.350 F1920.000 E1.59970
G1 X115.534 Y96.276 F6000.000
G1 X114.467 Y95.210 F1920.000 E1.64684
G1 X114.467 Y96.136 F6000.000
G1 X115.534 Y97.203 F1920.000 E1.69398
G1 X115.534 Y98.129 F6000.000
G1 X114.466 Y97.062 F1920.000 E1.74112
G1 X114.466 Y97.988 F6000.000
G1 X115.533 Y99.055 F1920.000 E1.78827
G1 X115.533 Y99.981 F6000.000
G1 X114.466 Y98.914 F1920.000 E1.83541
G1 X114.467 Y99.840 F6000.000
G1 X115.534 Y100.907 F1920.000 E1.88255
G1 X115.142 Y100.515 F6000.000
G1 X130.532 Y115.905 F1920.000 E2.56251
G1 X130.234 Y116.533 F6000.000
G1 X114.467 Y100.766 F1920.000 E3.25914
G1 X114.467 Y101.692 F6000.000
G1 X129.308 Y116.534 F1920.000 E3.91488
G1 X128.382 Y116.534 F6000.000
G1 X114.466 Y102.618 F1920.000 E4.52970
G1 X114.466 Y103.544 F6000.000
G1 X127.456 Y116.534 F1920.000 E5.10360
G1 X126.529 Y116.534 F6000.000
G1 X114.466 Y104.471 F1920.000 E5.63657
G1 X114.467 Y105.396 F6000.000
G1 X125.604 Y116.533 F1920.000 E6.12863
G1 X124.677 Y116.533 F6000.000
G1 X114.467 Y106.322 F1920.000 E6.57976
G1 X114.467 Y107.249 F6000.000
G1 X123.752 Y116.534 F1920.000 E6.99000
G1 X122.825 Y116.534 F6000.000
G1 X114.466 Y108.175 F1920.000 E7.35933
G1 X114.466 Y109.101 F6000.000
G1 X121.899 Y116.534 F1920.000 E7.68772
G1 X120.973 Y116.534 F6000.000
G1 X114.466 Y110.027 F1920.000 E7.97521
G1 X114.467 Y110.953 F6000.000
G1 X120.047 Y116.533 F1920.000 E8.22178
G1 X119.121 Y116.533 F6000.000
G1 X114.467 Y111.879 F1920.000 E8.42743
G1 X114.467 Y112.805 F6000.000
G1 X118.195 Y116.533 F1920.000 E8.59216
G1 X117.269 Y116.534 F6000.000
G1 X114.466 Y113.731 F1920.000 E8.71598
G1 X114.466 Y114.657 F6000.000
G1 X116.343 Y116.534 F1920.000 E8.79889
G1 X115.416 Y116.534 F6000.000
G1 X114.466 Y115.583 F1920.000 E8.84088
G1 F600.000 E7.84088
G92 E0
G1 X116.068 Y100.516 F6000.000
G1 F600.000 E1.00000
G1 X130.531 Y114.979 F1920.000 E1.63904
G1 X130.531 Y114.053 F6000.000
G1 X116.994 Y100.516 F1920.000 E2.23716
G1 X117.920 Y100.516 F6000.000
G1 X130.531 Y113.127 F1920.000 E2.79436
G1 X130.531 Y112.201 F6000.000
G1 X118.846 Y100.515 F1920.000 E3.31064
G1 X119.773 Y100.515 F6000.000
G1 X130.531 Y111.274 F1920.000 E3.78600
G1 X130.532 Y110.349 F6000.000
G1 X120.699 Y100.515 F1920.000 E4.22047
G1 X121.624 Y100.516 F6000.000
G1 X130.531 Y109.423 F1920.000 E4.61401
G1 X130.531 Y108.497 F6000.000
G1 X122.550 Y100.516 F1920.000 E4.96664
G1 X123.477 Y100.516 F6000.000
G1 X130.532 Y107.570 F1920.000 E5.27834
G1 X130.532 Y106.644 F6000.000
G1 X124.403 Y100.515 F1920.000 E5.54913
G1 X125.329 Y100.515 F6000.000
G1 X130.532 Y105.718 F1920.000 E5.77901
G1 X130.531 Y104.793 F6000.000
G1 X126.254 Y100.516 F1920.000 E5.96796
G1 X127.181 Y100.516 F6000.000
G1 X130.531 Y103.866 F1920.000 E6.11600
G1 X130.531 Y102.940 F6000.000
G1 X128.107 Y100.516 F1920.000 E6.22313
G1 X129.033 Y100.516 F6000.000
G1 X130.532 Y102.014 F1920.000 E6.28934
G1 X130.532 Y101.088 F6000.000
G1 X129.467 Y100.023 F1920.000 E6.33639
G1 X129.467 Y99.097 F6000.000
G1 X130.532 Y100.162 F1920.000 E6.38345
G1 X130.531 Y99.236 F6000.000
G1 X129.466 Y98.171 F1920.000 E6.43050
G1 X129.466 Y97.245 F6000.000
G1 X130.531 Y98.310 F1920.000 E6.47755
G1 X130.531 Y97.384 F6000.000
G1 X129.466 Y96.319 F1920.000 E6.52461
G1 X129.467 Y95.393 F6000.000
G1 X130.532 Y96.458 F1920.000 E6.57166
G1 X130.532 Y95.531 F6000.000
G1 X129.467 Y94.466 F1920.000 E6.61871
G1 X129.467 Y93.540 F6000.000
G1 X130.532 Y94.605 F1920.000 E6.66577
G1 X130.531 Y93.680 F6000.000
G1 X129.466 Y92.615 F1920.000 E6.71282
G1 X129.466 Y91.689 F6000.000
G1 X130.531 Y92.754 F1920.000 E6.75988
G1 X130.531 Y91.827 F6000.000
G1 X129.466 Y90.762 F1920.000 E6.80693
G1 X129.467 Y89.836 F6000.000
G1 X130.532 Y90.901 F1920.000 E6.85398
G1 X130.532 Y89.975 F6000.000
G1 X129.467 Y88.910 F1920.000 E6.90104
G1 X129.467 Y87.984 F6000.000
G1 X130.532 Y89.049 F1920.000 E6.94809
G1 X130.531 Y88.123 F6000.000
G1 X129.466 Y87.058 F1920.000 E6.99515
G1 X129.466 Y86.132 F6000.000
G1 X130.531 Y87.197 F1920.000 E7.04220
G1 X130.531 Y86.271 F6000.000
G1 X129.466 Y85.206 F1920.000 E7.08925
G1 X129.467 Y84.280 F6000.000
G1 X130.532 Y85.345 F1920.000 E7.13631
G1 X130.532 Y84.419 F6000.000
G1 X129.581 Y83.468 F1920.000 E7.17830
G1 F600.000 E6.17830
G92 E0
G1 X107.865 Y84.417 F6000.000
G1 F600.000 E1.00000
G1 X106.914 Y83.467 F1920.000 E1.04199
G1 X106.799 Y84.278 F6000.000
G1 X107.865 Y85.343 F1920.000 E1.08904
G1 X107.865 Y86.269 F6000.000
G1 X106.800 Y85.204 F1920.000 E1.13610
G1 X106.800 Y86.130 F6000.000
G1 X107.865 Y87.195 F1920.000 E1.18315
G1 X107.865 Y88.121 F6000.000
G1 X106.800 Y87.056 F1920.000 E1.23020
G1 X106.800 Y87.982 F6000.000
G1 X107.865 Y89.047 F1920.000 E1.27726
G1 X107.865 Y89.973 F6000.000
G1 X106.800 Y88.909 F1920.000 E1.32431
G1 X106.800 Y89.834 F6000.000
G1 X107.865 Y90.899 F1920.000 E1.37137
G1 X107.865 Y91.825 F6000.000
G1 X106.800 Y90.760 F1920.000 E1.41842
G1 X106.800 Y91.686 F6000.000
G1 X107.865 Y92.751 F1920.000 E1.46547
G1 X107.865 Y93.678 F6000.000
G1 X106.800 Y92.613 F1920.000 E1.51253
G1 X106.800 Y93.539 F6000.000
G1 X107.865 Y94.604 F1920.000 E1.55958
G1 X107.865 Y95.530 F6000.000
G1 X106.800 Y94.465 F1920.000 E1.60663
G1 X106.800 Y95.390 F6000.000
G1 X107.865 Y96.455 F1920.000 E1.65369
G1 X107.865 Y97.382 F6000.000
G1 X106.800 Y96.317 F1920.000 E1.70074
G1 X106.800 Y97.243 F6000.000
G1 X107.865 Y98.308 F1920.000 E1.74779
G1 X107.865 Y99.234 F6000.000
G1 X106.800 Y98.169 F1920.000 E1.79485
G1 X106.800 Y99.095 F6000.000
G1 X107.865 Y100.160 F1920.000 E1.84190
G1 X107.865 Y101.086 F6000.000
G1 X106.800 Y100.021 F1920.000 E1.88896
G1 X106.367 Y100.513 F6000.000
G1 X107.865 Y102.012 F1920.000 E1.95517
G1 X107.865 Y102.938 F6000.000
G1 X105.440 Y100.513 F1920.000 E2.06229
G1 X104.514 Y100.513 F6000.000
G1 X107.865 Y103.864 F1920.000 E2.21034
G1 X107.865 Y104.790 F6000.000
G1 X103.588 Y100.514 F1920.000 E2.39929
G1 X102.662 Y100.514 F6000.000
G1 X107.865 Y105.717 F1920.000 E2.62917
G1 X107.865 Y106.643 F6000.000
G1 X101.736 Y100.514 F1920.000 E2.89996
G1 X100.810 Y100.513 F6000.000
G1 X107.865 Y107.568 F1920.000 E3.21166
G1 X107.865 Y108.494 F6000.000
G1 X99.884 Y100.513 F1920.000 E3.56428
G1 X98.958 Y100.514 F6000.000
G1 X107.865 Y109.421 F1920.000 E3.95782
G1 X107.865 Y110.347 F6000.000
G1 X98.032 Y100.514 F1920.000 E4.39227
G1 X97.105 Y100.514 F6000.000
G1 X107.865 Y111.273 F1920.000 E4.86764
G1 X107.865 Y112.198 F6000.000
G1 X96.180 Y100.513 F1920.000 E5.38393
G1 X95.254 Y100.513 F6000.000
G1 X107.865 Y113.125 F1920.000 E5.94113
G1 X107.865 Y114.051 F6000.000
G1 X94.328 Y100.513 F1920.000 E6.53925
G1 X93.401 Y100.514 F6000.000
G1 X107.865 Y114.977 F1920.000 E7.17828
G1 X107.865 Y115.903 F6000.000
G1 X92.475 Y100.514 F1920.000 E7.85823
G1 X92.867 Y100.905 F6000.000
G1 X91.800 Y99.838 F1920.000 E7.90537
G1 X91.800 Y98.912 F6000.000
G1 X92.867 Y99.979 F1920.000 E7.95251
G1 X92.867 Y99.053 F6000.000
G1 X91.800 Y97.986 F1920.000 E7.99965
G1 X91.800 Y97.060 F6000.000
G1 X92.867 Y98.127 F1920.000 E8.04680
G1 X92.867 Y97.200 F6000.000
G1 X91.800 Y96.133 F1920.000 E8.09394
G1 X91.800 Y95.208 F6000.000
G1 X92.867 Y96.275 F1920.000 E8.14108
G1 X92.867 Y95.349 F6000.000
G1 X91.800 Y94.282 F1920.000 E8.18822
G1 X91.800 Y93.356 F6000.000
G1 X92.867 Y94.423 F1920.000 E8.23537
G1 X92.867 Y93.496 F6000.000
G1 X91.800 Y92.429 F1920.000 E8.28251
G1 X91.800 Y91.503 F6000.000
G1 X92.867 Y92.570 F1920.000 E8.32965
G1 X92.866 Y91.645 F6000.000
G1 X91.800 Y90.578 F1920.000 E8.37679
G1 X91.800 Y89.652 F6000.000
G1 X92.867 Y90.719 F1920.000 E8.42394
G1 X92.867 Y89.792 F6000.000
G1 X91.800 Y88.725 F1920.000 E8.47108
G1 X91.800 Y87.799 F6000.000
G1 X92.867 Y88.866 F1920.000 E8.51822
G1 X92.867 Y87.940 F6000.000
G1 X91.800 Y86.873 F1920.000 E8.56536
G1 X91.800 Y85.947 F6000.000
G1 X92.867 Y87.014 F1920.000 E8.61250
G1 X92.866 Y86.088 F6000.000
G1 X91.800 Y85.021 F1920.000 E8.65964
G1 X91.800 Y84.095 F6000.000
G1 X92.867 Y85.162 F1920.000 E8.70679
G1 X92.867 Y84.236 F6000.000
G1 X92.097 Y83.467 F1920.000 E8.74078
G1 F600.000 E7.74078
G92 E0
G1 X91.800 Y100.764 F6000.000
G1 F600.000 E1.00000
G1 X107.567 Y116.532 F1920.000 E1.69665
G1 X106.641 Y116.531 F6000.000
G1 X91.800 Y101.690 F1920.000 E2.35237
G1 X91.800 Y102.616 F6000.000
G1 X105.715 Y116.531 F1920.000 E2.96718
G1 X104.789 Y116.531 F6000.000
G1 X91.800 Y103.542 F1920.000 E3.54108
G1 X91.800 Y104.468 F6000.000
G1 X103.863 Y116.532 F1920.000 E4.07406
G1 X102.937 Y116.532 F6000.000
G1 X91.800 Y105.395 F1920.000 E4.56612
G1 X91.800 Y106.321 F6000.000
G1 X102.011 Y116.532 F1920.000 E5.01727
G1 X101.085 Y116.531 F6000.000
G1 X91.800 Y107.246 F1920.000 E5.42750
G1 X91.800 Y108.173 F6000.000
G1 X100.159 Y116.531 F1920.000 E5.79682
G1 X99.233 Y116.531 F6000.000
G1 X91.800 Y109.099 F1920.000 E6.12521
G1 X91.800 Y110.025 F6000.000
G1 X98.306 Y116.532 F1920.000 E6.41270
G1 X97.380 Y116.532 F6000.000
G1 X91.800 Y110.951 F1920.000 E6.65927
G1 X91.800 Y111.877 F6000.000
G1 X96.454 Y116.532 F1920.000 E6.86492
G1 X95.529 Y116.531 F6000.000
G1 X91.800 Y112.803 F1920.000 E7.02966
G1 X91.800 Y113.729 F6000.000
G1 X94.602 Y116.531 F1920.000 E7.15348
G1 X93.676 Y116.531 F6000.000
G1 X91.800 Y114.655 F1920.000 E7.23638
G1 X91.800 Y115.581 F6000.000
G1 X92.750 Y116.532 F1920.000 E7.27837
G1 X85.534 Y115.903 F6000.000
G1 X70.144 Y100.513 F1920.000 E7.95832
G1 X70.536 Y100.905 F6000.000
G1 X69.469 Y99.838 F1920.000 E8.00546
G1 X69.468 Y98.912 F6000.000
G1 X70.535 Y99.979 F1920.000 E8.05260
G1 X71.070 Y100.514 F6000.000
G1 X85.533 Y114.977 F1920.000 E8.69163
G1 X85.533 Y114.051 F6000.000
G1 X71.996 Y100.514 F1920.000 E9.28975
G1 X72.922 Y100.514 F6000.000
G1 X85.533 Y113.125 F1920.000 E9.84695
G1 X85.534 Y112.199 F6000.000
G1 X73.848 Y100.513 F1920.000 E10.36323
G1 X74.775 Y100.513 F6000.000
G1 X85.534 Y111.273 F1920.000 E10.83860
G1 X85.534 Y110.346 F6000.000
G1 X75.701 Y100.513 F1920.000 E11.27306
G1 X76.626 Y100.514 F6000.000
G1 X85.533 Y109.421 F1920.000 E11.66660
G1 X85.533 Y108.495 F6000.000
G1 X77.552 Y100.514 F1920.000 E12.01922
G1 X78.479 Y100.514 F6000.000
G1 X85.534 Y107.568 F1920.000 E12.33092
G1 X85.534 Y106.642 F6000.000
G1 X79.405 Y100.513 F1920.000 E12.60171
G1 X80.331 Y100.513 F6000.000
G1 X85.534 Y105.716 F1920.000 E12.83158
G1 X85.533 Y104.791 F6000.000
G1 X81.256 Y100.514 F1920.000 E13.02054
G1 X82.183 Y100.514 F6000.000
G1 X85.533 Y103.864 F1920.000 E13.16858
G1 X85.533 Y102.938 F6000.000
G1 X83.109 Y100.514 F1920.000 E13.27571
G1 X84.035 Y100.514 F6000.000
G1 X85.534 Y102.012 F1920.000 E13.34192
G1 X85.534 Y101.086 F6000.000
G1 X84.469 Y100.021 F1920.000 E13.38897
G1 X84.469 Y99.095 F6000.000
G1 X85.534 Y100.160 F1920.000 E13.43602
