; generated by Slic3r 0.7.3-dev on 2012-05-10 at 11:42:10

; layer_height = 0.4
; perimeters = 1
; solid_layers = 3
; fill_density = 0.25
; nozzle_diameter = 0.75
; filament_diameter = 3
; extrusion_multiplier = 1
; perimeter_speed = 40
; infill_speed = 70
; travel_speed = 130
; extrusion_width_ratio = 2.3
; scale = 1
; single wall width = 0.92mm

M104 S230 ; set temperature
M92 E380
G92 X0 Y0 Z0  E0.0
G1 Z2.0 F150.0
G1 X-250.0 F2100.0
G1 X-249.0 F300.0
G1 X-251.0 F100.0
G92 X3.0
G1 Y-250.0 F2100.0
G1 Y-249.0 F300.0
G1 Y-251.0 F300.0
G92 Y10.0
G1 Y70.0 F2100.0
G1 Z-250.0 F150.0
G1 Z-249.0 F50.0
G1 Z-251.0 F50.0
G1 Y75.0 E2.0  F1000.0
G1 Y100.0 E2.3  F1000.0
G92 Z0.3
G92 E0.0
M106 S70
M107
M109 S230 ; wait for temperature to be reached
G90 ; use absolute coordinates
G21 ; set units to millimeters
G92 E0 ; reset extrusion distance
M82 ; use absolute distances for extrusion
M107
G1 Z0.400 F7800.000
G1 X64.132 Y78.310
G1 F600.000 E0.50000
G1 X64.312 Y78.130 F1920.000 E0.51273
G1 X64.692 Y77.790 E0.53822
G1 X65.312 Y77.350 E0.57623
G1 X65.532 Y77.220 E0.58901
G1 X65.992 Y76.990 E0.61472
G1 X66.462 Y76.800 E0.64007
G1 X66.952 Y76.650 E0.66569
G1 X67.202 Y76.590 E0.67854
G1 X67.952 Y76.480 E0.71644
G1 X68.462 Y76.460 E0.74196
G1 X132.042 Y76.480 E3.92076
G1 X132.792 Y76.590 E3.95866
G1 X133.292 Y76.720 E3.98449
G1 X133.772 Y76.890 E4.00995
G1 X134.232 Y77.100 E4.03523
G1 X134.462 Y77.220 E4.04820
G1 X134.682 Y77.350 E4.06098
G1 X135.302 Y77.790 E4.09899
G1 X135.682 Y78.130 E4.12448
G1 X135.862 Y78.310 E4.13721
G1 X136.202 Y78.690 E4.16270
G1 X136.642 Y79.310 E4.20071
G1 X136.772 Y79.530 E4.21349
G1 X137.002 Y79.990 E4.23920
G1 X137.192 Y80.460 E4.26455
G1 X137.342 Y80.950 E4.29017
G1 X137.402 Y81.200 E4.30302
G1 X137.512 Y81.950 E4.34092
G1 X137.512 Y118.050 E6.14581
G1 X137.402 Y118.800 E6.18371
G1 X137.272 Y119.300 E6.20954
G1 X137.102 Y119.780 E6.23499
G1 X136.892 Y120.240 E6.26028
G1 X136.772 Y120.470 E6.27325
G1 X136.642 Y120.690 E6.28602
G1 X136.202 Y121.310 E6.32403
G1 X135.862 Y121.690 E6.34953
G1 X135.682 Y121.870 E6.36225
G1 X135.302 Y122.210 E6.38775
G1 X134.682 Y122.650 E6.42576
G1 X134.462 Y122.780 E6.43853
G1 X134.002 Y123.010 E6.46425
G1 X133.532 Y123.200 E6.48959
G1 X133.042 Y123.350 E6.51521
G1 X132.792 Y123.410 E6.52807
G1 X132.042 Y123.520 E6.56597
G1 X131.532 Y123.540 E6.59149
G1 X67.952 Y123.510 E9.77029
G1 X67.192 Y123.400 E9.80868
G1 X66.702 Y123.270 E9.83403
G1 X66.222 Y123.100 E9.85949
G1 X65.762 Y122.890 E9.88477
G1 X65.532 Y122.770 E9.89774
G1 X65.312 Y122.640 E9.91051
G1 X64.692 Y122.200 E9.94853
G1 X64.312 Y121.860 E9.97402
G1 X64.132 Y121.680 E9.98675
G1 X63.792 Y121.300 E10.01224
G1 X63.352 Y120.680 E10.05025
G1 X63.222 Y120.460 E10.06303
G1 X62.992 Y120.000 E10.08874
G1 X62.802 Y119.530 E10.11409
G1 X62.652 Y119.040 E10.13971
G1 X62.592 Y118.790 E10.15256
G1 X62.482 Y118.040 E10.19046
G1 X62.482 Y81.950 E11.99485
G1 X62.592 Y81.200 E12.03274
G1 X62.722 Y80.700 E12.05857
G1 X62.892 Y80.220 E12.08403
G1 X63.102 Y79.760 E12.10932
G1 X63.222 Y79.530 E12.12229
G1 X63.352 Y79.310 E12.13506
G1 X63.792 Y78.690 E12.17307
G1 X64.040 Y78.413 E12.19167
G1 F600.000 E11.69167
G92 E0
G1 X113.460 Y82.462 F7800.000
G1 F600.000 E0.50000
G1 X116.540 Y82.462 F1920.000 E0.65399
G1 X116.540 Y99.545 E1.50811
G1 X128.460 Y99.545 E2.10407
G1 X128.460 Y82.462 E2.95819
G1 X131.538 Y82.462 E3.11208
G1 X131.538 Y117.540 E4.86587
G1 X113.460 Y117.540 E5.76971
G1 X113.460 Y82.600 E7.51660
G1 F600.000 E7.01660
G92 E0
G1 X108.871 Y82.460 F7800.000
G1 F600.000 E0.50000
G1 X108.871 Y117.538 F1920.000 E2.25379
G1 X90.793 Y117.538 E3.15763
G1 X90.793 Y82.460 E4.91142
G1 X93.873 Y82.460 E5.06541
G1 X93.873 Y99.543 E5.91953
G1 X105.793 Y99.543 E6.51549
G1 X105.793 Y82.460 E7.36961
G1 X108.733 Y82.460 E7.51660
G1 F600.000 E7.01660
G92 E0
G1 X86.540 Y82.460 F7800.000
G1 F600.000 E0.50000
G1 X86.540 Y117.538 F1920.000 E2.25379
G1 X68.462 Y117.538 E3.15763
G1 X68.462 Y82.460 E4.91142
G1 X71.542 Y82.460 E5.06541
G1 X71.542 Y99.543 E5.91953
G1 X83.462 Y99.543 E6.51549
G1 X83.462 Y82.460 E7.36961
G1 X86.402 Y82.460 E7.51660
G1 F600.000 E7.01660
G92 E0
G1 X114.053 Y83.542 F7800.000
G1 F600.000 E0.50000
G1 X115.947 Y85.436 F3360.000 E0.63831
G1 X115.947 Y84.203 F7800.000
G1 X114.799 Y83.055 F3360.000 E0.72216
G1 X114.053 Y84.775 F7800.000
G1 X115.947 Y86.669 F3360.000 E0.86047
G1 X115.947 Y87.902 F7800.000
G1 X114.053 Y86.008 F3360.000 E0.99878
G1 X114.053 Y87.241 F7800.000
G1 X115.947 Y89.135 F3360.000 E1.13709
G1 X115.947 Y90.367 F7800.000
G1 X114.053 Y88.473 F3360.000 E1.27541
G1 X114.053 Y89.706 F7800.000
G1 X115.947 Y91.600 F3360.000 E1.41372
G1 X115.947 Y92.833 F7800.000
G1 X114.053 Y90.939 F3360.000 E1.55203
G1 X114.053 Y92.171 F7800.000
G1 X115.947 Y94.065 F3360.000 E1.69034
G1 X115.947 Y95.298 F7800.000
G1 X114.053 Y93.404 F3360.000 E1.82865
G1 X114.053 Y94.637 F7800.000
G1 X115.947 Y96.531 F3360.000 E1.96695
G1 X115.947 Y97.763 F7800.000
G1 X114.053 Y95.869 F3360.000 E2.10526
G1 X114.053 Y97.102 F7800.000
G1 X115.947 Y98.996 F3360.000 E2.24357
G1 X115.856 Y100.139 F7800.000
G1 X130.945 Y115.228 F3360.000 E3.34547
G1 X130.945 Y116.459 F7800.000
G1 X114.053 Y99.568 F3360.000 E4.57900
G1 X114.053 Y98.335 F7800.000
G1 X115.947 Y100.229 F3360.000 E4.71731
G1 X117.089 Y100.138 F7800.000
G1 X130.945 Y113.994 F3360.000 E5.72916
G1 X130.945 Y112.761 F7800.000
G1 X118.322 Y100.138 F3360.000 E6.65098
G1 X119.554 Y100.139 F7800.000
G1 X130.944 Y111.529 F3360.000 E7.48275
G1 X130.945 Y110.296 F7800.000
G1 X120.787 Y100.138 F3360.000 E8.22453
G1 X122.020 Y100.138 F7800.000
G1 X130.945 Y109.063 F3360.000 E8.87628
G1 X130.945 Y107.831 F7800.000
G1 X123.252 Y100.139 F3360.000 E9.43801
G1 X124.485 Y100.139 F7800.000
G1 X130.945 Y106.598 F3360.000 E9.90971
G1 X130.945 Y105.365 F7800.000
G1 X125.718 Y100.138 F3360.000 E10.29139
G1 X126.951 Y100.139 F7800.000
G1 X130.945 Y104.133 F3360.000 E10.58305
G1 X130.945 Y102.900 F7800.000
G1 X128.184 Y100.139 F3360.000 E10.78468
G1 X129.053 Y99.775 F7800.000
G1 X130.945 Y101.667 F3360.000 E10.92285
G1 X130.945 Y100.434 F7800.000
G1 X129.053 Y98.542 F3360.000 E11.06101
G1 X129.053 Y97.310 F7800.000
G1 X130.945 Y99.202 F3360.000 E11.19918
G1 X130.945 Y97.969 F7800.000
G1 X129.053 Y96.077 F3360.000 E11.33734
G1 X129.053 Y94.844 F7800.000
G1 X130.945 Y96.736 F3360.000 E11.47551
G1 X130.945 Y95.503 F7800.000
G1 X129.053 Y93.611 F3360.000 E11.61367
G1 X129.053 Y92.378 F7800.000
G1 X130.945 Y94.270 F3360.000 E11.75184
G1 X130.945 Y93.037 F7800.000
G1 X129.053 Y91.145 F3360.000 E11.89000
G1 X129.053 Y89.913 F7800.000
G1 X130.945 Y91.805 F3360.000 E12.02817
G1 X130.945 Y90.572 F7800.000
G1 X129.053 Y88.680 F3360.000 E12.16633
G1 X129.053 Y87.447 F7800.000
G1 X130.945 Y89.339 F3360.000 E12.30449
G1 X130.945 Y88.107 F7800.000
G1 X129.053 Y86.215 F3360.000 E12.44265
G1 X129.053 Y84.982 F7800.000
G1 X130.945 Y86.874 F3360.000 E12.58081
G1 X130.945 Y85.641 F7800.000
G1 X129.053 Y83.749 F3360.000 E12.71898
G1 X129.592 Y83.055 F7800.000
G1 X130.945 Y84.408 F3360.000 E12.81779
G1 F600.000 E12.31779
G92 E0
G1 X114.053 Y100.801 F7800.000
G1 F600.000 E0.50000
G1 X130.199 Y116.947 F3360.000 E1.67907
G1 X128.967 Y116.947 F7800.000
G1 X114.053 Y102.034 F3360.000 E2.76816
G1 X114.053 Y103.267 F7800.000
G1 X127.733 Y116.947 F3360.000 E3.76721
G1 X126.501 Y116.947 F7800.000
G1 X114.053 Y104.499 F3360.000 E4.67622
G1 X114.053 Y105.732 F7800.000
G1 X125.268 Y116.947 F3360.000 E5.49524
G1 X124.035 Y116.947 F7800.000
G1 X114.053 Y106.965 F3360.000 E6.22423
G1 X114.053 Y108.197 F7800.000
G1 X122.803 Y116.947 F3360.000 E6.86317
G1 X121.570 Y116.947 F7800.000
G1 X114.053 Y109.430 F3360.000 E7.41210
G1 X114.053 Y110.663 F7800.000
G1 X120.337 Y116.947 F3360.000 E7.87101
G1 X119.105 Y116.947 F7800.000
G1 X114.053 Y111.895 F3360.000 E8.23990
G1 X114.053 Y113.128 F7800.000
G1 X117.872 Y116.947 F3360.000 E8.51877
G1 X116.639 Y116.947 F7800.000
G1 X114.053 Y114.361 F3360.000 E8.70761
G1 X114.053 Y115.594 F7800.000
G1 X115.407 Y116.947 F3360.000 E8.80643
G1 X108.278 Y116.458 F7800.000
G1 X91.386 Y99.566 F3360.000 E10.03998
G1 X91.387 Y100.798 F7800.000
G1 X107.533 Y116.945 F3360.000 E11.21907
G1 X106.300 Y116.945 F7800.000
G1 X91.386 Y102.031 F3360.000 E12.30814
G1 X91.386 Y103.264 F7800.000
G1 X105.067 Y116.945 F3360.000 E13.30719
G1 X103.834 Y116.945 F7800.000
G1 X91.386 Y104.497 F3360.000 E14.21621
G1 X91.387 Y105.730 F7800.000
G1 X102.602 Y116.945 F3360.000 E15.03521
G1 X101.369 Y116.945 F7800.000
G1 X91.386 Y106.963 F3360.000 E15.76419
G1 X91.386 Y108.196 F7800.000
G1 X100.136 Y116.945 F3360.000 E16.40314
G1 X98.904 Y116.945 F7800.000
G1 X91.387 Y109.428 F3360.000 E16.95208
G1 X91.386 Y110.661 F7800.000
G1 X97.671 Y116.945 F3360.000 E17.41099
G1 X96.438 Y116.945 F7800.000
G1 X91.386 Y111.894 F3360.000 E17.77988
G1 X91.387 Y113.126 F7800.000
G1 X95.205 Y116.945 F3360.000 E18.05875
G1 X93.972 Y116.945 F7800.000
G1 X91.386 Y114.359 F3360.000 E18.24759
G1 X91.386 Y115.592 F7800.000
G1 X92.739 Y116.945 F3360.000 E18.34641
G1 F600.000 E17.84641
G92 E0
G1 X108.278 Y115.225 F7800.000
G1 F600.000 E0.50000
G1 X93.190 Y100.136 F3360.000 E1.60187
G1 X93.280 Y100.227 F7800.000
G1 X91.386 Y98.333 F3360.000 E1.74018
G1 X91.387 Y97.100 F7800.000
G1 X93.281 Y98.994 F3360.000 E1.87848
G1 X93.280 Y97.762 F7800.000
G1 X91.386 Y95.868 F3360.000 E2.01679
G1 X91.386 Y94.635 F7800.000
G1 X93.280 Y96.529 F3360.000 E2.15510
G1 X93.281 Y95.296 F7800.000
G1 X91.387 Y93.402 F3360.000 E2.29341
G1 X91.386 Y92.170 F7800.000
G1 X93.280 Y94.064 F3360.000 E2.43172
G1 X93.280 Y92.831 F7800.000
G1 X91.386 Y90.937 F3360.000 E2.57003
G1 X91.387 Y89.704 F7800.000
G1 X93.281 Y91.598 F3360.000 E2.70834
G1 X93.280 Y90.365 F7800.000
G1 X91.386 Y88.471 F3360.000 E2.84665
G1 X91.386 Y87.238 F7800.000
G1 X93.280 Y89.132 F3360.000 E2.98496
G1 X93.280 Y87.899 F7800.000
G1 X91.386 Y86.005 F3360.000 E3.12327
G1 X91.387 Y84.773 F7800.000
G1 X93.281 Y86.666 F3360.000 E3.26158
G1 X93.280 Y85.434 F7800.000
G1 X91.386 Y83.540 F3360.000 E3.39989
G1 X92.132 Y83.053 F7800.000
G1 X93.280 Y84.201 F3360.000 E3.48374
G1 F600.000 E2.98374
G92 E0
G1 X106.387 Y83.747 F7800.000
G1 F600.000 E0.50000
G1 X108.279 Y85.639 F3360.000 E0.63817
G1 X108.278 Y84.406 F7800.000
G1 X106.925 Y83.053 F3360.000 E0.73698
G1 X106.386 Y84.980 F7800.000
G1 X108.278 Y86.872 F3360.000 E0.87515
G1 X108.278 Y88.105 F7800.000
G1 X106.386 Y86.213 F3360.000 E1.01331
G1 X106.386 Y87.446 F7800.000
G1 X108.278 Y89.338 F3360.000 E1.15148
G1 X108.279 Y90.570 F7800.000
G1 X106.387 Y88.678 F3360.000 E1.28964
G1 X106.386 Y89.911 F7800.000
G1 X108.278 Y91.803 F3360.000 E1.42780
G1 X108.278 Y93.036 F7800.000
G1 X106.386 Y91.144 F3360.000 E1.56596
G1 X106.387 Y92.376 F7800.000
G1 X108.279 Y94.268 F3360.000 E1.70412
G1 X108.278 Y95.501 F7800.000
G1 X106.386 Y93.609 F3360.000 E1.84229
G1 X106.386 Y94.842 F7800.000
G1 X108.278 Y96.734 F3360.000 E1.98045
G1 X108.279 Y97.966 F7800.000
G1 X106.387 Y96.074 F3360.000 E2.11862
G1 X106.386 Y97.307 F7800.000
G1 X108.278 Y99.199 F3360.000 E2.25678
G1 X108.278 Y100.432 F7800.000
G1 X106.386 Y98.540 F3360.000 E2.39495
G1 X106.387 Y99.773 F7800.000
G1 X108.279 Y101.665 F3360.000 E2.53311
G1 X108.278 Y102.897 F7800.000
G1 X105.517 Y100.136 F3360.000 E2.73475
G1 X104.284 Y100.137 F7800.000
G1 X108.278 Y104.130 F3360.000 E3.02641
G1 X108.278 Y105.363 F7800.000
G1 X103.051 Y100.137 F3360.000 E3.40810
G1 X101.819 Y100.136 F7800.000
G1 X108.279 Y106.596 F3360.000 E3.87980
G1 X108.278 Y107.829 F7800.000
G1 X100.586 Y100.136 F3360.000 E4.44153
G1 X99.353 Y100.137 F7800.000
G1 X108.278 Y109.062 F3360.000 E5.09328
G1 X108.279 Y110.294 F7800.000
G1 X98.121 Y100.136 F3360.000 E5.83506
G1 X96.888 Y100.136 F7800.000
G1 X108.278 Y111.527 F3360.000 E6.66686
G1 X108.278 Y112.760 F7800.000
G1 X95.655 Y100.137 F3360.000 E7.58868
G1 X94.423 Y100.136 F7800.000
G1 X108.279 Y113.992 F3360.000 E8.60052
G1 F600.000 E8.10052
G92 E0
G1 X85.947 Y113.992 F7800.000
G1 F600.000 E0.50000
G1 X72.091 Y100.136 F3360.000 E1.51185
G1 X70.949 Y100.227 F7800.000
G1 X69.055 Y98.333 F3360.000 E1.65016
G1 X69.055 Y99.566 F7800.000
G1 X85.947 Y116.458 F3360.000 E2.88371
G1 X85.201 Y116.945 F7800.000
G1 X69.055 Y100.799 F3360.000 E4.06280
G1 X69.055 Y102.032 F7800.000
G1 X83.968 Y116.945 F3360.000 E5.15187
G1 X82.736 Y116.945 F7800.000
G1 X69.055 Y103.264 F3360.000 E6.15092
G1 X69.055 Y104.497 F7800.000
G1 X81.503 Y116.945 F3360.000 E7.05995
G1 X80.270 Y116.945 F7800.000
G1 X69.055 Y105.730 F3360.000 E7.87895
G1 X69.055 Y106.963 F7800.000
G1 X79.037 Y116.945 F3360.000 E8.60793
G1 X77.805 Y116.945 F7800.000
G1 X69.055 Y108.195 F3360.000 E9.24689
G1 X69.055 Y109.428 F7800.000
G1 X76.572 Y116.945 F3360.000 E9.79582
G1 X75.339 Y116.945 F7800.000
G1 X69.055 Y110.661 F3360.000 E10.25473
G1 X69.055 Y111.893 F7800.000
G1 X74.107 Y116.945 F3360.000 E10.62361
G1 X72.874 Y116.945 F7800.000
G1 X69.055 Y113.126 F3360.000 E10.90248
G1 X69.055 Y114.359 F7800.000
G1 X71.641 Y116.945 F3360.000 E11.09132
G1 X70.408 Y116.945 F7800.000
G1 X69.055 Y115.592 F3360.000 E11.19014
G1 F600.000 E10.69014
G92 E0
G1 X70.858 Y100.137 F7800.000
G1 F600.000 E0.50000
G1 X85.947 Y115.225 F3360.000 E1.60187
G1 X85.947 Y112.759 F7800.000
G1 X73.324 Y100.136 F3360.000 E2.52369
G1 X74.556 Y100.137 F7800.000
G1 X85.947 Y111.527 F3360.000 E3.35549
G1 X85.947 Y110.294 F7800.000
G1 X75.789 Y100.136 F3360.000 E4.09727
G1 X77.022 Y100.136 F7800.000
G1 X85.947 Y109.061 F3360.000 E4.74902
G1 X85.947 Y107.829 F7800.000
G1 X78.254 Y100.137 F3360.000 E5.31075
G1 X79.487 Y100.137 F7800.000
G1 X85.947 Y106.596 F3360.000 E5.78245
G1 X85.947 Y105.363 F7800.000
G1 X80.720 Y100.136 F3360.000 E6.16413
G1 X81.953 Y100.136 F7800.000
G1 X85.947 Y104.130 F3360.000 E6.45579
G1 X85.947 Y102.898 F7800.000
G1 X83.186 Y100.137 F3360.000 E6.65742
G1 X84.055 Y99.773 F7800.000
G1 X85.947 Y101.665 F3360.000 E6.79558
G1 X85.947 Y100.432 F7800.000
G1 X84.055 Y98.540 F3360.000 E6.93375
G1 X84.055 Y97.308 F7800.000
G1 X85.947 Y99.200 F3360.000 E7.07191
G1 X85.947 Y97.967 F7800.000
G1 X84.055 Y96.075 F3360.000 E7.21008
G1 X84.055 Y94.842 F7800.000
G1 X85.947 Y96.734 F3360.000 E7.34824
G1 X85.947 Y95.501 F7800.000
G1 X84.055 Y93.609 F3360.000 E7.48641
G1 X84.055 Y92.376 F7800.000
G1 X85.947 Y94.268 F3360.000 E7.62457
G1 X85.947 Y93.035 F7800.000
G1 X84.055 Y91.143 F3360.000 E7.76274
G1 X84.055 Y89.911 F7800.000
G1 X85.947 Y91.803 F3360.000 E7.90091
G1 X85.947 Y90.570 F7800.000
G1 X84.055 Y88.678 F3360.000 E8.03907
G1 X84.055 Y87.445 F7800.000
G1 X85.947 Y89.337 F3360.000 E8.17724
G1 X85.947 Y88.104 F7800.000
G1 X84.055 Y86.212 F3360.000 E8.31539
G1 X84.055 Y84.980 F7800.000
G1 X85.947 Y86.872 F3360.000 E8.45355
G1 X85.947 Y85.639 F7800.000
G1 X84.055 Y83.747 F3360.000 E8.59171
G1 X84.594 Y83.053 F7800.000
G1 X85.947 Y84.406 F3360.000 E8.69053
G1 F600.000 E8.19053
G92 E0
G1 X70.949 Y84.202 F7800.000
G1 F600.000 E0.50000
G1 X69.800 Y83.053 F3360.000 E0.58386
G1 X69.055 Y83.540 F7800.000
G1 X70.949 Y85.434 F3360.000 E0.72217
G1 X70.949 Y86.667 F7800.000
G1 X69.055 Y84.773 F3360.000 E0.86048
G1 X69.055 Y86.006 F7800.000
G1 X70.949 Y87.900 F3360.000 E0.99879
G1 X70.949 Y89.132 F7800.000
G1 X69.055 Y87.238 F3360.000 E1.13710
G1 X69.055 Y88.471 F7800.000
G1 X70.949 Y90.365 F3360.000 E1.27541
G1 X70.949 Y91.598 F7800.000
G1 X69.055 Y89.704 F3360.000 E1.41372
G1 X69.055 Y90.937 F7800.000
G1 X70.949 Y92.831 F3360.000 E1.55203
G1 X70.949 Y94.063 F7800.000
G1 X69.055 Y92.169 F3360.000 E1.69034
G1 X69.055 Y93.402 F7800.000
G1 X70.949 Y95.296 F3360.000 E1.82865
G1 X70.949 Y96.529 F7800.000
G1 X69.055 Y94.635 F3360.000 E1.96695
G1 X69.055 Y95.867 F7800.000
G1 X70.949 Y97.761 F3360.000 E2.10526
G1 X70.949 Y98.994 F7800.000
G1 X69.055 Y97.100 F3360.000 E2.24357
G1 F600.000 E1.74357
G92 E0
G1 Z0.800 F7800.000
G1 X113.460 Y82.462
G1 F600.000 E0.50000
G1 X116.540 Y82.462 F2400.000 E0.65399
G1 X116.540 Y99.836 E1.52265
G1 X128.460 Y99.836 E2.11861
G1 X128.460 Y82.462 E2.98726
G1 X131.538 Y82.462 E3.14115
G1 X131.538 Y117.540 E4.89495
G1 X113.460 Y117.540 E5.79879
G1 X113.460 Y82.600 E7.54568
G1 F600.000 E7.04568
G92 E0
