; generated by Slic3r 0.7.3-dev on 2012-05-10 at 21:42:54

; layer_height = 0.4
; perimeters = 1
; solid_layers = 3
; fill_density = 0.25
; nozzle_diameter = 0.75
; filament_diameter = 3
; extrusion_multiplier = 1
; perimeter_speed = 60
; infill_speed = 95
; travel_speed = 130
; extrusion_width_ratio = 2.3
; scale = 1
; single wall width = 0.92mm

M104 S230 ; set temperature
M92 E380
G92 X0 Y0 Z0  E0.0
G1 Z2.0 F150.0
G1 X-250.0 F2100.0
G1 X-249.0 F300.0
G1 X-251.0 F100.0
G92 X3.0
G1 Y-250.0 F2100.0
G1 Y-249.0 F300.0
G1 Y-251.0 F300.0
G92 Y10.0
G1 Y70.0 F2100.0
G1 Z-250.0 F150.0
G1 Z-249.0 F50.0
G1 Z-251.0 F50.0
G1 Y75.0 E2.0  F1000.0
G1 Y100.0 E2.3  F1000.0
G92 Z0.3
G92 E0.0
M106 S70
M107
M109 S230 ; wait for temperature to be reached
G90 ; use absolute coordinates
G21 ; set units to millimeters
G92 E0 ; reset extrusion distance
M82 ; use absolute distances for extrusion
M107
G1 Z0.400 F7800.000
G1 X34.780 Y60.149
G1 F600.000 E0.50000
G1 X50.110 Y48.749 F2880.000 E1.45515
G1 X50.570 Y48.469 E1.48207
G1 X50.820 Y48.339 E1.49616
G1 X51.580 Y48.029 E1.53720
G1 X51.840 Y47.949 E1.55080
G1 X52.370 Y47.829 E1.57797
G1 X52.910 Y47.749 E1.60526
G1 X53.460 Y47.729 E1.63278
G1 X123.070 Y47.749 E5.11306
G1 X123.600 Y47.819 E5.13979
G1 X124.110 Y47.939 E5.16598
G1 X124.620 Y48.099 E5.19271
G1 X125.110 Y48.309 E5.21936
G1 X125.580 Y48.559 E5.24598
G1 X174.020 Y79.959 E8.13214
G1 X174.430 Y80.279 E8.15814
G1 X174.810 Y80.629 E8.18397
G1 X174.990 Y80.819 E8.19706
G1 X175.320 Y81.219 E8.22298
G1 X175.470 Y81.429 E8.23589
G1 X175.750 Y81.869 E8.26196
G1 X175.990 Y82.329 E8.28790
G1 X176.270 Y83.059 E8.32699
G1 X176.400 Y83.559 E8.35282
G1 X176.490 Y84.069 E8.37871
G1 X176.520 Y84.329 E8.39180
G1 X176.530 Y113.259 E9.83821
G1 X176.460 Y113.909 E9.87090
G1 X176.400 Y114.229 E9.88717
G1 X166.820 Y148.379 E11.66048
G1 X166.500 Y149.089 E11.69941
G1 X166.090 Y149.749 E11.73826
G1 X165.770 Y150.159 E11.76426
G1 X165.590 Y150.359 E11.77772
G1 X165.230 Y150.719 E11.80317
G1 X164.830 Y151.049 E11.82910
G1 X164.400 Y151.349 E11.85531
G1 X164.180 Y151.479 E11.86809
G1 X163.720 Y151.719 E11.89403
G1 X162.990 Y151.999 E11.93312
G1 X162.490 Y152.129 E11.95895
G1 X161.980 Y152.219 E11.98484
G1 X161.720 Y152.249 E11.99792
G1 X161.200 Y152.269 E12.02394
G1 X91.630 Y152.249 E15.50222
G1 X91.140 Y152.189 E15.52691
G1 X27.980 Y138.989 E18.75294
G1 X27.490 Y138.839 E18.77856
G1 X27.020 Y138.649 E18.80390
G1 X26.560 Y138.419 E18.82962
G1 X26.120 Y138.159 E18.85517
G1 X25.910 Y138.009 E18.86807
G1 X25.510 Y137.689 E18.89368
G1 X25.320 Y137.519 E18.90643
G1 X25.140 Y137.339 E18.91915
G1 X24.800 Y136.949 E18.94502
G1 X24.360 Y136.329 E18.98303
G1 X24.230 Y136.109 E18.99581
G1 X24.000 Y135.649 E19.02152
G1 X23.810 Y135.179 E19.04687
G1 X23.660 Y134.689 E19.07249
G1 X23.550 Y134.189 E19.09809
G1 X23.480 Y133.679 E19.12382
G1 X23.470 Y85.009 E21.55717
G1 X23.520 Y84.439 E21.58578
G1 X23.630 Y83.889 E21.61382
G1 X23.780 Y83.349 E21.64184
G1 X33.440 Y61.899 E22.81801
G1 X33.710 Y61.419 E22.84555
G1 X34.030 Y60.959 E22.87356
G1 X34.580 Y60.339 E22.91500
G1 X34.680 Y60.244 E22.92189
G1 F600.000 E22.42189
G92 E0
G1 X99.166 Y132.231 F7800.000
G1 F600.000 E0.50000
G1 X101.667 Y131.196 F2880.000 E0.63530
G1 X104.167 Y132.231 E0.77060
G1 X105.202 Y134.731 E0.90590
G1 X104.167 Y137.232 E1.04120
G1 X101.667 Y138.267 E1.17651
G1 X99.166 Y137.232 E1.31181
G1 X98.131 Y134.731 E1.44711
G1 X99.114 Y132.359 E1.57551
G1 F600.000 E1.07551
G92 E0
G1 X148.131 Y134.731 F7800.000
G1 F600.000 E0.50000
G1 X149.166 Y132.231 F2880.000 E0.63530
G1 X151.667 Y131.196 E0.77060
G1 X154.167 Y132.231 E0.90590
G1 X155.202 Y134.731 E1.04120
G1 X154.167 Y137.232 E1.17650
G1 X151.667 Y138.267 E1.31181
G1 X149.166 Y137.232 E1.44711
G1 X148.184 Y134.859 E1.57551
G1 F600.000 E1.07551
G92 E0
G1 X133.377 Y134.695 F7800.000
G1 F600.000 E0.50000
G1 X133.054 Y132.656 F2880.000 E0.60322
G1 X132.100 Y130.784 E0.70827
G1 X130.614 Y129.298 E0.81332
G1 X128.742 Y128.344 E0.91837
G1 X126.667 Y128.016 E1.02342
G1 X124.591 Y128.344 E1.12847
G1 X122.719 Y129.298 E1.23352
G1 X121.234 Y130.784 E1.33857
G1 X120.280 Y132.656 E1.44362
G1 X119.957 Y134.695 E1.54684
G1 X119.957 Y146.271 E2.12562
G1 X92.127 Y146.271 E3.51703
G1 X92.127 Y118.191 E4.92094
G1 X161.207 Y118.191 E8.37472
G1 X161.207 Y146.271 E9.77864
G1 X133.377 Y146.271 E11.17005
G1 X133.377 Y134.833 E11.74192
G1 F600.000 E11.24192
G92 E0
G1 X113.500 Y103.898 F7800.000
G1 F600.000 E0.50000
G1 X111.000 Y104.934 F2880.000 E0.63530
G1 X108.500 Y103.898 E0.77060
G1 X107.464 Y101.398 E0.90590
G1 X108.500 Y98.898 E1.04120
G1 X111.000 Y97.862 E1.17651
G1 X113.500 Y98.898 E1.31181
G1 X114.536 Y101.398 E1.44711
G1 X113.553 Y103.771 E1.57551
G1 F600.000 E1.07551
G92 E0
G1 X157.464 Y101.398 F7800.000
G1 F600.000 E0.50000
G1 X158.500 Y98.898 F2880.000 E0.63530
G1 X161.000 Y97.862 E0.77060
G1 X163.500 Y98.898 E0.90591
G1 X164.536 Y101.398 E1.04121
G1 X163.500 Y103.898 E1.17651
G1 X161.000 Y104.934 E1.31181
G1 X158.500 Y103.898 E1.44711
G1 X157.517 Y101.525 E1.57551
G1 F600.000 E1.07551
G92 E0
G1 X142.710 Y101.362 F7800.000
G1 F600.000 E0.50000
G1 X142.387 Y99.323 F2880.000 E0.60322
G1 X141.433 Y97.451 E0.70827
G1 X139.947 Y95.965 E0.81332
G1 X138.075 Y95.011 E0.91837
G1 X136.000 Y94.682 E1.02342
G1 X133.925 Y95.011 E1.12847
G1 X132.053 Y95.965 E1.23352
G1 X130.567 Y97.451 E1.33857
G1 X129.613 Y99.323 E1.44362
G1 X129.290 Y101.362 E1.54684
G1 X129.290 Y112.938 E2.12562
G1 X101.460 Y112.938 E3.51703
G1 X101.460 Y84.858 E4.92094
G1 X170.540 Y84.858 E8.37472
G1 X170.540 Y112.938 E9.77864
G1 X142.710 Y112.938 E11.17005
G1 X142.710 Y101.500 E11.74192
G1 F600.000 E11.24192
G92 E0
G1 X50.670 Y100.626 F7800.000
G1 F600.000 E0.50000
G1 X50.670 Y111.504 F2880.000 E1.04385
G1 X39.794 Y111.504 E1.58761
G1 X39.794 Y100.626 E2.13146
G1 X50.532 Y100.626 E2.66831
G1 F600.000 E2.16831
G92 E0
G1 X84.792 Y100.626 F7800.000
G1 F600.000 E0.50000
G1 X95.670 Y100.626 F2880.000 E1.04385
G1 X95.670 Y111.504 E1.58771
G1 X84.792 Y111.504 E2.13156
G1 X84.792 Y100.764 E2.66851
G1 X83.791 Y98.707 F7800.000
G1 X65.271 Y98.707 F2880.000 E3.59446
G1 X65.271 Y112.605 E4.28931
G1 X59.191 Y112.605 E4.59329
G1 X59.191 Y111.525 E4.64729
G1 X60.691 Y111.525 E4.72228
G1 X60.691 Y100.605 E5.26825
G1 X59.191 Y100.605 E5.34325
G1 X59.191 Y98.707 E5.43814
G1 X57.271 Y98.707 E5.53413
G1 X57.271 Y112.605 E6.22899
G1 X51.191 Y112.605 E6.53297
G1 X51.191 Y112.505 E6.53797
G1 X38.793 Y112.505 E7.15783
G1 X38.793 Y64.627 E9.55158
G1 X42.873 Y64.627 E9.75557
G1 X42.873 Y94.627 E11.25548
G1 X96.671 Y94.627 E13.94521
G1 X96.671 Y112.505 E14.83905
G1 X83.791 Y112.505 E15.48301
G1 X83.791 Y98.845 E16.16597
G1 F600.000 E15.66597
G92 E0
G1 X41.337 Y121.292 F7800.000
G1 F600.000 E0.50000
G1 X41.337 Y132.170 F2880.000 E1.04385
G1 X30.461 Y132.170 E1.58761
G1 X30.461 Y121.292 E2.13146
G1 X41.199 Y121.292 E2.66831
G1 F600.000 E2.16831
G92 E0
G1 X75.459 Y121.292 F7800.000
G1 F600.000 E0.50000
G1 X86.337 Y121.292 F2880.000 E1.04385
G1 X86.337 Y132.170 E1.58771
G1 X75.459 Y132.170 E2.13156
G1 X75.459 Y121.430 E2.66851
G1 X74.458 Y119.373 F7800.000
G1 X55.938 Y119.373 F2880.000 E3.59446
G1 X55.938 Y133.271 E4.28931
G1 X49.858 Y133.271 E4.59329
G1 X49.858 Y132.191 E4.64729
G1 X51.358 Y132.191 E4.72229
G1 X51.358 Y121.271 E5.26825
G1 X49.858 Y121.271 E5.34325
G1 X49.858 Y119.373 E5.43814
G1 X47.938 Y119.373 E5.53413
G1 X47.938 Y133.271 E6.22899
G1 X41.858 Y133.271 E6.53297
G1 X41.858 Y133.171 E6.53797
G1 X29.460 Y133.171 E7.15783
G1 X29.460 Y85.293 E9.55158
G1 X33.540 Y85.293 E9.75557
G1 X33.540 Y115.293 E11.25548
G1 X87.338 Y115.293 E13.94521
G1 X87.338 Y133.171 E14.83905
G1 X74.458 Y133.171 E15.48301
G1 X74.458 Y119.511 E16.16597
G1 F600.000 E15.66597
G92 E0
G1 X63.000 Y73.804 F7800.000
G1 F600.000 E0.50000
G1 X60.500 Y72.769 F2880.000 E0.63530
G1 X59.464 Y70.269 E0.77060
G1 X60.500 Y67.768 E0.90590
G1 X63.000 Y66.733 E1.04120
G1 X65.500 Y67.768 E1.17651
G1 X66.536 Y70.269 E1.31181
G1 X65.500 Y72.769 E1.44711
G1 X63.127 Y73.752 E1.57551
G1 F600.000 E1.07551
G92 E0
G1 X109.464 Y70.269 F7800.000
G1 F600.000 E0.50000
G1 X110.500 Y67.768 F2880.000 E0.63530
G1 X113.000 Y66.733 E0.77060
G1 X115.500 Y67.768 E0.90590
G1 X116.536 Y70.269 E1.04120
G1 X115.500 Y72.769 E1.17650
G1 X113.000 Y73.804 E1.31181
G1 X110.500 Y72.769 E1.44711
G1 X109.517 Y70.396 E1.57551
G1 F600.000 E1.07551
G92 E0
G1 X94.710 Y70.232 F7800.000
G1 F600.000 E0.50000
G1 X94.387 Y68.193 F2880.000 E0.60322
G1 X93.433 Y66.321 E0.70827
G1 X91.947 Y64.836 E0.81332
G1 X90.075 Y63.882 E0.91837
G1 X88.000 Y63.553 E1.02342
G1 X85.925 Y63.882 E1.12847
G1 X84.053 Y64.836 E1.23352
G1 X82.567 Y66.321 E1.33857
G1 X81.613 Y68.193 E1.44362
G1 X81.290 Y70.232 E1.54684
G1 X81.290 Y81.809 E2.12562
G1 X53.460 Y81.809 E3.51703
G1 X53.460 Y53.729 E4.92094
G1 X122.540 Y53.729 E8.37472
G1 X122.540 Y81.809 E9.77864
G1 X94.710 Y81.809 E11.17005
G1 X94.710 Y70.370 E11.74192
G1 F600.000 E11.24192
G92 E0
G1 X95.038 Y118.784 F7800.000
G1 F600.000 E0.50000
G1 X119.364 Y143.110 F4560.000 E2.23184
G1 X119.364 Y141.898 F7800.000
G1 X96.250 Y118.784 F4560.000 E3.87739
G1 X97.462 Y118.784 F7800.000
G1 X119.364 Y140.686 F4560.000 E5.43665
G1 X119.364 Y139.474 F7800.000
G1 X98.674 Y118.784 F4560.000 E6.90964
G1 X99.886 Y118.784 F7800.000
G1 X119.364 Y138.262 F4560.000 E8.29633
G1 X119.364 Y137.050 F7800.000
G1 X101.098 Y118.784 F4560.000 E9.59675
G1 X102.311 Y118.784 F7800.000
G1 X119.364 Y135.837 F4560.000 E10.81077
G1 X119.400 Y134.661 F7800.000
G1 X103.523 Y118.784 F4560.000 E11.94108
G1 X104.735 Y118.784 F7800.000
G1 X119.565 Y133.615 F4560.000 E12.99689
G1 X119.750 Y132.587 F7800.000
G1 X105.947 Y118.784 F4560.000 E13.97955
G1 X107.159 Y118.784 F7800.000
G1 X120.159 Y131.785 F4560.000 E14.90507
G1 X120.568 Y130.981 F7800.000
G1 X108.371 Y118.784 F4560.000 E15.77340
G1 X109.583 Y118.784 F7800.000
G1 X121.065 Y130.266 F4560.000 E16.59084
G1 X121.671 Y129.660 F7800.000
G1 X110.795 Y118.784 F4560.000 E17.36514
G1 X112.007 Y118.784 F7800.000
G1 X122.278 Y129.054 F4560.000 E18.09630
G1 X123.017 Y128.581 F7800.000
G1 X113.220 Y118.784 F4560.000 E18.79377
G1 X114.432 Y118.784 F7800.000
G1 X123.820 Y128.173 F4560.000 E19.46215
G1 X124.635 Y127.775 F7800.000
G1 X115.644 Y118.784 F4560.000 E20.10224
G1 X116.856 Y118.784 F7800.000
G1 X125.681 Y127.609 F4560.000 E20.73050
G1 X126.727 Y127.444 F7800.000
G1 X118.068 Y118.784 F4560.000 E21.34697
G1 X119.280 Y118.784 F7800.000
G1 X128.093 Y127.597 F4560.000 E21.97438
G1 X129.721 Y128.014 F7800.000
G1 X120.492 Y118.784 F4560.000 E22.63143
G1 X121.705 Y118.784 F7800.000
G1 X148.599 Y145.678 F4560.000 E24.54610
G1 X149.811 Y145.678 F7800.000
G1 X122.917 Y118.784 F4560.000 E26.46078
G1 X124.129 Y118.784 F7800.000
G1 X151.023 Y145.678 F4560.000 E28.37540
G1 X152.236 Y145.679 F7800.000
G1 X125.341 Y118.784 F4560.000 E30.29008
G1 X126.553 Y118.784 F7800.000
G1 X153.447 Y145.679 F4560.000 E32.20475
G1 X154.659 Y145.679 F7800.000
G1 X127.765 Y118.784 F4560.000 E34.11943
G1 X128.977 Y118.784 F7800.000
G1 X155.871 Y145.679 F4560.000 E36.03410
G1 X157.083 Y145.679 F7800.000
G1 X149.578 Y138.173 F4560.000 E36.56843
G1 X148.224 Y136.819 F7800.000
G1 X130.189 Y118.784 F4560.000 E37.85238
G1 X131.401 Y118.784 F7800.000
G1 X147.508 Y134.892 F4560.000 E38.99910
G1 X147.864 Y134.034 F7800.000
G1 X132.614 Y118.784 F4560.000 E40.08480
G1 X133.826 Y118.784 F7800.000
G1 X148.219 Y133.177 F4560.000 E41.10950
G1 X148.574 Y132.320 F7800.000
G1 X135.039 Y118.784 F4560.000 E42.07313
G1 X136.251 Y118.784 F7800.000
G1 X149.149 Y131.683 F4560.000 E42.99140
G1 X150.006 Y131.328 F7800.000
G1 X137.463 Y118.784 F4560.000 E43.88440
G1 X138.675 Y118.784 F7800.000
G1 X150.863 Y130.973 F4560.000 E44.75213
G1 X151.720 Y130.618 F7800.000
G1 X139.887 Y118.784 F4560.000 E45.59459
G1 X141.099 Y118.784 F7800.000
G1 X153.497 Y131.183 F4560.000 E46.47727
G1 X155.215 Y132.901 F7800.000
G1 X160.613 Y138.299 F4560.000 E46.86158
G1 X160.613 Y137.087 F7800.000
G1 X142.311 Y118.784 F4560.000 E48.16461
G1 X143.523 Y118.784 F7800.000
G1 X160.614 Y135.875 F4560.000 E49.38135
G1 X160.614 Y134.663 F7800.000
G1 X144.736 Y118.784 F4560.000 E50.51177
G1 X145.948 Y118.784 F7800.000
G1 X160.614 Y133.451 F4560.000 E51.55589
G1 X160.614 Y132.239 F7800.000
G1 X147.160 Y118.784 F4560.000 E52.51373
G1 X148.372 Y118.784 F7800.000
G1 X160.613 Y131.026 F4560.000 E53.38524
G1 X160.613 Y129.814 F7800.000
G1 X149.584 Y118.784 F4560.000 E54.17046
G1 X150.796 Y118.784 F7800.000
G1 X160.613 Y128.602 F4560.000 E54.86940
G1 X160.613 Y127.390 F7800.000
G1 X152.008 Y118.784 F4560.000 E55.48205
G1 X153.220 Y118.784 F7800.000
G1 X160.613 Y126.178 F4560.000 E56.00841
G1 X160.614 Y124.965 F7800.000
G1 X154.432 Y118.784 F4560.000 E56.44850
G1 X155.645 Y118.784 F7800.000
G1 X160.614 Y123.753 F4560.000 E56.80224
G1 X160.614 Y122.541 F7800.000
G1 X156.857 Y118.784 F4560.000 E57.06971
G1 X158.069 Y118.784 F7800.000
G1 X160.614 Y121.329 F4560.000 E57.25088
G1 X160.613 Y120.117 F7800.000
G1 X159.281 Y118.784 F4560.000 E57.34573
G1 F600.000 E56.84573
G92 E0
G1 X155.780 Y134.678 F7800.000
G1 F600.000 E0.50000
G1 X160.613 Y139.511 F4560.000 E0.84408
G1 X160.613 Y140.723 F7800.000
G1 X155.425 Y135.535 F4560.000 E1.21343
G1 X155.070 Y136.392 F7800.000
G1 X160.613 Y141.935 F4560.000 E1.60806
G1 X160.614 Y143.148 F7800.000
G1 X154.715 Y137.249 F4560.000 E2.02800
G1 X154.078 Y137.824 F7800.000
G1 X160.614 Y144.360 F4560.000 E2.49331
G1 X160.614 Y145.572 F7800.000
G1 X153.221 Y138.179 F4560.000 E3.01962
G1 X152.364 Y138.534 F7800.000
G1 X159.508 Y145.678 F4560.000 E3.52822
G1 X158.295 Y145.679 F7800.000
G1 X151.506 Y138.890 F4560.000 E4.01155
G1 X147.386 Y145.679 F7800.000
G1 X133.384 Y131.676 F4560.000 E5.00840
G1 X133.801 Y133.306 F7800.000
G1 X146.174 Y145.679 F4560.000 E5.88927
G1 X144.962 Y145.679 F7800.000
G1 X133.970 Y134.686 F4560.000 E6.67188
G1 X133.970 Y135.898 F7800.000
G1 X143.750 Y145.679 F4560.000 E7.36819
G1 X142.538 Y145.679 F7800.000
G1 X133.970 Y137.110 F4560.000 E7.97823
G1 X133.970 Y138.322 F7800.000
G1 X141.326 Y145.679 F4560.000 E8.50198
G1 X140.114 Y145.678 F7800.000
G1 X133.970 Y139.534 F4560.000 E8.93939
G1 X133.970 Y140.746 F7800.000
G1 X138.902 Y145.678 F4560.000 E9.29047
G1 X137.689 Y145.679 F7800.000
G1 X133.970 Y141.959 F4560.000 E9.55526
G1 X133.970 Y143.171 F7800.000
G1 X136.477 Y145.679 F4560.000 E9.73377
G1 X135.265 Y145.679 F7800.000
G1 X133.970 Y144.383 F4560.000 E9.82600
G1 F600.000 E9.32600
G92 E0
G1 X119.364 Y144.322 F7800.000
G1 F600.000 E0.50000
G1 X93.826 Y118.784 F4560.000 E2.31812
G1 X92.720 Y118.891 F7800.000
G1 X119.364 Y145.534 F4560.000 E4.21498
G1 X118.295 Y145.678 F7800.000
G1 X105.002 Y132.385 F4560.000 E5.16134
G1 X104.014 Y131.396 F7800.000
G1 X92.720 Y120.103 F4560.000 E5.96539
G1 X92.720 Y121.314 F7800.000
G1 X101.944 Y130.539 F4560.000 E6.62209
G1 X101.076 Y130.884 F7800.000
G1 X92.719 Y122.527 F4560.000 E7.21707
G1 X92.720 Y123.740 F7800.000
G1 X100.219 Y131.239 F4560.000 E7.75099
G1 X99.362 Y131.594 F7800.000
G1 X92.720 Y124.952 F4560.000 E8.22389
G1 X92.720 Y126.164 F7800.000
G1 X98.662 Y132.106 F4560.000 E8.64696
G1 X98.307 Y132.963 F7800.000
G1 X92.720 Y127.376 F4560.000 E9.04476
G1 X92.720 Y128.588 F7800.000
G1 X97.952 Y133.820 F4560.000 E9.41728
G1 X97.597 Y134.677 F7800.000
G1 X92.720 Y129.800 F4560.000 E9.76453
G1 X92.720 Y131.012 F7800.000
G1 X98.011 Y136.303 F4560.000 E10.14124
G1 X100.095 Y138.387 F7800.000
G1 X107.386 Y145.678 F4560.000 E10.66030
G1 X108.598 Y145.678 F7800.000
G1 X101.721 Y138.801 F4560.000 E11.14992
G1 X102.578 Y138.446 F7800.000
G1 X109.811 Y145.679 F4560.000 E11.66486
G1 X111.022 Y145.679 F7800.000
G1 X103.435 Y138.091 F4560.000 E12.20507
G1 X104.292 Y137.736 F7800.000
G1 X112.234 Y145.679 F4560.000 E12.77055
G1 X113.446 Y145.679 F7800.000
G1 X104.803 Y137.036 F4560.000 E13.38587
G1 X105.158 Y136.179 F7800.000
G1 X114.658 Y145.679 F4560.000 E14.06221
G1 X115.870 Y145.679 F7800.000
G1 X105.513 Y135.322 F4560.000 E14.79955
G1 X105.859 Y134.454 F7800.000
G1 X117.083 Y145.678 F4560.000 E15.59862
G1 F600.000 E15.09862
G92 E0
G1 X106.174 Y145.678 F7800.000
