; generated by Slic3r 0.7.3-dev on 2012-05-06 at 04:30:31

; layer_height = 0.4
; perimeters = 2
; solid_layers = 3
; fill_density = 0.25
; nozzle_diameter = 0.75
; filament_diameter = 3
; extrusion_multiplier = 1
; perimeter_speed = 50
; infill_speed = 80
; travel_speed = 130
; extrusion_width_ratio = 2.3
; scale = 1
; single wall width = 0.92mm

M104 S230 ; set temperature
M92 E380
G92 X0 Y0 Z0  E0.0
G1 Z2.0 F150.0
G1 X-250.0 F2100.0
G1 X-249.0 F300.0
G1 X-251.0 F100.0
G92 X3.0
G1 Y-250.0 F2100.0
G1 Y-249.0 F300.0
G1 Y-251.0 F300.0
G92 Y10.0
G1 Y70.0 F2100.0
G1 Z-250.0 F150.0
G1 Z-249.0 F50.0
G1 Z-251.0 F50.0
G1 Y75.0 E2.0  F1000.0
G1 Y100.0 E2.3  F1000.0
G92 Z0.3
G92 E0.0
M106 S70
M107
M109 S230 ; wait for temperature to be reached
G90 ; use absolute coordinates
G21 ; set units to millimeters
G92 E0 ; reset extrusion distance
M82 ; use absolute distances for extrusion
G1 Z0.400 F7800.000
G1 X66.730 Y71.860
G1 F600.000 E0.50000
G1 X66.910 Y71.680 F2400.000 E0.51273
G1 X67.290 Y71.340 E0.53822
G1 X67.910 Y70.900 E0.57623
G1 X68.130 Y70.770 E0.58901
G1 X68.590 Y70.540 E0.61472
G1 X69.060 Y70.350 E0.64007
G1 X69.550 Y70.200 E0.66569
G1 X69.800 Y70.140 E0.67854
G1 X70.550 Y70.030 E0.71644
G1 X71.060 Y70.010 E0.74196
G1 X75.420 Y70.020 E0.95995
G1 X75.970 Y70.070 E0.98756
G1 X76.240 Y70.110 E1.00120
G1 X77.050 Y70.320 E1.04304
G1 X77.570 Y70.520 E1.07089
G1 X132.080 Y100.900 E4.19091
G1 X132.500 Y101.180 E4.21615
G1 X132.900 Y101.500 E4.24176
G1 X133.440 Y102.040 E4.27994
G1 X133.610 Y102.240 E4.29306
G1 X134.050 Y102.860 E4.33107
G1 X134.180 Y103.080 E4.34385
G1 X134.410 Y103.540 E4.36956
G1 X134.600 Y104.010 E4.39491
G1 X134.750 Y104.500 E4.42053
G1 X134.810 Y104.750 E4.43338
G1 X134.920 Y105.500 E4.47128
G1 X134.920 Y124.400 E5.41622
G1 X134.810 Y125.150 E5.45412
G1 X134.680 Y125.640 E5.47947
G1 X134.510 Y126.120 E5.50493
G1 X134.300 Y126.590 E5.53067
G1 X133.920 Y127.240 E5.56831
G1 X133.770 Y127.450 E5.58121
G1 X133.450 Y127.850 E5.60682
G1 X132.910 Y128.390 E5.64500
G1 X132.520 Y128.710 E5.67023
G1 X132.100 Y128.990 E5.69546
G1 X131.880 Y129.120 E5.70824
G1 X131.420 Y129.350 E5.73395
G1 X130.950 Y129.540 E5.75930
G1 X130.470 Y129.690 E5.78444
G1 X129.970 Y129.800 E5.81004
G1 X129.470 Y129.870 E5.83528
G1 X97.560 Y129.990 E7.43069
G1 X70.760 Y129.880 E8.77062
G1 X70.250 Y129.840 E8.79620
G1 X69.760 Y129.750 E8.82110
G1 X69.270 Y129.620 E8.84645
G1 X68.560 Y129.340 E8.88461
G1 X68.330 Y129.230 E8.89736
G1 X67.890 Y128.980 E8.92266
G1 X67.470 Y128.700 E8.94789
G1 X67.080 Y128.380 E8.97312
G1 X66.540 Y127.840 E9.01130
G1 X66.220 Y127.440 E9.03691
G1 X65.940 Y127.020 E9.06215
G1 X65.810 Y126.800 E9.07492
G1 X65.490 Y126.120 E9.11250
G1 X65.320 Y125.640 E9.13796
G1 X65.190 Y125.150 E9.16330
G1 X65.080 Y124.400 E9.20120
G1 X65.080 Y75.500 E11.64605
G1 X65.190 Y74.750 E11.68395
G1 X65.320 Y74.250 E11.70978
G1 X65.490 Y73.770 E11.73524
G1 X65.700 Y73.310 E11.76052
G1 X65.820 Y73.080 E11.77349
G1 X65.950 Y72.860 E11.78626
G1 X66.390 Y72.240 E11.82427
G1 X66.638 Y71.963 E11.84287
G1 F600.000 E11.34287
G92 E0
G1 X71.563 Y111.513 F7800.000
G1 F600.000 E0.50000
G1 X83.437 Y111.513 F2400.000 E1.09368
G1 X83.437 Y123.387 E1.68736
G1 X71.563 Y123.387 E2.28103
G1 X71.563 Y111.651 E2.86781
G1 F600.000 E2.36781
G92 E0
G1 X116.563 Y111.513 F7800.000
G1 F600.000 E0.50000
G1 X128.437 Y111.513 F2400.000 E1.09368
G1 X128.437 Y123.387 E1.68736
G1 X116.563 Y123.387 E2.28103
G1 X116.563 Y111.651 E2.86781
G1 X116.913 Y110.660 F7800.000
G1 X116.913 Y109.237 F2400.000 E2.93895
G1 X96.687 Y109.237 E3.95021
G1 X96.687 Y123.137 E4.64517
G1 X93.813 Y123.137 E4.78883
G1 X93.813 Y110.137 E5.43879
G1 X92.313 Y110.137 E5.51379
G1 X92.313 Y109.237 E5.55879
G1 X88.687 Y109.237 E5.74010
G1 X88.687 Y123.137 E6.43506
G1 X84.313 Y123.137 E6.65372
G1 X84.313 Y123.037 E6.65872
G1 X84.290 Y123.037 E6.65986
G1 X84.290 Y110.660 E7.27868
G1 X71.913 Y110.660 E7.89750
G1 X71.913 Y76.863 E9.58721
G1 X74.287 Y76.863 E9.70588
G1 X74.287 Y106.863 E11.20578
G1 X128.087 Y106.863 E13.89562
G1 X128.087 Y110.660 E14.08542
G1 X117.051 Y110.660 E14.63716
G1 X116.060 Y110.090 F7800.000
G1 X97.540 Y110.090 F2400.000 E15.56311
G1 X97.540 Y123.990 E16.25806
G1 X91.460 Y123.990 E16.56204
G1 X91.460 Y123.910 E16.56604
G1 X92.960 Y123.910 E16.64104
G1 X92.960 Y110.990 E17.28700
G1 X91.460 Y110.990 E17.36199
G1 X91.460 Y110.090 E17.40699
G1 X89.540 Y110.090 E17.50299
G1 X89.540 Y123.990 E18.19794
G1 X83.460 Y123.990 E18.50192
G1 X83.460 Y123.890 E18.50692
G1 X71.060 Y123.890 E19.12688
G1 X71.060 Y76.010 E21.52073
G1 X75.140 Y76.010 E21.72472
G1 X75.140 Y106.010 E23.22463
G1 X128.940 Y106.010 E25.91446
G1 X128.940 Y123.890 E26.80840
G1 X116.060 Y123.890 E27.45236
G1 X116.060 Y110.228 E28.13542
G1 X116.341 Y108.644 F7800.000
G1 X115.153 Y107.456 F1920.000 E28.22100
G1 X115.119 Y108.644 F7800.000
G1 X113.931 Y107.456 F1920.000 E28.30659
G1 X113.897 Y108.643 F7800.000
G1 X112.710 Y107.456 F1920.000 E28.39217
G1 X112.675 Y108.643 F7800.000
G1 X111.488 Y107.456 F1920.000 E28.47775
G1 X111.452 Y108.644 F7800.000
G1 X110.265 Y107.457 F1920.000 E28.56333
G1 X110.230 Y108.644 F7800.000
G1 X109.043 Y107.457 F1920.000 E28.64891
G1 X109.009 Y108.644 F7800.000
G1 X107.821 Y107.456 F1920.000 E28.73449
G1 X107.787 Y108.644 F7800.000
G1 X106.599 Y107.456 F1920.000 E28.82008
G1 X106.565 Y108.644 F7800.000
G1 X105.377 Y107.456 F1920.000 E28.90566
G1 X105.343 Y108.644 F7800.000
G1 X104.155 Y107.456 F1920.000 E28.99124
G1 X104.121 Y108.644 F7800.000
G1 X102.933 Y107.456 F1920.000 E29.07683
G1 X102.899 Y108.644 F7800.000
G1 X101.711 Y107.456 F1920.000 E29.16241
G1 X101.677 Y108.644 F7800.000
G1 X100.489 Y107.456 F1920.000 E29.24798
G1 X100.455 Y108.643 F7800.000
G1 X99.267 Y107.456 F1920.000 E29.33356
G1 X99.233 Y108.643 F7800.000
G1 X98.046 Y107.456 F1920.000 E29.41915
G1 X98.011 Y108.643 F7800.000
G1 X96.824 Y107.456 F1920.000 E29.50473
G1 X96.788 Y108.644 F7800.000
G1 X95.601 Y107.457 F1920.000 E29.59031
G1 X94.379 Y107.456 F7800.000
G1 X96.094 Y109.171 F1920.000 E29.71388
G1 X96.094 Y110.393 F7800.000
G1 X93.157 Y107.456 F1920.000 E29.92551
G1 X92.906 Y108.427 F7800.000
G1 X94.023 Y109.544 F1920.000 E30.00598
G1 X94.406 Y109.927 F7800.000
G1 X96.094 Y111.615 F1920.000 E30.12760
G1 X96.094 Y112.837 F7800.000
G1 X94.406 Y111.149 F1920.000 E30.24921
G1 X94.406 Y112.371 F7800.000
G1 X96.094 Y114.059 F1920.000 E30.37083
G1 X96.094 Y115.281 F7800.000
G1 X94.406 Y113.593 F1920.000 E30.49245
G1 X94.406 Y114.815 F7800.000
G1 X96.094 Y116.503 F1920.000 E30.61407
G1 X96.094 Y117.725 F7800.000
G1 X94.406 Y116.037 F1920.000 E30.73569
G1 X94.406 Y117.259 F7800.000
G1 X96.094 Y118.947 F1920.000 E30.85730
G1 X96.094 Y120.168 F7800.000
G1 X94.407 Y118.481 F1920.000 E30.97892
G1 X94.406 Y119.704 F7800.000
G1 X96.093 Y121.391 F1920.000 E31.10054
G1 X96.024 Y122.544 F7800.000
G1 X94.406 Y120.926 F1920.000 E31.21718
G1 X88.094 Y120.723 F7800.000
G1 X84.883 Y117.513 F1920.000 E31.44855
G1 X84.883 Y118.734 F7800.000
G1 X88.094 Y121.945 F1920.000 E31.67992
G1 X87.471 Y122.544 F7800.000
G1 X84.883 Y119.956 F1920.000 E31.86638
G1 X84.883 Y121.178 F7800.000
G1 X86.249 Y122.544 F1920.000 E31.96478
G1 X88.094 Y119.501 F7800.000
G1 X84.883 Y116.290 F1920.000 E32.19615
G1 X84.883 Y115.068 F7800.000
G1 X88.094 Y118.279 F1920.000 E32.42751
G1 X88.094 Y117.057 F7800.000
G1 X84.883 Y113.847 F1920.000 E32.65888
G1 X84.883 Y112.625 F7800.000
G1 X88.094 Y115.835 F1920.000 E32.89025
G1 X88.094 Y114.613 F7800.000
G1 X84.883 Y111.403 F1920.000 E33.12163
G1 X84.883 Y110.181 F7800.000
G1 X88.093 Y113.391 F1920.000 E33.35300
G1 X88.094 Y112.168 F7800.000
G1 X83.381 Y107.456 F1920.000 E33.69263
G1 X84.603 Y107.456 F7800.000
G1 X88.094 Y110.947 F1920.000 E33.94420
G1 X88.094 Y109.725 F7800.000
G1 X85.825 Y107.456 F1920.000 E34.10769
G1 X87.047 Y107.456 F7800.000
G1 X88.235 Y108.644 F1920.000 E34.19327
G1 X88.269 Y107.456 F7800.000
G1 X89.457 Y108.644 F1920.000 E34.27886
G1 X89.491 Y107.456 F7800.000
G1 X90.679 Y108.644 F1920.000 E34.36444
G1 X90.713 Y107.456 F7800.000
G1 X91.901 Y108.644 F1920.000 E34.45002
G1 X91.935 Y107.456 F7800.000
G1 X93.123 Y108.644 F1920.000 E34.53560
G1 X84.769 Y110.067 F7800.000
G1 X82.159 Y107.457 F1920.000 E34.72373
G1 X80.937 Y107.457 F7800.000
G1 X83.547 Y110.067 F1920.000 E34.91185
G1 X82.325 Y110.067 F7800.000
G1 X79.715 Y107.456 F1920.000 E35.09998
G1 X78.493 Y107.456 F7800.000
G1 X81.103 Y110.067 F1920.000 E35.28811
G1 X79.882 Y110.067 F7800.000
G1 X77.271 Y107.456 F1920.000 E35.47624
G1 X76.049 Y107.456 F7800.000
G1 X78.660 Y110.067 F1920.000 E35.66436
G1 X77.437 Y110.067 F7800.000
G1 X74.827 Y107.456 F1920.000 E35.85249
G1 X73.694 Y107.545 F7800.000
G1 X72.506 Y106.357 F1920.000 E35.93807
G1 X73.694 Y106.323 F7800.000
G1 X72.506 Y105.135 F1920.000 E36.02365
G1 X73.694 Y105.101 F7800.000
G1 X72.506 Y103.913 F1920.000 E36.10923
G1 X73.694 Y103.879 F7800.000
G1 X72.506 Y102.691 F1920.000 E36.19481
G1 X73.694 Y102.657 F7800.000
G1 X72.506 Y101.469 F1920.000 E36.28039
G1 X73.694 Y101.435 F7800.000
G1 X72.506 Y100.248 F1920.000 E36.36597
G1 X73.693 Y100.213 F7800.000
G1 X72.506 Y99.026 F1920.000 E36.45156
G1 X73.693 Y98.991 F7800.000
G1 X72.506 Y97.804 F1920.000 E36.53714
G1 X73.694 Y97.768 F7800.000
G1 X72.507 Y96.581 F1920.000 E36.62272
G1 X73.694 Y96.547 F7800.000
G1 X72.507 Y95.359 F1920.000 E36.70830
G1 X73.694 Y95.325 F7800.000
G1 X72.506 Y94.137 F1920.000 E36.79388
G1 X73.694 Y94.103 F7800.000
G1 X72.506 Y92.915 F1920.000 E36.87946
G1 X73.694 Y92.881 F7800.000
G1 X72.506 Y91.693 F1920.000 E36.96504
G1 X73.694 Y91.659 F7800.000
G1 X72.506 Y90.471 F1920.000 E37.05063
G1 X73.694 Y90.437 F7800.000
G1 X72.506 Y89.249 F1920.000 E37.13621
G1 X73.694 Y89.215 F7800.000
G1 X72.506 Y88.027 F1920.000 E37.22179
G1 X73.694 Y87.993 F7800.000
G1 X72.506 Y86.805 F1920.000 E37.30738
G1 X73.693 Y86.771 F7800.000
G1 X72.506 Y85.584 F1920.000 E37.39296
G1 X73.693 Y85.549 F7800.000
G1 X72.506 Y84.362 F1920.000 E37.47854
G1 X73.694 Y84.326 F7800.000
G1 X72.507 Y83.139 F1920.000 E37.56411
G1 X73.694 Y83.104 F7800.000
G1 X72.507 Y81.917 F1920.000 E37.64970
G1 X73.694 Y81.883 F7800.000
G1 X72.506 Y80.695 F1920.000 E37.73528
G1 X73.694 Y80.661 F7800.000
G1 X72.506 Y79.473 F1920.000 E37.82087
G1 X73.694 Y79.439 F7800.000
G1 X72.506 Y78.251 F1920.000 E37.90645
G1 X72.933 Y77.456 F7800.000
G1 X73.694 Y78.217 F1920.000 E37.96126
G1 F600.000 E37.46126
G92 E0
G1 X73.605 Y107.456 F7800.000
G1 F600.000 E0.50000
G1 X76.216 Y110.067 F1920.000 E0.68813
G1 X74.994 Y110.067 F7800.000
G1 X72.506 Y107.579 F1920.000 E0.86739
G1 X72.506 Y108.801 F7800.000
G1 X73.772 Y110.067 F1920.000 E0.95858
G1 F600.000 E0.45858
G92 E0
G1 X116.375 Y107.456 F7800.000
G1 F600.000 E0.50000
G1 X117.563 Y108.644 F1920.000 E0.58558
G1 X117.506 Y108.587 F7800.000
G1 X118.986 Y110.067 F1920.000 E0.69220
G1 X120.208 Y110.067 F7800.000
G1 X117.597 Y107.456 F1920.000 E0.88033
G1 X118.819 Y107.456 F7800.000
G1 X121.430 Y110.067 F1920.000 E1.06846
G1 X122.652 Y110.067 F7800.000
G1 X120.041 Y107.456 F1920.000 E1.25659
G1 X121.263 Y107.456 F7800.000
G1 X123.873 Y110.067 F1920.000 E1.44471
G1 X125.095 Y110.067 F7800.000
G1 X122.485 Y107.456 F1920.000 E1.63284
G1 X123.707 Y107.457 F7800.000
G1 X126.317 Y110.067 F1920.000 E1.82097
G1 X127.494 Y110.020 F7800.000
G1 X124.930 Y107.456 F1920.000 E2.00579
G1 X126.152 Y107.456 F7800.000
G1 X127.494 Y108.798 F1920.000 E2.10254
G1 F600.000 E1.60254
G92 E0
G1 Z0.800 F7800.000
G1 X83.437 Y111.513
G1 F600.000 E0.50000
G1 X83.437 Y123.387 F3000.000 E1.09368
G1 X71.563 Y123.387 E1.68736
G1 X71.563 Y111.513 E2.28103
G1 X83.299 Y111.513 E2.86781
G1 F600.000 E2.36781
G92 E0
G1 X116.563 Y111.513 F7800.000
G1 F600.000 E0.50000
G1 X128.437 Y111.513 F3000.000 E1.09368
G1 X128.437 Y123.387 E1.68736
G1 X116.563 Y123.387 E2.28103
G1 X116.563 Y111.651 E2.86781
G1 X116.913 Y110.660 F7800.000
G1 X116.913 Y109.237 F3000.000 E2.93895
G1 X96.687 Y109.237 E3.95021
G1 X96.687 Y123.137 E4.64517
G1 X93.813 Y123.137 E4.78883
G1 X93.813 Y110.137 E5.43879
G1 X92.313 Y110.137 E5.51379
G1 X92.313 Y109.237 E5.55879
G1 X88.687 Y109.237 E5.74010
G1 X88.687 Y123.137 E6.43506
G1 X84.313 Y123.137 E6.65372
G1 X84.313 Y123.037 E6.65872
G1 X84.290 Y123.037 E6.65986
G1 X84.290 Y110.660 E7.27868
G1 X71.913 Y110.660 E7.89750
G1 X71.913 Y76.863 E9.58721
G1 X74.287 Y76.863 E9.70588
G1 X74.287 Y106.863 E11.20578
G1 X128.087 Y106.863 E13.89562
G1 X128.087 Y110.660 E14.08542
G1 X117.051 Y110.660 E14.63716
G1 X116.060 Y110.090 F7800.000
G1 X97.540 Y110.090 F3000.000 E15.56311
G1 X97.540 Y123.990 E16.25806
G1 X91.460 Y123.990 E16.56204
G1 X91.460 Y123.910 E16.56604
G1 X92.960 Y123.910 E16.64104
G1 X92.960 Y110.990 E17.28700
G1 X91.460 Y110.990 E17.36199
G1 X91.460 Y110.090 E17.40699
G1 X89.540 Y110.090 E17.50299
G1 X89.540 Y123.990 E18.19794
G1 X83.460 Y123.990 E18.50192
G1 X83.460 Y123.890 E18.50692
G1 X71.060 Y123.890 E19.12688
G1 X71.060 Y76.010 E21.52073
G1 X75.140 Y76.010 E21.72472
G1 X75.140 Y106.010 E23.22463
G1 X128.940 Y106.010 E25.91446
G1 X128.940 Y123.890 E26.80840
G1 X116.060 Y123.890 E27.45236
G1 X116.060 Y110.228 E28.13542
G1 X117.667 Y110.067 F7800.000
G1 X120.278 Y107.457 F2400.000 E28.32155
G1 X121.490 Y107.456 F7800.000
G1 X118.880 Y110.067 F2400.000 E28.50767
G1 X120.093 Y110.067 F7800.000
G1 X122.704 Y107.456 F2400.000 E28.69380
G1 X123.917 Y107.456 F7800.000
G1 X121.306 Y110.067 F2400.000 E28.87992
G1 X122.520 Y110.067 F7800.000
G1 X125.130 Y107.456 F2400.000 E29.06605
G1 X126.344 Y107.456 F7800.000
G1 X123.733 Y110.067 F2400.000 E29.25218
G1 X124.947 Y110.067 F7800.000
G1 X127.494 Y107.520 F2400.000 E29.43377
G1 X127.494 Y108.733 F7800.000
G1 X126.160 Y110.067 F2400.000 E29.52885
G1 X119.064 Y107.457 F7800.000
G1 X117.506 Y109.014 F2400.000 E29.63991
G1 X116.664 Y108.644 F7800.000
G1 X117.851 Y107.457 F2400.000 E29.72455
G1 X116.637 Y107.457 F7800.000
G1 X115.450 Y108.644 F2400.000 E29.80919
G1 X115.424 Y107.457 F7800.000
G1 X114.237 Y108.644 F2400.000 E29.89384
G1 X114.211 Y107.457 F7800.000
G1 X113.023 Y108.644 F2400.000 E29.97848
G1 X112.997 Y107.457 F7800.000
G1 X111.810 Y108.644 F2400.000 E30.06313
G1 X111.785 Y107.456 F7800.000
G1 X110.597 Y108.644 F2400.000 E30.14782
G1 X110.571 Y107.456 F7800.000
G1 X109.383 Y108.644 F2400.000 E30.23252
G1 X109.358 Y107.456 F7800.000
G1 X108.170 Y108.644 F2400.000 E30.31721
G1 X108.144 Y107.456 F7800.000
G1 X106.956 Y108.644 F2400.000 E30.40190
G1 X106.931 Y107.456 F7800.000
G1 X105.744 Y108.643 F2400.000 E30.48655
G1 X105.718 Y107.456 F7800.000
G1 X104.530 Y108.643 F2400.000 E30.57119
G1 X104.505 Y107.457 F7800.000
G1 X103.318 Y108.644 F2400.000 E30.65584
G1 X103.291 Y107.457 F7800.000
G1 X102.104 Y108.644 F2400.000 E30.74048
G1 X102.078 Y107.457 F7800.000
G1 X100.891 Y108.644 F2400.000 E30.82512
G1 X100.865 Y107.457 F7800.000
G1 X99.677 Y108.644 F2400.000 E30.90977
G1 X99.651 Y107.457 F7800.000
G1 X98.464 Y108.644 F2400.000 E30.99441
G1 X98.438 Y107.457 F7800.000
G1 X97.251 Y108.644 F2400.000 E31.07906
G1 X96.094 Y108.587 F7800.000
G1 X94.406 Y110.275 F2400.000 E31.19939
G1 X93.924 Y109.544 F7800.000
G1 X96.012 Y107.456 F2400.000 E31.34826
G1 X96.037 Y108.644 F7800.000
G1 X97.225 Y107.457 F2400.000 E31.43291
G1 X94.798 Y107.456 F7800.000
G1 X92.906 Y109.348 F2400.000 E31.56781
G1 X92.397 Y108.644 F7800.000
G1 X93.585 Y107.456 F2400.000 E31.65251
G1 X92.372 Y107.456 F7800.000
G1 X91.184 Y108.644 F2400.000 E31.73720
G1 X91.158 Y107.456 F7800.000
G1 X89.970 Y108.644 F2400.000 E31.82190
G1 X89.945 Y107.456 F7800.000
G1 X88.758 Y108.643 F2400.000 E31.90654
G1 X88.094 Y109.307 F7800.000
G1 X84.883 Y112.517 F2400.000 E32.13542
G1 X84.883 Y111.304 F7800.000
G1 X88.731 Y107.456 F2400.000 E32.40977
G1 X87.519 Y107.457 F7800.000
G1 X84.883 Y110.092 F2400.000 E32.59766
G1 X83.695 Y110.067 F7800.000
G1 X86.305 Y107.457 F2400.000 E32.78373
G1 X85.092 Y107.457 F7800.000
G1 X82.482 Y110.067 F2400.000 E32.96981
G1 X81.269 Y110.067 F7800.000
G1 X83.879 Y107.457 F2400.000 E33.15589
G1 X82.665 Y107.457 F7800.000
G1 X80.055 Y110.067 F2400.000 E33.34196
G1 X78.842 Y110.067 F7800.000
