; generated by Slic3r 0.7.2b on 2012-05-12 at 12:50:48

; layer_height = 0.4
; perimeters = 2
; solid_layers = 3
; fill_density = 0.25
; nozzle_diameter = 0.75
; filament_diameter = 3
; extrusion_multiplier = 1
; perimeter_speed = 60
; infill_speed = 95
; travel_speed = 130
; extrusion_width_ratio = 2.3
; scale = 1
; single wall width = 0.92mm

M104 S230 ; set temperature
M92 E380
G92 X0 Y0 Z0  E0.0
G1 Z2.0 F150.0
G1 X-250.0 F2100.0
G1 X-249.0 F300.0
G1 X-251.0 F100.0
G92 X3.0
G1 Y-250.0 F2100.0
G1 Y-249.0 F300.0
G1 Y-251.0 F300.0
G92 Y10.0
G1 Y70.0 F2100.0
G1 Z-250.0 F150.0
G1 Z-249.0 F50.0
G1 Z-251.0 F50.0
G1 Y75.0 E2.0  F1000.0
G1 Y100.0 E2.3  F1000.0
G92 Z0.3
G92 E0.0
M106 S70
M107
M109 S230 ; wait for temperature to be reached
G90 ; use absolute coordinates
G21 ; set units to millimeters
G92 E0 ; reset extrusion distance
M82 ; use absolute distances for extrusion
G1 Z0.400 F7800.000
G1 X73.322 Y68.141
G1 F600.000 E0.50000
G1 X73.592 Y67.701 F2880.000 E0.52581
G1 X73.892 Y67.291 E0.55121
G1 X74.052 Y67.101 E0.56363
G1 X74.592 Y66.561 E0.60181
G1 X74.792 Y66.391 E0.61493
G1 X75.412 Y65.951 E0.65295
G1 X75.632 Y65.821 E0.66572
G1 X76.092 Y65.591 E0.69143
G1 X76.562 Y65.401 E0.71678
G1 X77.052 Y65.251 E0.74240
G1 X77.302 Y65.191 E0.75526
G1 X78.052 Y65.081 E0.79315
G1 X78.562 Y65.061 E0.81867
G1 X151.842 Y65.081 E4.48244
G1 X152.592 Y65.191 E4.52034
G1 X153.082 Y65.321 E4.54569
G1 X153.562 Y65.491 E4.57115
G1 X154.032 Y65.701 E4.59688
G1 X154.682 Y66.081 E4.63453
G1 X154.892 Y66.231 E4.64743
G1 X155.292 Y66.551 E4.67304
G1 X155.832 Y67.091 E4.71122
G1 X156.152 Y67.481 E4.73645
G1 X156.432 Y67.901 E4.76168
G1 X156.562 Y68.121 E4.77446
G1 X156.792 Y68.581 E4.80017
G1 X156.982 Y69.051 E4.82552
G1 X157.132 Y69.531 E4.85066
G1 X157.242 Y70.031 E4.87626
G1 X157.312 Y70.531 E4.90150
G1 X157.322 Y129.231 E7.83632
G1 X157.282 Y129.741 E7.86189
G1 X157.192 Y130.231 E7.88680
G1 X157.062 Y130.721 E7.91215
G1 X156.782 Y131.431 E7.95031
G1 X156.672 Y131.661 E7.96305
G1 X156.422 Y132.101 E7.98835
G1 X156.142 Y132.521 E8.01359
G1 X155.822 Y132.911 E8.03881
G1 X155.282 Y133.451 E8.07700
G1 X154.882 Y133.771 E8.10261
G1 X154.462 Y134.051 E8.12784
G1 X154.242 Y134.181 E8.14062
G1 X153.562 Y134.501 E8.17819
G1 X153.082 Y134.671 E8.20365
G1 X152.592 Y134.801 E8.22900
G1 X151.842 Y134.911 E8.26690
G1 X151.332 Y134.931 E8.29242
G1 X48.052 Y134.911 E13.45609
G1 X47.302 Y134.801 E13.49399
G1 X46.802 Y134.671 E13.51982
G1 X46.322 Y134.501 E13.54528
G1 X45.862 Y134.291 E13.57056
G1 X45.632 Y134.171 E13.58353
G1 X45.412 Y134.041 E13.59631
G1 X44.792 Y133.601 E13.63432
G1 X44.412 Y133.261 E13.65981
G1 X44.232 Y133.081 E13.67254
G1 X43.892 Y132.701 E13.69803
G1 X43.452 Y132.081 E13.73604
G1 X43.322 Y131.861 E13.74882
G1 X43.092 Y131.401 E13.77453
G1 X42.902 Y130.931 E13.79988
G1 X42.752 Y130.441 E13.82550
G1 X42.692 Y130.191 E13.83835
G1 X42.582 Y129.441 E13.87625
G1 X42.572 Y124.571 E14.11974
G1 X42.622 Y124.021 E14.14735
G1 X42.662 Y123.751 E14.16100
G1 X42.872 Y122.941 E14.20283
G1 X43.072 Y122.421 E14.23069
G1 X73.255 Y68.262 E17.33060
G1 F600.000 E16.83060
G92 E0
G1 X85.040 Y117.541 F7800.000
G1 F600.000 E0.50000
G1 X94.960 Y117.541 F2880.000 E0.99597
G1 X94.960 Y127.459 E1.49184
G1 X85.040 Y127.459 E1.98781
G1 X85.040 Y117.679 E2.47678
G1 F600.000 E1.97678
G92 E0
G1 X85.040 Y82.461 F7800.000
G1 F600.000 E0.50000
G1 X85.040 Y72.541 F2880.000 E0.99597
G1 X94.960 Y72.541 E1.49194
G1 X94.960 Y82.461 E1.98791
G1 X85.178 Y82.461 E2.47698
G1 X84.187 Y83.088 F7800.000
G1 X81.789 Y83.088 F2880.000 E2.59687
G1 X81.789 Y103.314 E3.60813
G1 X95.687 Y103.314 E4.30299
G1 X95.687 Y106.188 E4.44665
G1 X83.687 Y106.188 E5.04662
G1 X83.687 Y107.688 E5.12161
G1 X81.789 Y107.688 E5.21651
G1 X81.789 Y111.314 E5.39782
G1 X95.687 Y111.314 E6.09268
G1 X95.687 Y115.688 E6.31134
G1 X95.587 Y115.688 E6.31634
G1 X95.587 Y116.688 E6.36633
G1 X84.187 Y116.688 E6.93630
G1 X84.187 Y128.086 E7.50616
G1 X49.415 Y128.086 E9.24463
G1 X49.415 Y125.712 E9.36330
G1 X79.415 Y125.712 E10.86320
G1 X79.415 Y71.914 E13.55294
G1 X84.187 Y71.914 E13.79150
G1 X84.187 Y82.950 E14.34324
G1 X82.642 Y83.941 F7800.000
G1 X82.642 Y102.461 F2880.000 E15.26918
G1 X96.540 Y102.461 E15.96404
G1 X96.540 Y108.541 E16.26802
G1 X95.460 Y108.541 E16.32202
G1 X95.460 Y107.041 E16.39701
G1 X84.540 Y107.041 E16.94298
G1 X84.540 Y108.541 E17.01797
G1 X82.642 Y108.541 E17.11287
G1 X82.642 Y110.461 E17.20886
G1 X96.540 Y110.461 E17.90372
G1 X96.540 Y116.541 E18.20770
G1 X96.440 Y116.541 E18.21270
G1 X96.440 Y128.939 E18.83256
G1 X48.562 Y128.939 E21.22631
G1 X48.562 Y124.859 E21.43030
G1 X78.562 Y124.859 E22.93020
G1 X78.562 Y71.061 E25.61993
G1 X96.440 Y71.061 E26.51378
G1 X96.440 Y83.941 E27.15774
G1 X82.780 Y83.941 E27.84070
G1 X82.571 Y82.495 F7800.000
G1 X80.008 Y79.932 F4560.000 E28.02265
G1 X80.008 Y81.142 F7800.000
G1 X81.361 Y82.495 F4560.000 E28.11869
G1 X81.196 Y83.540 F7800.000
G1 X80.008 Y82.352 F4560.000 E28.20300
G1 X80.008 Y83.562 F7800.000
G1 X81.196 Y84.750 F4560.000 E28.28731
G1 X80.009 Y84.772 F7800.000
G1 X81.196 Y85.959 F4560.000 E28.37163
G1 X80.008 Y85.982 F7800.000
G1 X81.196 Y87.170 F4560.000 E28.45594
G1 X80.008 Y87.193 F7800.000
G1 X81.195 Y88.380 F4560.000 E28.54025
G1 X80.008 Y88.402 F7800.000
G1 X81.196 Y89.590 F4560.000 E28.62456
G1 X80.008 Y89.612 F7800.000
G1 X81.196 Y90.800 F4560.000 E28.70887
G1 X80.009 Y90.822 F7800.000
G1 X81.196 Y92.009 F4560.000 E28.79318
G1 X80.008 Y92.032 F7800.000
G1 X81.196 Y93.220 F4560.000 E28.87750
G1 X80.008 Y93.243 F7800.000
G1 X81.195 Y94.430 F4560.000 E28.96181
G1 X80.008 Y94.452 F7800.000
G1 X81.196 Y95.640 F4560.000 E29.04612
G1 X80.008 Y95.662 F7800.000
G1 X81.196 Y96.850 F4560.000 E29.13043
G1 X80.009 Y96.872 F7800.000
G1 X81.196 Y98.059 F4560.000 E29.21474
G1 X80.008 Y98.082 F7800.000
G1 X81.196 Y99.270 F4560.000 E29.29906
G1 X80.008 Y99.293 F7800.000
G1 X81.195 Y100.480 F4560.000 E29.38337
G1 X80.008 Y100.502 F7800.000
G1 X81.196 Y101.690 F4560.000 E29.46768
G1 X80.008 Y101.712 F7800.000
G1 X81.196 Y102.900 F4560.000 E29.55199
G1 X80.994 Y103.907 F7800.000
G1 X83.094 Y106.007 F4560.000 E29.70113
G1 X83.891 Y105.595 F7800.000
G1 X82.203 Y103.907 F4560.000 E29.82095
G1 X81.196 Y104.109 F7800.000
G1 X80.009 Y102.922 F4560.000 E29.90526
G1 X80.008 Y104.132 F7800.000
G1 X82.971 Y107.095 F4560.000 E30.11561
G1 X81.761 Y107.095 F7800.000
G1 X80.008 Y105.343 F4560.000 E30.24004
G1 X80.008 Y106.552 F7800.000
G1 X81.196 Y107.740 F4560.000 E30.32435
G1 X80.008 Y107.762 F7800.000
G1 X81.196 Y108.950 F4560.000 E30.40866
G1 X80.009 Y108.972 F7800.000
G1 X81.196 Y110.159 F4560.000 E30.49297
G1 X80.008 Y110.182 F7800.000
G1 X81.196 Y111.370 F4560.000 E30.57729
G1 X81.733 Y111.907 F7800.000
G1 X85.921 Y116.095 F4560.000 E30.87461
G1 X84.710 Y116.095 F7800.000
G1 X80.008 Y111.393 F4560.000 E31.20850
G1 X80.008 Y112.602 F7800.000
G1 X83.594 Y116.188 F4560.000 E31.46308
G1 X83.594 Y117.398 F7800.000
G1 X80.008 Y113.812 F4560.000 E31.71765
G1 X80.009 Y115.022 F7800.000
G1 X83.594 Y118.607 F4560.000 E31.97223
G1 X83.594 Y119.818 F7800.000
G1 X80.008 Y116.232 F4560.000 E32.22681
G1 X80.008 Y117.443 F7800.000
G1 X83.593 Y121.028 F4560.000 E32.48139
G1 X83.594 Y122.238 F7800.000
G1 X80.008 Y118.652 F4560.000 E32.73596
G1 X80.008 Y119.862 F7800.000
G1 X83.594 Y123.448 F4560.000 E32.99054
G1 X83.594 Y124.657 F7800.000
G1 X80.009 Y121.072 F4560.000 E33.24512
G1 X80.008 Y122.282 F7800.000
G1 X83.594 Y125.868 F4560.000 E33.49970
G1 X83.593 Y127.078 F7800.000
G1 X80.008 Y123.493 F4560.000 E33.75427
G1 X80.008 Y124.702 F7800.000
G1 X82.799 Y127.493 F4560.000 E33.95240
G1 X81.589 Y127.493 F7800.000
G1 X80.008 Y125.912 F4560.000 E34.06462
G1 X79.192 Y126.305 F7800.000
G1 X80.379 Y127.492 F4560.000 E34.14894
G1 X79.169 Y127.493 F7800.000
G1 X77.981 Y126.305 F4560.000 E34.23325
G1 X77.959 Y127.493 F7800.000
G1 X76.771 Y126.305 F4560.000 E34.31757
G1 X76.749 Y127.493 F7800.000
G1 X75.561 Y126.305 F4560.000 E34.40189
G1 X75.539 Y127.493 F7800.000
G1 X74.351 Y126.305 F4560.000 E34.48621
G1 X74.329 Y127.493 F7800.000
G1 X73.141 Y126.305 F4560.000 E34.57052
G1 X73.119 Y127.493 F7800.000
G1 X71.931 Y126.305 F4560.000 E34.65484
G1 X71.909 Y127.493 F7800.000
G1 X70.721 Y126.305 F4560.000 E34.73916
G1 X70.699 Y127.493 F7800.000
G1 X69.511 Y126.305 F4560.000 E34.82347
G1 X69.489 Y127.493 F7800.000
G1 X68.301 Y126.305 F4560.000 E34.90779
G1 X68.279 Y127.493 F7800.000
G1 X67.091 Y126.305 F4560.000 E34.99211
G1 X67.069 Y127.493 F7800.000
G1 X65.881 Y126.305 F4560.000 E35.07642
G1 X65.859 Y127.493 F7800.000
G1 X64.671 Y126.305 F4560.000 E35.16074
G1 X64.649 Y127.493 F7800.000
G1 X63.461 Y126.305 F4560.000 E35.24506
G1 X63.439 Y127.493 F7800.000
G1 X62.251 Y126.305 F4560.000 E35.32938
G1 X62.229 Y127.493 F7800.000
G1 X61.041 Y126.305 F4560.000 E35.41369
G1 X61.019 Y127.493 F7800.000
G1 X59.831 Y126.305 F4560.000 E35.49801
G1 X59.809 Y127.493 F7800.000
G1 X58.621 Y126.305 F4560.000 E35.58233
G1 X58.599 Y127.493 F7800.000
G1 X57.411 Y126.305 F4560.000 E35.66664
G1 X57.389 Y127.493 F7800.000
G1 X56.201 Y126.305 F4560.000 E35.75096
G1 X56.179 Y127.493 F7800.000
G1 X54.991 Y126.305 F4560.000 E35.83528
G1 X54.969 Y127.493 F7800.000
G1 X53.781 Y126.305 F4560.000 E35.91959
G1 X53.759 Y127.493 F7800.000
G1 X52.571 Y126.305 F4560.000 E36.00391
G1 X52.549 Y127.493 F7800.000
G1 X51.361 Y126.305 F4560.000 E36.08823
G1 X51.339 Y127.493 F7800.000
G1 X50.151 Y126.305 F4560.000 E36.17254
G1 F600.000 E35.67254
G92 E0
G1 X82.944 Y111.907 F7800.000
G1 F600.000 E0.50000
G1 X87.131 Y116.094 F4560.000 E0.79732
G1 X88.341 Y116.095 F7800.000
G1 X84.153 Y111.907 F4560.000 E1.09465
G1 X85.363 Y111.907 F7800.000
G1 X89.551 Y116.095 F4560.000 E1.39197
G1 X90.760 Y116.095 F7800.000
G1 X86.573 Y111.908 F4560.000 E1.68929
G1 X87.783 Y111.907 F7800.000
G1 X91.971 Y116.095 F4560.000 E1.98662
G1 X93.181 Y116.094 F7800.000
G1 X88.994 Y111.907 F4560.000 E2.28394
G1 X90.203 Y111.907 F7800.000
G1 X94.391 Y116.095 F4560.000 E2.58126
G1 X94.994 Y115.488 F7800.000
G1 X91.413 Y111.907 F4560.000 E2.83549
G1 X92.623 Y111.908 F7800.000
G1 X95.094 Y114.378 F4560.000 E3.01090
G1 X95.094 Y113.168 F7800.000
G1 X93.833 Y111.907 F4560.000 E3.10040
G1 X93.571 Y105.595 F7800.000
G1 X91.883 Y103.907 F4560.000 E3.22022
G1 X93.094 Y103.907 F7800.000
G1 X94.781 Y105.594 F4560.000 E3.34004
G1 X95.094 Y104.698 F7800.000
G1 X94.303 Y103.907 F4560.000 E3.39616
G1 X92.361 Y105.595 F7800.000
G1 X90.673 Y103.908 F4560.000 E3.51598
G1 X89.463 Y103.907 F7800.000
G1 X91.151 Y105.595 F4560.000 E3.63580
G1 X89.941 Y105.595 F7800.000
G1 X88.253 Y103.907 F4560.000 E3.75562
G1 X87.044 Y103.907 F7800.000
G1 X88.731 Y105.594 F4560.000 E3.87543
G1 X87.521 Y105.595 F7800.000
G1 X85.833 Y103.907 F4560.000 E3.99525
G1 X84.623 Y103.908 F7800.000
G1 X86.311 Y105.595 F4560.000 E4.11507
G1 X85.101 Y105.595 F7800.000
G1 X83.413 Y103.907 F4560.000 E4.23489
G1 F600.000 E3.73489
G92 E0
G1 X83.594 Y82.307 F7800.000
G1 F600.000 E0.50000
G1 X80.009 Y78.722 F4560.000 E0.75458
G1 X80.008 Y77.512 F7800.000
G1 X83.594 Y81.098 F4560.000 E1.00917
G1 X83.594 Y79.888 F7800.000
G1 X80.008 Y76.302 F4560.000 E1.26375
G1 X80.008 Y75.092 F7800.000
G1 X83.593 Y78.678 F4560.000 E1.51833
G1 X83.594 Y77.468 F7800.000
G1 X80.008 Y73.882 F4560.000 E1.77291
G1 X80.009 Y72.672 F7800.000
G1 X83.594 Y76.257 F4560.000 E2.02750
G1 X83.594 Y75.048 F7800.000
G1 X81.053 Y72.507 F4560.000 E2.20787
G1 X82.263 Y72.507 F7800.000
G1 X83.594 Y73.838 F4560.000 E2.30234
G1 F600.000 E1.80234
G92 E0
G1 X139.938 Y117.541 F7800.000
G1 F600.000 E0.50000
G1 X149.858 Y117.541 F2880.000 E0.99597
G1 X149.858 Y127.459 E1.49184
G1 X139.938 Y127.459 E1.98781
G1 X139.938 Y117.679 E2.47678
G1 F600.000 E1.97678
G92 E0
G1 X139.938 Y82.461 F7800.000
G1 F600.000 E0.50000
G1 X139.938 Y72.541 F2880.000 E0.99597
G1 X149.858 Y72.541 E1.49194
G1 X149.858 Y82.461 E1.98791
G1 X140.076 Y82.461 E2.47698
G1 X139.085 Y83.088 F7800.000
G1 X136.687 Y83.088 F2880.000 E2.59687
G1 X136.687 Y103.314 E3.60813
G1 X150.585 Y103.314 E4.30299
G1 X150.585 Y106.188 E4.44665
G1 X138.585 Y106.188 E5.04662
G1 X138.585 Y107.688 E5.12161
G1 X136.687 Y107.688 E5.21651
G1 X136.687 Y111.314 E5.39782
G1 X150.585 Y111.314 E6.09268
G1 X150.585 Y115.688 E6.31134
G1 X150.485 Y115.688 E6.31634
G1 X150.485 Y116.688 E6.36633
G1 X139.085 Y116.688 E6.93630
G1 X139.085 Y128.086 E7.50616
G1 X104.313 Y128.086 E9.24463
G1 X104.313 Y125.712 E9.36330
G1 X134.313 Y125.712 E10.86320
G1 X134.313 Y71.914 E13.55294
G1 X139.085 Y71.914 E13.79150
G1 X139.085 Y82.950 E14.34324
G1 X137.540 Y83.941 F7800.000
G1 X137.540 Y102.461 F2880.000 E15.26918
G1 X151.438 Y102.461 E15.96404
G1 X151.438 Y108.541 E16.26802
G1 X150.358 Y108.541 E16.32202
G1 X150.358 Y107.041 E16.39701
G1 X139.438 Y107.041 E16.94298
G1 X139.438 Y108.541 E17.01797
G1 X137.540 Y108.541 E17.11287
G1 X137.540 Y110.461 E17.20886
G1 X151.438 Y110.461 E17.90372
G1 X151.438 Y116.541 E18.20770
G1 X151.338 Y116.541 E18.21270
G1 X151.338 Y128.939 E18.83256
G1 X103.460 Y128.939 E21.22631
G1 X103.460 Y124.859 E21.43030
G1 X133.460 Y124.859 E22.93020
G1 X133.460 Y71.061 E25.61993
G1 X151.338 Y71.061 E26.51378
G1 X151.338 Y83.941 E27.15774
G1 X137.678 Y83.941 E27.84070
G1 X137.469 Y82.495 F7800.000
G1 X134.906 Y79.932 F4560.000 E28.02265
G1 X134.906 Y81.142 F7800.000
G1 X136.259 Y82.495 F4560.000 E28.11869
G1 X136.094 Y83.540 F7800.000
G1 X134.906 Y82.352 F4560.000 E28.20300
G1 X134.906 Y83.562 F7800.000
G1 X136.094 Y84.750 F4560.000 E28.28731
G1 X134.907 Y84.772 F7800.000
G1 X136.094 Y85.959 F4560.000 E28.37163
G1 X134.906 Y85.982 F7800.000
G1 X136.094 Y87.170 F4560.000 E28.45594
G1 X134.906 Y87.193 F7800.000
G1 X136.093 Y88.380 F4560.000 E28.54025
G1 X134.906 Y88.402 F7800.000
G1 X136.094 Y89.590 F4560.000 E28.62456
G1 X134.906 Y89.612 F7800.000
G1 X136.094 Y90.800 F4560.000 E28.70887
G1 X134.907 Y90.822 F7800.000
G1 X136.094 Y92.009 F4560.000 E28.79318
G1 X134.906 Y92.032 F7800.000
G1 X136.094 Y93.220 F4560.000 E28.87750
G1 X134.906 Y93.243 F7800.000
G1 X136.093 Y94.430 F4560.000 E28.96181
G1 X134.906 Y94.452 F7800.000
G1 X136.094 Y95.640 F4560.000 E29.04612
G1 X134.906 Y95.662 F7800.000
G1 X136.094 Y96.850 F4560.000 E29.13043
G1 X134.907 Y96.872 F7800.000
G1 X136.094 Y98.059 F4560.000 E29.21474
G1 X134.906 Y98.082 F7800.000
G1 X136.094 Y99.270 F4560.000 E29.29906
G1 X134.906 Y99.293 F7800.000
G1 X136.093 Y100.480 F4560.000 E29.38337
G1 X134.906 Y100.502 F7800.000
G1 X136.094 Y101.690 F4560.000 E29.46768
G1 X134.906 Y101.712 F7800.000
G1 X136.094 Y102.900 F4560.000 E29.55199
G1 X135.892 Y103.907 F7800.000
G1 X137.992 Y106.007 F4560.000 E29.70113
G1 X138.789 Y105.595 F7800.000
G1 X137.101 Y103.907 F4560.000 E29.82095
G1 X136.094 Y104.109 F7800.000
G1 X134.907 Y102.922 F4560.000 E29.90526
G1 X134.906 Y104.132 F7800.000
G1 X137.869 Y107.095 F4560.000 E30.11561
G1 X136.659 Y107.095 F7800.000
G1 X134.906 Y105.343 F4560.000 E30.24004
G1 X134.906 Y106.552 F7800.000
G1 X136.094 Y107.740 F4560.000 E30.32435
G1 X134.906 Y107.762 F7800.000
G1 X136.094 Y108.950 F4560.000 E30.40866
G1 X134.907 Y108.972 F7800.000
G1 X136.094 Y110.159 F4560.000 E30.49297
G1 X134.906 Y110.182 F7800.000
G1 X136.094 Y111.370 F4560.000 E30.57729
G1 X136.631 Y111.907 F7800.000
G1 X140.819 Y116.095 F4560.000 E30.87461
G1 X139.608 Y116.095 F7800.000
G1 X134.906 Y111.393 F4560.000 E31.20850
G1 X134.906 Y112.602 F7800.000
G1 X138.492 Y116.188 F4560.000 E31.46308
G1 X138.492 Y117.398 F7800.000
G1 X134.906 Y113.812 F4560.000 E31.71765
G1 X134.907 Y115.022 F7800.000
G1 X138.492 Y118.607 F4560.000 E31.97223
G1 X138.492 Y119.818 F7800.000
G1 X134.906 Y116.232 F4560.000 E32.22681
G1 X134.906 Y117.443 F7800.000
G1 X138.491 Y121.028 F4560.000 E32.48139
G1 X138.492 Y122.238 F7800.000
G1 X134.906 Y118.652 F4560.000 E32.73596
G1 X134.906 Y119.862 F7800.000
G1 X138.492 Y123.448 F4560.000 E32.99054
G1 X138.492 Y124.657 F7800.000
G1 X134.907 Y121.072 F4560.000 E33.24512
G1 X134.906 Y122.282 F7800.000
G1 X138.492 Y125.868 F4560.000 E33.49970
G1 X138.491 Y127.078 F7800.000
G1 X134.906 Y123.493 F4560.000 E33.75427
G1 X134.906 Y124.702 F7800.000
