; generated by Slic3r 0.7.3-dev on 2012-05-20 at 11:37:08

; layer_height = 0.2
; perimeters = 3
; solid_layers = 3
; fill_density = 0.3
; nozzle_diameter = 0.35
; filament_diameter = 3
; extrusion_multiplier = 1
; perimeter_speed = 80
; infill_speed = 80
; travel_speed = 360
; extrusion_width_ratio = 2
; scale = 1
; single wall width = 0.40mm

M92 E860
M104 S190
M140 S60
G92 X0 Y0 Z0 E0
G0 Y-210 F21600
G0 X-200 F21600
G0 Z-100 F150
G28
M190 S60
G0 X0 Y210 F21600
M109 S185
G0 Z1 F100
G0 X100 Y105 F21600
G90 ; use absolute coordinates
G21 ; set units to millimeters
G92 E0 ; reset extrusion distance
M82 ; use absolute distances for extrusion
G1 Z0.200 F21600.000 ; move to next layer (0)
G1 X99.841 Y67.511 ; move to first skirt point
G1 F6000.000 E2.50000 ; compensate retraction
G1 X99.971 Y67.271 F2400.000 E2.50301 ; skirt
G1 X100.281 Y66.811 E2.50912 ; skirt
G1 X100.811 Y66.171 E2.51827 ; skirt
G1 X101.201 Y65.791 E2.52427 ; skirt
G1 X101.631 Y65.431 E2.53044 ; skirt
G1 X102.321 Y64.971 E2.53958 ; skirt
G1 X102.801 Y64.711 E2.54559 ; skirt
G1 X103.311 Y64.491 E2.55171 ; skirt
G1 X103.831 Y64.311 E2.55777 ; skirt
G1 X104.371 Y64.181 E2.56388 ; skirt
G1 X104.911 Y64.091 E2.56991 ; skirt
G1 X105.461 Y64.041 E2.57600 ; skirt
G1 X124.411 Y64.041 E2.78471 ; skirt
G1 X124.951 Y64.091 E2.79069 ; skirt
G1 X125.751 Y64.231 E2.79963 ; skirt
G1 X126.281 Y64.391 E2.80573 ; skirt
G1 X127.031 Y64.691 E2.81463 ; skirt
G1 X127.281 Y64.811 E2.81768 ; skirt
G1 X127.751 Y65.081 E2.82365 ; skirt
G1 X128.621 Y65.731 E2.83561 ; skirt
G1 X129.011 Y66.111 E2.84161 ; skirt
G1 X129.371 Y66.511 E2.84754 ; skirt
G1 X129.851 Y67.171 E2.85653 ; skirt
G1 X130.121 Y67.641 E2.86250 ; skirt
G1 X130.461 Y68.391 E2.87156 ; skirt
G1 X130.631 Y68.901 E2.87749 ; skirt
G1 X130.761 Y69.431 E2.88350 ; skirt
G1 X130.851 Y69.971 E2.88953 ; skirt
G1 X130.881 Y70.241 E2.89252 ; skirt
G1 X130.891 Y129.521 E3.54543 ; skirt
G1 X130.851 Y130.051 E3.55129 ; skirt
G1 X130.811 Y130.321 E3.55429 ; skirt
G1 X130.621 Y131.111 E3.56324 ; skirt
G1 X130.451 Y131.631 E3.56927 ; skirt
G1 X130.111 Y132.371 E3.57824 ; skirt
G1 X129.841 Y132.831 E3.58411 ; skirt
G1 X129.531 Y133.281 E3.59013 ; skirt
G1 X129.181 Y133.701 E3.59615 ; skirt
G1 X129.001 Y133.891 E3.59904 ; skirt
G1 X128.601 Y134.271 E3.60511 ; skirt
G1 X127.961 Y134.771 E3.61406 ; skirt
G1 X127.271 Y135.181 E3.62290 ; skirt
G1 X126.781 Y135.421 E3.62891 ; skirt
G1 X126.271 Y135.611 E3.63490 ; skirt
G1 X125.751 Y135.761 E3.64086 ; skirt
G1 X125.491 Y135.821 E3.64380 ; skirt
G1 X124.681 Y135.931 E3.65280 ; skirt
G1 X124.411 Y135.951 E3.65579 ; skirt
G1 X75.481 Y135.951 E4.19471 ; skirt
G1 X74.941 Y135.901 E4.20068 ; skirt
G1 X74.401 Y135.811 E4.20671 ; skirt
G1 X73.871 Y135.681 E4.21272 ; skirt
G1 X73.351 Y135.511 E4.21874 ; skirt
G1 X72.851 Y135.301 E4.22472 ; skirt
G1 X72.611 Y135.181 E4.22767 ; skirt
G1 X71.911 Y134.751 E4.23672 ; skirt
G1 X71.471 Y134.431 E4.24271 ; skirt
G1 X71.071 Y134.071 E4.24864 ; skirt
G1 X70.871 Y133.871 E4.25176 ; skirt
G1 X70.511 Y133.471 E4.25768 ; skirt
G1 X70.041 Y132.801 E4.26670 ; skirt
G1 X69.761 Y132.331 E4.27272 ; skirt
G1 X69.531 Y131.841 E4.27868 ; skirt
G1 X69.341 Y131.331 E4.28468 ; skirt
G1 X69.191 Y130.811 E4.29064 ; skirt
G1 X69.081 Y130.271 E4.29671 ; skirt
G1 X69.011 Y129.731 E4.30271 ; skirt
G1 X68.991 Y129.461 E4.30569 ; skirt
G1 X69.011 Y124.021 E4.36561 ; skirt
G1 X69.041 Y123.731 E4.36882 ; skirt
G1 X69.141 Y123.171 E4.37508 ; skirt
G1 X69.281 Y122.611 E4.38144 ; skirt
G1 X69.371 Y122.341 E4.38457 ; skirt
G1 X69.711 Y121.551 E4.39405 ; skirt
G1 X99.812 Y67.563 E5.07485 ; skirt
G1 X100.171 Y67.691 F21600.000 ; move to first skirt point
G1 X100.301 Y67.461 F2400.000 E5.07776 ; skirt
G1 X100.771 Y66.801 E5.08668 ; skirt
G1 X101.131 Y66.391 E5.09269 ; skirt
G1 X101.521 Y66.011 E5.09869 ; skirt
G1 X101.941 Y65.671 E5.10464 ; skirt
G1 X102.391 Y65.371 E5.11060 ; skirt
G1 X102.871 Y65.101 E5.11666 ; skirt
G1 X103.611 Y64.781 E5.12554 ; skirt
G1 X104.391 Y64.561 E5.13447 ; skirt
G1 X104.931 Y64.471 E5.14050 ; skirt
G1 X105.201 Y64.441 E5.14349 ; skirt
G1 X105.741 Y64.421 E5.14944 ; skirt
G1 X124.671 Y64.441 E5.35794 ; skirt
G1 X125.451 Y64.551 E5.36662 ; skirt
G1 X125.961 Y64.681 E5.37241 ; skirt
G1 X126.701 Y64.951 E5.38109 ; skirt
G1 X127.621 Y65.451 E5.39262 ; skirt
G1 X127.841 Y65.601 E5.39556 ; skirt
G1 X128.261 Y65.931 E5.40144 ; skirt
G1 X128.831 Y66.471 E5.41009 ; skirt
G1 X129.171 Y66.871 E5.41587 ; skirt
G1 X129.331 Y67.081 E5.41878 ; skirt
G1 X129.871 Y67.981 E5.43034 ; skirt
G1 X130.171 Y68.711 E5.43903 ; skirt
G1 X130.381 Y69.471 E5.44771 ; skirt
G1 X130.471 Y69.991 E5.45353 ; skirt
G1 X130.501 Y70.251 E5.45641 ; skirt
G1 X130.511 Y129.501 E6.10899 ; skirt
G1 X130.471 Y130.031 E6.11485 ; skirt
G1 X130.381 Y130.541 E6.12055 ; skirt
G1 X130.161 Y131.301 E6.12927 ; skirt
G1 X129.971 Y131.791 E6.13505 ; skirt
G1 X129.861 Y132.031 E6.13796 ; skirt
G1 X129.461 Y132.711 E6.14665 ; skirt
G1 X129.161 Y133.131 E6.15234 ; skirt
G1 X128.821 Y133.531 E6.15812 ; skirt
G1 X128.251 Y134.071 E6.16677 ; skirt
G1 X128.041 Y134.241 E6.16974 ; skirt
G1 X127.391 Y134.681 E6.17839 ; skirt
G1 X126.931 Y134.931 E6.18415 ; skirt
G1 X126.451 Y135.141 E6.18992 ; skirt
G1 X125.951 Y135.311 E6.19574 ; skirt
G1 X125.441 Y135.441 E6.20154 ; skirt
G1 X124.661 Y135.551 E6.21021 ; skirt
G1 X124.141 Y135.571 E6.21594 ; skirt
G1 X75.221 Y135.551 E6.75475 ; skirt
G1 X74.701 Y135.481 E6.76053 ; skirt
G1 X74.181 Y135.381 E6.76637 ; skirt
G1 X73.931 Y135.311 E6.76922 ; skirt
G1 X73.191 Y135.031 E6.77794 ; skirt
G1 X72.711 Y134.801 E6.78380 ; skirt
G1 X72.261 Y134.531 E6.78958 ; skirt
G1 X71.831 Y134.231 E6.79536 ; skirt
G1 X71.241 Y133.701 E6.80409 ; skirt
G1 X70.711 Y133.111 E6.81283 ; skirt
G1 X70.271 Y132.461 E6.82147 ; skirt
G1 X70.021 Y131.991 E6.82734 ; skirt
G1 X69.811 Y131.511 E6.83311 ; skirt
G1 X69.631 Y131.011 E6.83896 ; skirt
G1 X69.561 Y130.761 E6.84182 ; skirt
G1 X69.421 Y129.981 E6.85055 ; skirt
G1 X69.391 Y129.721 E6.85343 ; skirt
G1 X69.381 Y124.301 E6.91313 ; skirt
G1 X69.431 Y123.711 E6.91965 ; skirt
G1 X69.611 Y122.841 E6.92943 ; skirt
G1 X69.801 Y122.281 E6.93595 ; skirt
G1 X69.911 Y122.011 E6.93916 ; skirt
G1 X100.142 Y67.743 E7.62335 ; skirt
G1 X100.501 Y67.881 F21600.000 ; move to first skirt point
G1 X100.771 Y67.441 F2400.000 E7.62904 ; skirt
G1 X101.071 Y67.031 E7.63463 ; skirt
G1 X101.231 Y66.841 E7.63737 ; skirt
G1 X101.771 Y66.301 E7.64578 ; skirt
G1 X101.971 Y66.131 E7.64867 ; skirt
G1 X102.591 Y65.691 E7.65704 ; skirt
G1 X102.811 Y65.561 E7.65986 ; skirt
G1 X103.271 Y65.331 E7.66552 ; skirt
G1 X103.741 Y65.141 E7.67111 ; skirt
G1 X104.471 Y64.931 E7.67947 ; skirt
G1 X105.231 Y64.821 E7.68793 ; skirt
G1 X105.741 Y64.801 E7.69355 ; skirt
G1 X124.651 Y64.821 E7.90183 ; skirt
G1 X125.401 Y64.931 E7.91018 ; skirt
G1 X125.891 Y65.061 E7.91576 ; skirt
G1 X126.371 Y65.231 E7.92137 ; skirt
G1 X126.841 Y65.441 E7.92704 ; skirt
G1 X127.491 Y65.821 E7.93533 ; skirt
G1 X127.701 Y65.971 E7.93817 ; skirt
G1 X128.101 Y66.291 E7.94382 ; skirt
G1 X128.641 Y66.831 E7.95223 ; skirt
G1 X128.961 Y67.221 E7.95778 ; skirt
G1 X129.241 Y67.641 E7.96334 ; skirt
G1 X129.371 Y67.861 E7.96616 ; skirt
G1 X129.601 Y68.321 E7.97182 ; skirt
G1 X129.791 Y68.791 E7.97741 ; skirt
G1 X129.941 Y69.271 E7.98294 ; skirt
G1 X130.051 Y69.771 E7.98858 ; skirt
G1 X130.121 Y70.271 E7.99414 ; skirt
G1 X130.131 Y129.491 E8.64640 ; skirt
G1 X130.091 Y130.001 E8.65203 ; skirt
G1 X130.001 Y130.491 E8.65752 ; skirt
G1 X129.871 Y130.981 E8.66310 ; skirt
G1 X129.591 Y131.691 E8.67151 ; skirt
G1 X129.481 Y131.921 E8.67432 ; skirt
G1 X129.231 Y132.361 E8.67989 ; skirt
G1 X128.951 Y132.781 E8.68545 ; skirt
G1 X128.631 Y133.171 E8.69101 ; skirt
G1 X128.091 Y133.711 E8.69942 ; skirt
G1 X127.691 Y134.031 E8.70506 ; skirt
G1 X127.271 Y134.311 E8.71062 ; skirt
G1 X127.051 Y134.441 E8.71343 ; skirt
G1 X126.371 Y134.761 E8.72171 ; skirt
G1 X125.891 Y134.931 E8.72732 ; skirt
G1 X125.401 Y135.061 E8.73290 ; skirt
G1 X124.651 Y135.171 E8.74125 ; skirt
G1 X124.141 Y135.191 E8.74687 ; skirt
G1 X75.241 Y135.171 E9.28546 ; skirt
G1 X74.491 Y135.061 E9.29381 ; skirt
G1 X73.991 Y134.931 E9.29950 ; skirt
G1 X73.511 Y134.761 E9.30511 ; skirt
G1 X73.051 Y134.551 E9.31068 ; skirt
G1 X72.821 Y134.431 E9.31354 ; skirt
G1 X72.601 Y134.301 E9.31635 ; skirt
G1 X71.981 Y133.861 E9.32473 ; skirt
G1 X71.601 Y133.521 E9.33034 ; skirt
G1 X71.421 Y133.341 E9.33315 ; skirt
G1 X71.081 Y132.961 E9.33876 ; skirt
G1 X70.641 Y132.341 E9.34714 ; skirt
G1 X70.511 Y132.121 E9.34995 ; skirt
G1 X70.281 Y131.661 E9.35561 ; skirt
G1 X70.091 Y131.191 E9.36120 ; skirt
G1 X69.941 Y130.701 E9.36684 ; skirt
G1 X69.881 Y130.451 E9.36967 ; skirt
G1 X69.771 Y129.701 E9.37802 ; skirt
G1 X69.761 Y124.311 E9.43739 ; skirt
G1 X69.811 Y123.761 E9.44347 ; skirt
G1 X69.851 Y123.491 E9.44648 ; skirt
G1 X70.061 Y122.681 E9.45569 ; skirt
G1 X70.261 Y122.161 E9.46183 ; skirt
G1 X100.472 Y67.933 E10.14553 ; skirt
G1 F6000.000 E8.14553 ; retract
G1 Z0.400 F21600.000 ; lift plate during retraction
G92 E0
G1 X111.785 Y71.837 ; move to first perimeter point
G1 Z0.200 ; restore layer Z
G1 F6000.000 E2.50000 ; compensate retraction
G1 X123.113 Y71.837 F2400.000 E2.62477 ; perimeter
G1 X123.113 Y83.165 E2.74954 ; perimeter
G1 X111.785 Y83.165 E2.87431 ; perimeter
G1 X111.785 Y71.897 E2.99843 ; perimeter
G1 X112.165 Y72.217 F21600.000 ; move to first perimeter point
G1 X122.733 Y72.217 F2400.000 E3.11482 ; perimeter
G1 X122.733 Y82.785 E3.23121 ; perimeter
G1 X112.165 Y82.785 E3.34760 ; perimeter
G1 X112.165 Y72.277 E3.46334 ; perimeter
G1 X112.546 Y72.598 F21600.000 ; move to first perimeter point
G1 X122.352 Y72.598 F2400.000 E3.57135 ; perimeter
G1 X122.352 Y82.404 E3.67936 ; perimeter
G1 X112.546 Y82.404 E3.78738 ; perimeter
G1 X112.546 Y72.658 E3.89473 ; perimeter
G1 F6000.000 E1.89473 ; retract
G1 Z0.400 F21600.000 ; lift plate during retraction
G92 E0
G1 X111.785 Y116.837 ; move to first perimeter point
G1 Z0.200 ; restore layer Z
G1 F6000.000 E2.50000 ; compensate retraction
G1 X123.113 Y116.837 F2400.000 E2.62477 ; perimeter
G1 X123.113 Y128.163 E2.74952 ; perimeter
G1 X111.785 Y128.163 E2.87429 ; perimeter
G1 X111.785 Y116.897 E2.99838 ; perimeter
G1 X112.165 Y117.217 F21600.000 ; move to first perimeter point
G1 X122.733 Y117.217 F2400.000 E3.11477 ; perimeter
G1 X122.733 Y127.783 E3.23114 ; perimeter
G1 X112.165 Y127.783 E3.34754 ; perimeter
G1 X112.165 Y117.277 E3.46325 ; perimeter
G1 X112.546 Y117.598 F21600.000 ; move to first perimeter point
G1 X122.352 Y117.598 F2400.000 E3.57126 ; perimeter
G1 X122.352 Y127.402 E3.67925 ; perimeter
G1 X112.546 Y127.402 E3.78727 ; perimeter
G1 X112.546 Y117.658 E3.89460 ; perimeter
G1 F6000.000 E1.89460 ; retract
G1 Z0.400 F21600.000 ; lift plate during retraction
G92 E0
G1 X76.512 Y128.438 ; move to first perimeter point
G1 Z0.200 ; restore layer Z
G1 F6000.000 E2.50000 ; compensate retraction
G1 X76.512 Y125.360 F2400.000 E2.53391 ; perimeter
G1 X106.512 Y125.360 E2.86433 ; perimeter
G1 X106.512 Y71.562 E3.45687 ; perimeter
G1 X123.388 Y71.562 E3.64275 ; perimeter
G1 X123.388 Y83.440 E3.77358 ; perimeter
G1 X109.590 Y83.440 E3.92555 ; perimeter
G1 X109.590 Y102.962 E4.14056 ; perimeter
G1 X123.488 Y102.962 E4.29363 ; perimeter
G1 X123.488 Y108.040 E4.34957 ; perimeter
G1 X123.410 Y108.040 E4.35043 ; perimeter
G1 X123.410 Y106.540 E4.36696 ; perimeter
G1 X111.488 Y106.540 E4.49826 ; perimeter
G1 X111.488 Y108.040 E4.51478 ; perimeter
G1 X109.590 Y108.040 E4.53569 ; perimeter
G1 X109.590 Y110.962 E4.56786 ; perimeter
G1 X123.488 Y110.962 E4.72094 ; perimeter
G1 X123.488 Y116.040 E4.77687 ; perimeter
G1 X123.388 Y116.040 E4.77797 ; perimeter
G1 X123.388 Y128.438 E4.91453 ; perimeter
G1 X76.572 Y128.438 E5.43017 ; perimeter
G1 X76.131 Y128.819 F21600.000 ; move to first perimeter point
G1 X76.131 Y124.979 F2400.000 E5.47245 ; perimeter
G1 X106.131 Y124.979 E5.80288 ; perimeter
G1 X106.131 Y71.181 E6.39541 ; perimeter
G1 X123.769 Y71.181 E6.58967 ; perimeter
G1 X123.769 Y83.821 E6.72888 ; perimeter
G1 X109.971 Y83.821 E6.88085 ; perimeter
G1 X109.971 Y102.581 E7.08748 ; perimeter
G1 X123.869 Y102.581 E7.24056 ; perimeter
G1 X123.869 Y108.421 E7.30487 ; perimeter
G1 X123.029 Y108.421 E7.31412 ; perimeter
G1 X123.029 Y106.921 E7.33064 ; perimeter
G1 X111.869 Y106.921 E7.45356 ; perimeter
G1 X111.869 Y108.421 E7.47008 ; perimeter
G1 X109.971 Y108.421 E7.49099 ; perimeter
G1 X109.971 Y110.581 E7.51479 ; perimeter
G1 X123.869 Y110.581 E7.66786 ; perimeter
G1 X123.869 Y116.421 E7.73217 ; perimeter
G1 X123.769 Y116.421 E7.73328 ; perimeter
G1 X123.769 Y128.819 E7.86983 ; perimeter
G1 X76.191 Y128.819 E8.39385 ; perimeter
G1 X75.751 Y129.199 F21600.000 ; move to first perimeter point
G1 X75.751 Y124.599 F2400.000 E8.44451 ; perimeter
G1 X105.751 Y124.599 E8.77494 ; perimeter
G1 X105.751 Y70.801 E9.36747 ; perimeter
G1 X124.149 Y70.801 E9.57011 ; perimeter
G1 X124.149 Y84.201 E9.71770 ; perimeter
G1 X110.351 Y84.201 E9.86967 ; perimeter
G1 X110.351 Y102.201 E10.06792 ; perimeter
G1 X124.249 Y102.201 E10.22100 ; perimeter
G1 X124.249 Y108.801 E10.29369 ; perimeter
G1 X122.649 Y108.801 E10.31131 ; perimeter
G1 X122.649 Y107.301 E10.32783 ; perimeter
G1 X112.249 Y107.301 E10.44238 ; perimeter
G1 X112.249 Y108.801 E10.45890 ; perimeter
G1 X110.351 Y108.801 E10.47981 ; perimeter
G1 X110.351 Y110.201 E10.49523 ; perimeter
G1 X124.249 Y110.201 E10.64830 ; perimeter
G1 X124.249 Y116.801 E10.72099 ; perimeter
G1 X124.149 Y116.801 E10.72209 ; perimeter
G1 X124.149 Y129.199 E10.85865 ; perimeter
G1 X75.811 Y129.199 E11.39105 ; perimeter
G1 X77.005 Y128.171 F21600.000 ; move to first fill point
G1 X76.779 Y127.945 F2400.000 E11.39459 ; fill
G1 X76.779 Y127.405 E11.40056 ; fill
G1 X77.545 Y128.171 E11.41254 ; fill
G1 X78.084 Y128.171 E11.41851 ; fill
G1 X76.779 Y126.866 E11.43893 ; fill
G1 X76.779 Y126.326 E11.44490 ; fill
G1 X78.624 Y128.171 E11.47376 ; fill
G1 X79.163 Y128.171 E11.47973 ; fill
G1 X76.779 Y125.787 E11.51703 ; fill
G1 X77.158 Y125.627 E11.52159 ; fill
G1 X79.703 Y128.171 E11.56139 ; fill
G1 X80.242 Y128.171 E11.56736 ; fill
G1 X77.698 Y125.627 E11.60716 ; fill
G1 X78.237 Y125.627 E11.61313 ; fill
G1 X80.781 Y128.171 E11.65293 ; fill
G1 X81.321 Y128.171 E11.65890 ; fill
G1 X78.777 Y125.627 E11.69871 ; fill
G1 X79.316 Y125.627 E11.70467 ; fill
G1 X81.860 Y128.171 E11.74448 ; fill
G1 X82.400 Y128.171 E11.75045 ; fill
G1 X79.856 Y125.627 E11.79025 ; fill
G1 X80.395 Y125.627 E11.79622 ; fill
G1 X82.939 Y128.171 E11.83602 ; fill
G1 X83.479 Y128.171 E11.84199 ; fill
G1 X80.934 Y125.627 E11.88180 ; fill
G1 X81.474 Y125.627 E11.88776 ; fill
G1 X84.018 Y128.171 E11.92757 ; fill
G1 X84.558 Y128.171 E11.93354 ; fill
G1 X82.013 Y125.627 E11.97334 ; fill
G1 X82.553 Y125.627 E11.97931 ; fill
G1 X85.097 Y128.171 E12.01911 ; fill
G1 X85.637 Y128.171 E12.02508 ; fill
G1 X83.092 Y125.627 E12.06489 ; fill
G1 X83.632 Y125.627 E12.07085 ; fill
G1 X86.176 Y128.171 E12.11066 ; fill
G1 X86.715 Y128.171 E12.11663 ; fill
G1 X84.171 Y125.627 E12.15643 ; fill
G1 X84.711 Y125.627 E12.16240 ; fill
G1 X87.255 Y128.171 E12.20220 ; fill
G1 X87.794 Y128.171 E12.20817 ; fill
G1 X85.250 Y125.627 E12.24797 ; fill
G1 X85.789 Y125.627 E12.25394 ; fill
G1 X88.334 Y128.171 E12.29375 ; fill
G1 X88.873 Y128.171 E12.29971 ; fill
G1 X86.329 Y125.627 E12.33952 ; fill
G1 X86.868 Y125.627 E12.34549 ; fill
G1 X89.413 Y128.171 E12.38529 ; fill
G1 X89.952 Y128.171 E12.39126 ; fill
G1 X87.408 Y125.627 E12.43106 ; fill
G1 X87.947 Y125.627 E12.43703 ; fill
G1 X90.492 Y128.171 E12.47684 ; fill
G1 X91.031 Y128.171 E12.48280 ; fill
G1 X88.487 Y125.627 E12.52261 ; fill
G1 X89.026 Y125.627 E12.52858 ; fill
G1 X91.571 Y128.171 E12.56838 ; fill
G1 X92.110 Y128.171 E12.57435 ; fill
G1 X89.566 Y125.627 E12.61415 ; fill
G1 X90.105 Y125.627 E12.62012 ; fill
G1 X92.649 Y128.171 E12.65993 ; fill
G1 X93.189 Y128.171 E12.66589 ; fill
G1 X90.645 Y125.627 E12.70570 ; fill
G1 X91.184 Y125.627 E12.71167 ; fill
G1 X93.728 Y128.171 E12.75147 ; fill
G1 X94.268 Y128.171 E12.75744 ; fill
