; generated by Slic3r 0.7.3-dev on 2012-05-09 at 18:13:04

; layer_height = 0.4
; perimeters = 1
; solid_layers = 3
; fill_density = 0.25
; nozzle_diameter = 0.75
; filament_diameter = 3
; extrusion_multiplier = 1
; perimeter_speed = 40
; infill_speed = 70
; travel_speed = 130
; extrusion_width_ratio = 2.3
; scale = 1
; single wall width = 0.92mm

M104 S230 ; set temperature
M92 E380
G92 X0 Y0 Z0  E0.0
G1 Z2.0 F150.0
G1 X-250.0 F2100.0
G1 X-249.0 F300.0
G1 X-251.0 F100.0
G92 X3.0
G1 Y-250.0 F2100.0
G1 Y-249.0 F300.0
G1 Y-251.0 F300.0
G92 Y10.0
G1 Y70.0 F2100.0
G1 Z-250.0 F150.0
G1 Z-249.0 F50.0
G1 Z-251.0 F50.0
G1 Y75.0 E2.0  F1000.0
G1 Y100.0 E2.3  F1000.0
G92 Z0.3
G92 E0.0
M106 S70
M107
M109 S230 ; wait for temperature to be reached
G90 ; use absolute coordinates
G21 ; set units to millimeters
G92 E0 ; reset extrusion distance
M82 ; use absolute distances for extrusion
M107
G1 Z0.400 F7800.000
G1 X71.412 Y142.783
G1 F600.000 E0.50000
G1 X71.922 Y142.763 F1920.000 E0.52552
G1 X152.572 Y142.783 E4.55777
G1 X153.322 Y142.893 E4.59566
G1 X153.822 Y143.023 E4.62149
G1 X154.302 Y143.193 E4.64695
G1 X154.762 Y143.403 E4.67224
G1 X154.992 Y143.523 E4.68521
G1 X155.212 Y143.653 E4.69798
G1 X155.832 Y144.093 E4.73599
G1 X156.212 Y144.433 E4.76149
G1 X156.392 Y144.613 E4.77421
G1 X156.732 Y144.993 E4.79971
G1 X157.172 Y145.613 E4.83772
G1 X157.302 Y145.833 E4.85049
G1 X157.532 Y146.293 E4.87621
G1 X157.722 Y146.763 E4.90155
G1 X157.872 Y147.253 E4.92717
G1 X157.932 Y147.503 E4.94003
G1 X158.042 Y148.253 E4.97793
G1 X157.822 Y181.853 E6.65786
G1 X157.772 Y182.393 E6.68497
G1 X146.832 Y227.883 E9.02418
G1 X146.572 Y228.613 E9.06292
G1 X146.342 Y229.083 E9.08908
G1 X146.082 Y229.523 E9.11463
G1 X145.612 Y230.143 E9.15353
G1 X145.262 Y230.523 E9.17936
G1 X144.672 Y231.023 E9.21803
G1 X144.252 Y231.313 E9.24354
G1 X143.802 Y231.573 E9.26953
G1 X143.332 Y231.793 E9.29547
G1 X142.842 Y231.963 E9.32140
G1 X142.342 Y232.093 E9.34723
G1 X141.832 Y232.183 E9.37313
G1 X141.582 Y232.213 E9.38572
G1 X141.062 Y232.233 E9.41173
G1 X71.412 Y232.213 E12.89402
G1 X70.662 Y232.103 E12.93191
G1 X70.162 Y231.973 E12.95774
G1 X69.682 Y231.803 E12.98320
G1 X69.222 Y231.593 E13.00848
G1 X68.992 Y231.473 E13.02145
G1 X68.772 Y231.343 E13.03423
G1 X68.152 Y230.903 E13.07224
G1 X67.772 Y230.563 E13.09774
G1 X67.592 Y230.383 E13.11046
G1 X67.252 Y230.003 E13.13596
G1 X66.812 Y229.383 E13.17397
G1 X66.682 Y229.163 E13.18674
G1 X66.452 Y228.703 E13.21246
G1 X66.262 Y228.233 E13.23780
G1 X66.112 Y227.743 E13.26342
G1 X66.052 Y227.493 E13.27628
G1 X65.942 Y226.743 E13.31418
G1 X65.942 Y148.253 E17.23843
G1 X66.052 Y147.503 E17.27633
G1 X66.182 Y147.003 E17.30216
G1 X66.352 Y146.523 E17.32762
G1 X66.562 Y146.063 E17.35290
G1 X66.682 Y145.833 E17.36587
G1 X66.812 Y145.613 E17.37865
G1 X67.252 Y144.993 E17.41666
G1 X67.592 Y144.613 E17.44215
G1 X67.772 Y144.433 E17.45488
G1 X68.152 Y144.093 E17.48037
G1 X68.772 Y143.653 E17.51838
G1 X68.992 Y143.523 E17.53116
G1 X69.452 Y143.293 E17.55687
G1 X69.922 Y143.103 E17.58222
G1 X70.412 Y142.953 E17.60784
G1 X70.662 Y142.893 E17.62069
G1 X71.275 Y142.799 E17.65169
G1 F600.000 E17.15169
G92 E0
G1 X71.462 Y146.953 F7800.000
G1 F600.000 E0.50000
G1 X147.162 Y146.973 F1920.000 E4.28476
G1 X147.462 Y146.993 E4.29980
G1 X148.052 Y147.083 E4.32964
G1 X148.632 Y147.233 E4.35959
G1 X160.392 Y151.523 E4.98545
G1 X160.862 Y151.763 E5.01184
G1 X161.302 Y152.043 E5.03791
G1 X161.722 Y152.363 E5.06431
G1 X162.102 Y152.723 E5.09048
G1 X162.462 Y153.103 E5.11665
G1 X162.922 Y153.743 E5.15606
G1 X163.062 Y153.963 E5.16910
G1 X163.302 Y154.423 E5.19504
G1 X163.502 Y154.913 E5.22150
G1 X163.662 Y155.413 E5.24774
G1 X163.772 Y155.923 E5.27383
G1 X163.842 Y156.443 E5.30006
G1 X163.512 Y189.883 E6.97204
G1 X163.442 Y190.453 E7.00075
G1 X163.392 Y190.733 E7.01497
G1 X152.502 Y225.423 E8.83282
G1 X152.312 Y225.893 E8.85816
G1 X152.202 Y226.123 E8.87091
G1 X151.952 Y226.563 E8.89621
G1 X151.812 Y226.773 E8.90883
G1 X151.512 Y227.173 E8.93383
G1 X151.172 Y227.553 E8.95932
G1 X150.992 Y227.733 E8.97205
G1 X150.412 Y228.223 E9.01001
G1 X149.992 Y228.503 E9.03525
G1 X149.772 Y228.633 E9.04802
G1 X149.322 Y228.853 E9.07307
G1 X148.852 Y229.043 E9.09841
G1 X148.122 Y229.253 E9.13639
G1 X147.372 Y229.363 E9.17429
G1 X146.862 Y229.383 E9.19981
G1 X70.952 Y229.363 E12.99507
G1 X70.202 Y229.253 E13.03297
G1 X69.702 Y229.123 E13.05880
G1 X69.222 Y228.953 E13.08426
G1 X68.762 Y228.743 E13.10954
G1 X68.532 Y228.623 E13.12251
G1 X68.312 Y228.493 E13.13528
G1 X67.692 Y228.053 E13.17330
G1 X67.312 Y227.713 E13.19879
G1 X67.132 Y227.533 E13.21152
G1 X66.792 Y227.153 E13.23701
G1 X66.352 Y226.533 E13.27502
G1 X66.222 Y226.313 E13.28780
G1 X65.992 Y225.853 E13.31351
G1 X65.802 Y225.383 E13.33886
G1 X65.652 Y224.893 E13.36448
G1 X65.592 Y224.643 E13.37733
G1 X65.482 Y223.893 E13.41523
G1 X65.482 Y152.443 E16.98751
G1 X65.592 Y151.693 E17.02540
G1 X65.722 Y151.193 E17.05123
G1 X65.892 Y150.713 E17.07669
G1 X66.102 Y150.253 E17.10198
G1 X66.222 Y150.023 E17.11495
G1 X66.352 Y149.803 E17.12772
G1 X66.792 Y149.183 E17.16573
G1 X67.132 Y148.803 E17.19123
G1 X67.312 Y148.623 E17.20395
G1 X67.692 Y148.283 E17.22945
G1 X68.312 Y147.843 E17.26746
G1 X68.532 Y147.713 E17.28023
G1 X68.992 Y147.483 E17.30595
G1 X69.462 Y147.293 E17.33129
G1 X69.952 Y147.143 E17.35691
G1 X70.202 Y147.083 E17.36977
G1 X70.952 Y146.973 E17.40767
G1 X71.324 Y146.959 E17.42628
G1 F600.000 E16.92628
G92 E0
G1 X72.902 Y125.363 F7800.000
G1 F600.000 E0.50000
G1 X56.292 Y125.343 F1920.000 E1.33045
G1 X55.542 Y125.233 E1.36835
G1 X55.042 Y125.103 E1.39418
G1 X54.562 Y124.933 E1.41964
G1 X54.102 Y124.723 E1.44492
G1 X53.872 Y124.603 E1.45789
G1 X53.652 Y124.473 E1.47066
G1 X53.032 Y124.033 E1.50868
G1 X52.652 Y123.693 E1.53417
G1 X52.472 Y123.513 E1.54690
G1 X52.132 Y123.133 E1.57239
G1 X51.692 Y122.513 E1.61040
G1 X51.562 Y122.293 E1.62318
G1 X51.332 Y121.833 E1.64889
G1 X51.142 Y121.363 E1.67424
G1 X50.992 Y120.873 E1.69986
G1 X50.932 Y120.623 E1.71271
G1 X50.822 Y119.873 E1.75061
G1 X50.822 Y80.773 E3.70549
G1 X50.892 Y80.263 E3.73122
G1 X51.002 Y79.763 E3.75682
G1 X51.152 Y79.273 E3.78244
G1 X51.242 Y79.033 E3.79526
G1 X51.582 Y78.333 E3.83416
G1 X51.852 Y77.893 E3.85997
G1 X52.162 Y77.483 E3.88567
G1 X52.332 Y77.283 E3.89880
G1 X52.692 Y76.923 E3.92425
G1 X53.082 Y76.583 E3.95012
G1 X53.292 Y76.423 E3.96332
G1 X53.722 Y76.143 E3.98897
G1 X54.172 Y75.893 E4.01471
G1 X54.892 Y75.603 E4.05352
G1 X55.642 Y75.403 E4.09233
G1 X56.412 Y75.303 E4.13115
G1 X85.982 Y74.623 E5.60995
G1 X138.962 Y75.023 E8.25886
G1 X139.572 Y75.083 E8.28950
G1 X140.552 Y75.233 E8.33907
G1 X141.212 Y75.373 E8.37280
G1 X142.752 Y75.823 E8.45302
G1 X143.692 Y76.183 E8.50334
G1 X145.142 Y76.883 E8.58384
G1 X145.762 Y77.243 E8.61969
G1 X146.602 Y77.833 E8.67101
G1 X147.002 Y78.173 E8.69726
G1 X147.362 Y78.553 E8.72343
G1 X147.692 Y78.963 E8.74974
G1 X147.982 Y79.403 E8.77609
G1 X148.232 Y79.863 E8.80226
G1 X148.452 Y80.343 E8.82866
G1 X148.682 Y81.103 E8.86836
G1 X148.742 Y81.353 E8.88122
G1 X148.822 Y81.873 E8.90752
G1 X149.182 Y115.553 E10.59151
G1 X149.112 Y116.073 E10.61774
G1 X149.002 Y116.583 E10.64383
G1 X148.842 Y117.083 E10.67008
G1 X148.642 Y117.573 E10.69654
G1 X148.402 Y118.033 E10.72248
G1 X147.962 Y118.683 E10.76172
G1 X147.802 Y118.893 E10.77492
G1 X147.442 Y119.273 E10.80109
G1 X147.062 Y119.633 E10.82726
G1 X146.642 Y119.953 E10.85366
G1 X146.202 Y120.233 E10.87974
G1 X145.732 Y120.473 E10.90612
G1 X133.972 Y124.763 E11.53199
G1 X133.402 Y124.913 E11.56145
G1 X132.822 Y125.003 E11.59080
G1 X73.040 Y125.362 E14.57977
G1 F600.000 E14.07977
G92 E0
G1 X75.868 Y110.300 F7800.000
G1 F600.000 E0.50000
G1 X74.849 Y107.832 F1920.000 E0.63347
G1 X75.868 Y105.368 E0.76680
G1 X78.336 Y104.346 E0.90033
G1 X80.801 Y105.368 E1.03374
G1 X81.819 Y107.832 E1.16707
G1 X80.801 Y110.299 E1.30052
G1 X78.336 Y111.318 E1.43389
G1 X75.996 Y110.352 E1.56046
G1 F600.000 E1.06046
G92 E0
G1 X72.875 Y115.372 F7800.000
G1 F600.000 E0.50000
G1 X72.875 Y119.372 F1920.000 E0.69999
G1 X56.795 Y119.372 E1.50394
G1 X56.795 Y81.294 E3.40772
G1 X79.331 Y81.346 E4.53445
G1 X80.318 Y81.503 E4.58439
G1 X81.280 Y81.760 E4.63417
G1 X82.214 Y82.119 E4.68421
G1 X83.102 Y82.571 E4.73404
G1 X83.526 Y82.849 E4.75939
G1 X83.001 Y83.374 E4.79654
G1 X82.087 Y83.374 E4.84225
G1 X81.894 Y83.268 E4.85324
G1 X80.918 Y82.882 E4.90573
G1 X79.902 Y82.620 E4.95819
G1 X78.860 Y82.488 E5.01068
G1 X77.808 Y82.488 E5.06327
G1 X76.767 Y82.620 E5.11576
G1 X75.751 Y82.882 E5.16822
G1 X74.775 Y83.267 E5.22066
G1 X73.854 Y83.773 E5.27320
G1 X73.005 Y84.391 E5.32571
G1 X72.375 Y84.983 E5.36893
G1 X72.375 Y96.683 E5.95389
G1 X73.005 Y97.275 E5.99711
G1 X73.854 Y97.893 E6.04961
G1 X74.775 Y98.400 E6.10216
G1 X75.751 Y98.785 E6.15459
G1 X76.767 Y99.047 E6.20705
G1 X77.808 Y99.178 E6.25954
G1 X78.860 Y99.178 E6.31213
G1 X79.902 Y99.047 E6.36463
G1 X80.918 Y98.785 E6.41708
G1 X81.894 Y98.399 E6.46957
G1 X82.087 Y98.292 E6.48056
G1 X83.001 Y98.292 E6.52627
G1 X83.526 Y98.818 E6.56343
G1 X83.102 Y99.096 E6.58877
G1 X82.214 Y99.548 E6.63860
G1 X81.280 Y99.907 E6.68864
G1 X80.318 Y100.164 E6.73843
G1 X79.331 Y100.320 E6.78836
G1 X77.416 Y100.419 E6.88424
G1 X77.439 Y101.292 E6.92790
G1 X83.873 Y101.292 E7.24961
G1 X83.873 Y115.372 E7.95356
G1 X73.013 Y115.372 E8.49653
G1 X72.971 Y114.779 F7800.000
G1 X57.389 Y99.197 F3360.000 E9.61166
G1 X57.389 Y97.981 F7800.000
G1 X74.187 Y114.779 F3360.000 E10.81383
G1 X75.403 Y114.779 F7800.000
G1 X57.389 Y96.765 F3360.000 E12.10305
G1 X57.388 Y95.548 F7800.000
G1 X76.619 Y114.779 F3360.000 E13.47932
G1 X77.836 Y114.779 F7800.000
G1 X57.388 Y94.332 F3360.000 E14.94264
G1 X57.388 Y93.116 F7800.000
G1 X75.468 Y111.195 F3360.000 E16.23650
G1 X74.973 Y110.700 F7800.000
G1 X79.052 Y114.779 F3360.000 E16.52843
G1 X80.268 Y114.779 F7800.000
G1 X77.044 Y111.556 F3360.000 E16.75913
G1 X78.508 Y111.803 F7800.000
G1 X81.484 Y114.779 F3360.000 E16.97216
G1 X82.701 Y114.779 F7800.000
G1 X79.368 Y111.447 F3360.000 E17.21065
G1 X80.229 Y111.091 F7800.000
G1 X83.280 Y114.143 F3360.000 E17.42902
G1 X83.280 Y112.926 F7800.000
G1 X81.089 Y110.736 F3360.000 E17.58580
G1 X81.506 Y109.936 F7800.000
G1 X83.280 Y111.710 F3360.000 E17.71277
G1 X83.280 Y110.494 F7800.000
G1 X81.861 Y109.075 F3360.000 E17.81429
G1 X82.253 Y108.249 F7800.000
G1 X83.281 Y109.277 F3360.000 E17.88784
G1 X83.281 Y106.844 F7800.000
G1 X81.408 Y104.971 F3360.000 E18.02187
G1 X81.197 Y104.760 F7800.000
G1 X78.321 Y101.885 F3360.000 E18.22763
G1 X77.105 Y101.885 F7800.000
G1 X79.119 Y103.899 F3360.000 E18.37176
G1 X77.953 Y103.949 F7800.000
G1 X57.389 Y83.385 F3360.000 E19.84344
G1 X57.389 Y82.169 F7800.000
G1 X71.783 Y96.563 F3360.000 E20.87356
G1 X71.782 Y95.346 F7800.000
G1 X58.323 Y81.887 F3360.000 E21.83677
G1 X59.540 Y81.887 F7800.000
G1 X71.782 Y94.130 F3360.000 E22.71294
G1 X71.782 Y92.914 F7800.000
G1 X60.756 Y81.887 F3360.000 E23.50206
G1 X61.972 Y81.887 F7800.000
G1 X71.782 Y91.697 F3360.000 E24.20413
G1 X71.782 Y90.481 F7800.000
G1 X63.189 Y81.887 F3360.000 E24.81915
G1 X64.405 Y81.887 F7800.000
G1 X71.782 Y89.265 F3360.000 E25.34712
G1 X71.782 Y88.049 F7800.000
G1 X65.621 Y81.887 F3360.000 E25.78805
G1 X66.837 Y81.888 F7800.000
G1 X71.782 Y86.832 F3360.000 E26.14193
G1 X71.782 Y85.616 F7800.000
G1 X68.054 Y81.888 F3360.000 E26.40875
G1 X69.270 Y81.888 F7800.000
G1 X72.027 Y84.645 F3360.000 E26.60606
G1 X72.655 Y84.055 F7800.000
G1 X70.487 Y81.887 F3360.000 E26.76120
G1 X71.703 Y81.887 F7800.000
G1 X73.350 Y83.534 F3360.000 E26.87909
G1 X74.100 Y83.068 F7800.000
G1 X72.919 Y81.887 F3360.000 E26.96358
G1 F600.000 E26.46358
G92 E0
G1 X57.388 Y84.602 F7800.000
G1 F600.000 E0.50000
G1 X77.092 Y104.306 F3360.000 E1.91012
G1 X76.232 Y104.662 F7800.000
G1 X57.388 Y85.818 F3360.000 E3.25867
G1 X57.388 Y87.034 F7800.000
G1 X75.432 Y105.078 F3360.000 E4.55000
G1 X75.076 Y105.939 F7800.000
G1 X57.388 Y88.251 F3360.000 E5.81588
G1 X57.388 Y89.467 F7800.000
G1 X74.721 Y106.799 F3360.000 E7.05629
G1 X74.365 Y107.660 F7800.000
G1 X57.388 Y90.683 F3360.000 E8.27124
G1 X57.388 Y91.900 F7800.000
G1 X74.612 Y109.123 F3360.000 E9.50387
G1 X72.282 Y115.308 F7800.000
G1 X57.388 Y100.414 F3360.000 E10.56977
G1 X57.388 Y101.630 F7800.000
G1 X72.282 Y116.524 F3360.000 E11.63568
G1 X72.282 Y117.741 F7800.000
G1 X57.388 Y102.847 F3360.000 E12.70158
G1 X57.388 Y104.063 F7800.000
G1 X72.105 Y118.779 F3360.000 E13.75477
G1 X70.888 Y118.779 F7800.000
G1 X57.388 Y105.279 F3360.000 E14.72092
G1 X57.388 Y106.496 F7800.000
G1 X69.672 Y118.779 F3360.000 E15.60002
G1 X68.456 Y118.779 F7800.000
G1 X57.388 Y107.712 F3360.000 E16.39208
G1 X57.388 Y108.928 F7800.000
G1 X67.240 Y118.779 F3360.000 E17.09708
G1 X66.023 Y118.779 F7800.000
G1 X57.388 Y110.144 F3360.000 E17.71504
G1 X57.389 Y111.361 F7800.000
G1 X64.807 Y118.779 F3360.000 E18.24594
G1 X63.591 Y118.779 F7800.000
G1 X57.389 Y112.577 F3360.000 E18.68980
G1 X57.389 Y113.793 F7800.000
G1 X62.374 Y118.779 F3360.000 E19.04661
G1 X61.157 Y118.780 F7800.000
G1 X57.388 Y115.010 F3360.000 E19.31638
G1 X57.388 Y116.227 F7800.000
G1 X59.941 Y118.780 F3360.000 E19.49909
G1 X58.725 Y118.780 F7800.000
G1 X57.388 Y117.443 F3360.000 E19.59476
G1 F600.000 E19.09476
G92 E0
G1 X74.110 Y98.890 F7800.000
G1 F600.000 E0.50000
G1 X76.848 Y101.628 F3360.000 E0.69595
G1 X76.815 Y100.379 F7800.000
G1 X75.964 Y99.528 F3360.000 E0.75688
G1 X79.538 Y101.885 F7800.000
G1 X83.280 Y105.628 F3360.000 E1.02474
G1 X83.280 Y104.412 F7800.000
G1 X80.754 Y101.885 F3360.000 E1.20555
G1 X81.970 Y101.885 F7800.000
G1 X83.280 Y103.195 F3360.000 E1.29930
G1 F600.000 E0.79930
G92 E0
G1 X110.132 Y104.701 F7800.000
G1 F600.000 E0.50000
G1 X111.151 Y107.165 F1920.000 E0.63332
G1 X110.132 Y109.633 E0.76678
G1 X107.667 Y110.652 E0.90014
G1 X105.199 Y109.633 E1.03361
G1 X104.181 Y107.165 E1.16708
G1 X105.199 Y104.701 E1.30042
G1 X107.667 Y103.679 E1.43394
G1 X110.005 Y104.648 E1.56046
G1 F600.000 E1.06046
G92 E0
G1 X113.205 Y100.626 F7800.000
G1 F600.000 E0.50000
G1 X113.205 Y114.706 F1920.000 E1.20396
G1 X102.207 Y114.706 E1.75382
G1 X102.207 Y118.706 E1.95381
G1 X86.127 Y118.706 E2.75776
G1 X86.127 Y80.628 E4.66154
G1 X108.663 Y80.680 E5.78827
G1 X109.649 Y80.836 E5.83821
G1 X110.611 Y81.093 E5.88799
G1 X111.545 Y81.452 E5.93803
G1 X112.434 Y81.904 E5.98786
G1 X112.858 Y82.182 E6.01321
G1 X112.332 Y82.708 E6.05036
G1 X111.418 Y82.708 E6.09607
G1 X111.226 Y82.601 E6.10706
G1 X110.249 Y82.215 E6.15955
G1 X109.233 Y81.953 E6.21201
G1 X108.192 Y81.822 E6.26450
G1 X107.140 Y81.822 E6.31709
G1 X106.098 Y81.953 E6.36959
G1 X105.082 Y82.215 E6.42204
G1 X104.107 Y82.600 E6.47448
G1 X103.186 Y83.107 E6.52702
G1 X102.337 Y83.725 E6.57953
G1 X101.707 Y84.317 E6.62275
G1 X101.707 Y96.017 E7.20771
G1 X102.337 Y96.609 E7.25093
G1 X103.186 Y97.227 E7.30343
G1 X104.107 Y97.733 E7.35598
G1 X105.082 Y98.118 E7.40841
G1 X106.098 Y98.380 E7.46087
G1 X107.140 Y98.512 E7.51337
G1 X108.192 Y98.512 E7.56595
G1 X109.233 Y98.380 E7.61845
G1 X110.249 Y98.118 E7.67091
G1 X111.226 Y97.732 E7.72339
G1 X111.418 Y97.626 E7.73439
G1 X112.332 Y97.626 E7.78010
G1 X112.858 Y98.151 E7.81725
G1 X112.434 Y98.429 E7.84260
G1 X111.545 Y98.881 E7.89242
G1 X110.611 Y99.240 E7.94246
G1 X109.649 Y99.497 E7.99225
G1 X108.663 Y99.654 E8.04218
G1 X106.748 Y99.753 E8.13806
G1 X106.770 Y100.626 E8.18172
G1 X113.067 Y100.626 E8.49653
G1 X111.302 Y101.219 F7800.000
G1 X112.612 Y102.529 F3360.000 E8.59029
G1 X112.612 Y103.745 F7800.000
G1 X110.085 Y101.219 F3360.000 E8.77109
G1 X108.869 Y101.219 F7800.000
G1 X112.612 Y104.961 F3360.000 E9.03895
G1 X112.612 Y106.178 F7800.000
G1 X110.739 Y104.305 F3360.000 E9.17298
G1 X110.528 Y104.094 F7800.000
G1 X107.653 Y101.218 F3360.000 E9.37874
G1 X106.436 Y101.218 F7800.000
G1 X108.450 Y103.232 F3360.000 E9.52287
G1 X107.284 Y103.282 F7800.000
G1 X86.720 Y82.718 F3360.000 E10.99455
G1 X86.720 Y81.502 F7800.000
G1 X101.114 Y95.896 F3360.000 E12.02467
G1 X101.114 Y94.680 F7800.000
G1 X87.655 Y81.221 F3360.000 E12.98788
G1 X88.871 Y81.221 F7800.000
G1 X101.114 Y93.463 F3360.000 E13.86405
