; generated by Slic3r 0.7.3-dev on 2012-05-08 at 23:49:09

; layer_height = 0.4
; perimeters = 1
; solid_layers = 3
; fill_density = 0.25
; nozzle_diameter = 0.75
; filament_diameter = 3
; extrusion_multiplier = 1
; perimeter_speed = 40
; infill_speed = 50
; travel_speed = 130
; extrusion_width_ratio = 2.3
; scale = 1
; single wall width = 0.92mm

M104 S230 ; set temperature
M92 E380
G92 X0 Y0 Z0  E0.0
G1 Z2.0 F150.0
G1 X-250.0 F2100.0
G1 X-249.0 F300.0
G1 X-251.0 F100.0
G92 X3.0
G1 Y-250.0 F2100.0
G1 Y-249.0 F300.0
G1 Y-251.0 F300.0
G92 Y10.0
G1 Y70.0 F2100.0
G1 Z-250.0 F150.0
G1 Z-249.0 F50.0
G1 Z-251.0 F50.0
G1 Y75.0 E2.0  F1000.0
G1 Y100.0 E2.3  F1000.0
G92 Z0.3
G92 E0.0
M106 S70
M107
M109 S230 ; wait for temperature to be reached
G90 ; use absolute coordinates
G21 ; set units to millimeters
G92 E0 ; reset extrusion distance
M82 ; use absolute distances for extrusion
M107
G1 Z0.400 F7800.000
G1 X82.131 Y76.811
G1 F600.000 E0.50000
G1 X82.311 Y76.631 F1920.000 E0.51273
G1 X82.691 Y76.291 E0.53822
G1 X83.311 Y75.851 E0.57623
G1 X83.531 Y75.721 E0.58901
G1 X83.991 Y75.491 E0.61472
G1 X84.461 Y75.301 E0.64007
G1 X84.951 Y75.151 E0.66569
G1 X85.201 Y75.091 E0.67854
G1 X85.951 Y74.981 E0.71644
G1 X86.461 Y74.961 E0.74196
G1 X109.291 Y75.021 E1.88339
G1 X110.881 Y75.231 E1.96358
G1 X111.551 Y75.371 E1.99780
G1 X113.111 Y75.821 E2.07897
G1 X114.041 Y76.181 E2.12883
G1 X115.471 Y76.881 E2.20843
G1 X116.031 Y77.201 E2.24068
G1 X116.901 Y77.791 E2.29324
G1 X117.491 Y78.321 E2.33289
G1 X118.011 Y78.931 E2.37297
G1 X118.441 Y79.601 E2.41277
G1 X118.781 Y80.321 E2.45258
G1 X119.021 Y81.081 E2.49243
G1 X119.081 Y81.341 E2.50577
G1 X119.161 Y81.871 E2.53256
G1 X119.511 Y115.551 E4.21655
G1 X119.441 Y116.071 E4.24278
G1 X119.331 Y116.581 E4.26887
G1 X119.171 Y117.081 E4.29511
G1 X118.971 Y117.571 E4.32158
G1 X118.731 Y118.031 E4.34752
G1 X118.291 Y118.681 E4.38676
G1 X118.131 Y118.891 E4.39996
G1 X117.771 Y119.271 E4.42613
G1 X117.391 Y119.631 E4.45230
G1 X116.751 Y120.091 E4.49171
G1 X116.531 Y120.231 E4.50474
G1 X116.071 Y120.471 E4.53068
G1 X104.311 Y124.761 E5.15655
G1 X103.731 Y124.911 E5.18650
G1 X103.141 Y125.001 E5.21634
G1 X102.541 Y125.031 E5.24638
G1 X85.951 Y125.011 E6.07582
G1 X85.201 Y124.901 E6.11372
G1 X84.701 Y124.771 E6.13955
G1 X84.221 Y124.601 E6.16501
G1 X83.761 Y124.391 E6.19029
G1 X83.531 Y124.271 E6.20326
G1 X83.311 Y124.141 E6.21604
G1 X82.691 Y123.701 E6.25405
G1 X82.311 Y123.361 E6.27954
G1 X82.131 Y123.181 E6.29227
G1 X81.791 Y122.801 E6.31777
G1 X81.351 Y122.181 E6.35578
G1 X81.221 Y121.961 E6.36855
G1 X80.991 Y121.501 E6.39427
G1 X80.801 Y121.031 E6.41961
G1 X80.651 Y120.541 E6.44523
G1 X80.591 Y120.291 E6.45809
G1 X80.481 Y119.541 E6.49598
G1 X80.481 Y80.451 E8.45036
G1 X80.591 Y79.701 E8.48826
G1 X80.721 Y79.201 E8.51409
G1 X80.891 Y78.721 E8.53955
G1 X81.101 Y78.261 E8.56483
G1 X81.221 Y78.031 E8.57780
G1 X81.351 Y77.811 E8.59058
G1 X81.791 Y77.191 E8.62859
G1 X82.039 Y76.914 E8.64718
G1 F600.000 E8.14718
G92 E0
G1 X105.534 Y105.034 F7800.000
G1 F600.000 E0.50000
G1 X108.001 Y104.012 F1920.000 E0.63352
G1 X110.466 Y105.034 E0.76694
G1 X111.485 Y107.499 E0.90026
G1 X110.466 Y109.966 E1.03372
G1 X108.001 Y110.985 E1.16708
G1 X105.534 Y109.966 E1.30055
G1 X104.515 Y107.499 E1.43402
G1 X105.481 Y105.162 E1.56046
G1 F600.000 E1.06046
G92 E0
G1 X107.104 Y100.959 F7800.000
G1 F600.000 E0.50000
G1 X113.539 Y100.959 F1920.000 E0.82171
G1 X113.539 Y115.039 E1.52566
G1 X102.541 Y115.039 E2.07553
G1 X102.541 Y119.039 E2.27552
G1 X86.461 Y119.039 E3.07947
G1 X86.461 Y80.961 E4.98325
G1 X108.997 Y81.013 E6.10998
G1 X109.983 Y81.170 E6.15991
G1 X110.946 Y81.426 E6.20970
G1 X111.880 Y81.786 E6.25974
G1 X112.768 Y82.238 E6.30956
G1 X113.192 Y82.516 E6.33491
G1 X112.666 Y83.041 E6.37206
G1 X111.752 Y83.041 E6.41777
G1 X111.560 Y82.934 E6.42877
G1 X110.584 Y82.549 E6.48125
G1 X109.568 Y82.286 E6.53371
G1 X108.526 Y82.155 E6.58621
G1 X107.474 Y82.155 E6.63879
G1 X106.432 Y82.286 E6.69129
G1 X105.416 Y82.549 E6.74375
G1 X104.441 Y82.934 E6.79618
G1 X103.520 Y83.440 E6.84873
G1 X102.671 Y84.058 E6.90123
G1 X102.041 Y84.650 E6.94445
G1 X102.041 Y96.350 E7.52941
G1 X102.671 Y96.942 E7.57263
G1 X103.520 Y97.560 E7.62514
G1 X104.441 Y98.066 E7.67768
G1 X105.416 Y98.451 E7.73012
G1 X106.432 Y98.714 E7.78258
G1 X107.474 Y98.845 E7.83507
G1 X108.526 Y98.845 E7.88766
G1 X109.568 Y98.714 E7.94015
G1 X110.584 Y98.451 E7.99261
G1 X111.560 Y98.066 E8.04510
G1 X111.752 Y97.959 E8.05609
G1 X112.666 Y97.959 E8.10180
G1 X113.192 Y98.484 E8.13895
G1 X112.768 Y98.762 E8.16430
G1 X111.880 Y99.214 E8.21413
G1 X110.946 Y99.574 E8.26417
G1 X109.983 Y99.830 E8.31395
G1 X108.997 Y99.987 E8.36389
G1 X107.082 Y100.086 E8.45976
G1 X107.101 Y100.821 E8.49653
G1 X106.513 Y101.295 F7800.000
G1 X103.775 Y98.557 F1920.000 E8.69248
G1 X105.629 Y99.195 F7800.000
G1 X106.481 Y100.046 F1920.000 E8.75342
G1 X106.771 Y101.552 F7800.000
G1 X108.784 Y103.566 F1920.000 E8.89754
G1 X107.618 Y103.616 F7800.000
G1 X87.054 Y83.052 F1920.000 E10.36922
G1 X87.054 Y84.268 F7800.000
G1 X106.758 Y103.972 F1920.000 E11.77933
G1 X105.898 Y104.328 F7800.000
G1 X87.054 Y85.484 F1920.000 E13.12789
G1 X87.054 Y86.701 F7800.000
G1 X105.098 Y104.745 F1920.000 E14.41922
G1 X104.742 Y105.605 F7800.000
G1 X87.054 Y87.917 F1920.000 E15.68509
G1 X87.054 Y89.134 F7800.000
G1 X104.386 Y106.466 F1920.000 E16.92550
G1 X104.031 Y107.327 F7800.000
G1 X87.054 Y90.350 F1920.000 E18.14045
G1 X87.054 Y91.566 F7800.000
G1 X104.278 Y108.790 F1920.000 E19.37308
G1 X104.638 Y110.367 F7800.000
G1 X108.718 Y114.446 F1920.000 E19.66501
G1 X109.934 Y114.446 F7800.000
G1 X106.710 Y111.222 F1920.000 E19.89572
G1 X108.173 Y111.469 F7800.000
G1 X111.150 Y114.446 F1920.000 E20.10875
G1 X112.367 Y114.446 F7800.000
G1 X109.034 Y111.114 F1920.000 E20.34724
G1 X109.895 Y110.758 F7800.000
G1 X112.946 Y113.809 F1920.000 E20.56561
G1 X112.946 Y112.593 F7800.000
G1 X110.755 Y110.402 F1920.000 E20.72239
G1 X111.172 Y109.602 F7800.000
G1 X112.946 Y111.376 F1920.000 E20.84935
G1 X112.946 Y110.160 F7800.000
G1 X111.527 Y108.742 F1920.000 E20.95088
G1 X111.918 Y107.916 F7800.000
G1 X112.946 Y108.944 F1920.000 E21.02443
G1 X112.946 Y106.511 F7800.000
G1 X111.073 Y104.638 F1920.000 E21.15846
G1 X110.862 Y104.427 F7800.000
G1 X107.987 Y101.552 F1920.000 E21.36422
G1 X109.203 Y101.552 F7800.000
G1 X112.946 Y105.295 F1920.000 E21.63207
G1 X112.946 Y104.078 F7800.000
G1 X110.420 Y101.552 F1920.000 E21.81288
G1 X111.636 Y101.552 F7800.000
G1 X112.946 Y102.862 F1920.000 E21.90664
G1 F600.000 E21.40664
G92 E0
G1 X105.133 Y110.862 F7800.000
G1 F600.000 E0.50000
G1 X87.054 Y92.782 F1920.000 E1.79386
G1 X87.054 Y93.999 F7800.000
G1 X107.501 Y114.446 F1920.000 E3.25717
G1 X106.285 Y114.446 F7800.000
G1 X87.054 Y95.215 F1920.000 E4.63345
G1 X87.054 Y96.432 F7800.000
G1 X105.068 Y114.446 F1920.000 E5.92267
G1 X103.852 Y114.446 F7800.000
G1 X87.054 Y97.648 F1920.000 E7.12484
G1 X87.054 Y98.864 F7800.000
G1 X102.636 Y114.446 F1920.000 E8.23997
G1 X101.948 Y114.975 F7800.000
G1 X87.054 Y100.081 F1920.000 E9.30587
G1 X87.054 Y101.297 F7800.000
G1 X101.948 Y116.191 F1920.000 E10.37178
G1 X101.948 Y117.407 F7800.000
G1 X87.054 Y102.513 F1920.000 E11.43767
G1 X87.054 Y103.730 F7800.000
G1 X101.770 Y118.446 F1920.000 E12.49088
G1 X100.554 Y118.446 F7800.000
G1 X87.054 Y104.946 F1920.000 E13.45703
G1 X87.054 Y106.162 F7800.000
G1 X99.338 Y118.446 F1920.000 E14.33613
G1 X98.121 Y118.446 F7800.000
G1 X87.054 Y107.379 F1920.000 E15.12818
G1 X87.054 Y108.595 F7800.000
G1 X96.905 Y118.446 F1920.000 E15.83318
G1 X95.689 Y118.446 F7800.000
G1 X87.054 Y109.811 F1920.000 E16.45114
G1 X87.054 Y111.028 F7800.000
G1 X94.472 Y118.446 F1920.000 E16.98205
G1 X93.256 Y118.446 F7800.000
G1 X87.054 Y112.244 F1920.000 E17.42591
G1 X87.054 Y113.460 F7800.000
G1 X92.040 Y118.446 F1920.000 E17.78272
G1 X90.823 Y118.446 F7800.000
G1 X87.054 Y114.677 F1920.000 E18.05247
G1 X87.054 Y115.893 F7800.000
G1 X89.607 Y118.446 F1920.000 E18.23519
G1 X88.391 Y118.446 F7800.000
G1 X87.054 Y117.109 F1920.000 E18.33086
G1 F600.000 E17.83086
G92 E0
G1 X101.448 Y96.229 F7800.000
G1 F600.000 E0.50000
G1 X87.054 Y81.835 F1920.000 E1.53012
G1 X87.989 Y81.554 F7800.000
G1 X101.448 Y95.013 F1920.000 E2.49334
G1 X101.448 Y93.797 F7800.000
G1 X89.205 Y81.554 F1920.000 E3.36950
G1 X90.422 Y81.554 F7800.000
G1 X101.448 Y92.580 F1920.000 E4.15862
G1 X101.448 Y91.364 F7800.000
G1 X91.638 Y81.554 F1920.000 E4.86069
G1 X92.854 Y81.554 F7800.000
G1 X101.448 Y90.148 F1920.000 E5.47571
G1 X101.448 Y88.931 F7800.000
G1 X94.071 Y81.554 F1920.000 E6.00369
G1 X95.287 Y81.554 F7800.000
G1 X101.448 Y87.715 F1920.000 E6.44461
G1 X101.448 Y86.499 F7800.000
G1 X96.503 Y81.554 F1920.000 E6.79848
G1 X97.720 Y81.554 F7800.000
G1 X101.448 Y85.282 F1920.000 E7.06531
G1 X101.693 Y84.311 F7800.000
G1 X98.936 Y81.554 F1920.000 E7.26263
G1 X100.152 Y81.554 F7800.000
G1 X102.320 Y83.722 F1920.000 E7.41777
G1 X103.016 Y83.201 F7800.000
G1 X101.369 Y81.554 F1920.000 E7.53565
G1 X102.585 Y81.554 F7800.000
G1 X103.765 Y82.735 F1920.000 E7.62014
G1 F600.000 E7.12014
G92 E0
G1 Z0.800 F7800.000
G1 X108.001 Y104.012
G1 F600.000 E0.50000
G1 X110.466 Y105.034 F2400.000 E0.63342
G1 X111.485 Y107.499 E0.76674
G1 X110.466 Y109.966 E0.90020
G1 X108.001 Y110.985 E1.03356
G1 X105.534 Y109.966 E1.16703
G1 X104.515 Y107.499 E1.30050
G1 X105.534 Y105.034 E1.43383
G1 X107.874 Y104.065 E1.56046
G1 F600.000 E1.06046
G92 E0
G1 X107.104 Y100.959 F7800.000
G1 F600.000 E0.50000
G1 X113.539 Y100.959 F2400.000 E0.82171
G1 X113.539 Y115.039 E1.52566
G1 X102.541 Y115.039 E2.07553
G1 X102.541 Y119.039 E2.27552
G1 X86.461 Y119.039 E3.07947
G1 X86.461 Y80.961 E4.98325
G1 X108.997 Y81.013 E6.10998
G1 X109.983 Y81.170 E6.15991
G1 X110.940 Y81.425 E6.20939
G1 X111.880 Y81.786 E6.25975
G1 X112.768 Y82.238 E6.30956
G1 X113.192 Y82.516 E6.33491
G1 X112.666 Y83.041 E6.37206
G1 X111.752 Y83.041 E6.41777
G1 X111.560 Y82.934 E6.42877
G1 X110.584 Y82.549 E6.48125
G1 X109.568 Y82.286 E6.53371
G1 X108.526 Y82.155 E6.58621
G1 X107.474 Y82.155 E6.63879
G1 X106.432 Y82.286 E6.69129
G1 X105.416 Y82.549 E6.74375
G1 X104.441 Y82.934 E6.79618
G1 X103.520 Y83.440 E6.84873
G1 X102.671 Y84.058 E6.90123
G1 X102.041 Y84.650 E6.94445
G1 X102.041 Y96.350 E7.52941
G1 X102.671 Y96.942 E7.57263
G1 X103.520 Y97.560 E7.62513
G1 X104.441 Y98.066 E7.67768
G1 X105.416 Y98.451 E7.73012
G1 X106.432 Y98.714 E7.78257
G1 X107.474 Y98.845 E7.83507
G1 X108.526 Y98.845 E7.88765
G1 X109.568 Y98.714 E7.94015
G1 X110.584 Y98.451 E7.99261
G1 X111.560 Y98.066 E8.04510
G1 X111.752 Y97.959 E8.05609
G1 X112.666 Y97.959 E8.10180
G1 X113.192 Y98.484 E8.13895
G1 X112.768 Y98.762 E8.16430
G1 X111.880 Y99.214 E8.21412
G1 X110.940 Y99.575 E8.26448
G1 X109.983 Y99.830 E8.31395
G1 X108.997 Y99.987 E8.36389
G1 X107.082 Y100.086 E8.45976
G1 X107.101 Y100.821 E8.49653
G1 X106.525 Y101.232 F7800.000
G1 X89.311 Y118.446 F2400.000 E9.73352
G1 X88.092 Y118.446 F7800.000
G1 X106.494 Y100.043 F2400.000 E11.05594
G1 X106.128 Y99.189 F7800.000
G1 X87.054 Y118.264 F2400.000 E12.42666
G1 X87.054 Y117.044 F7800.000
G1 X105.184 Y98.914 F2400.000 E13.72951
G1 X104.313 Y98.566 F7800.000
G1 X87.054 Y115.825 F2400.000 E14.96972
G1 X87.054 Y114.605 F7800.000
G1 X103.525 Y98.133 F2400.000 E16.15336
G1 X102.799 Y97.641 F7800.000
G1 X87.054 Y113.385 F2400.000 E17.28477
G1 X87.054 Y112.165 F7800.000
G1 X102.125 Y97.095 F2400.000 E18.36777
G1 X101.496 Y96.504 F7800.000
G1 X87.054 Y110.946 F2400.000 E19.40558
G1 X87.054 Y109.727 F7800.000
G1 X101.448 Y95.333 F2400.000 E20.43994
G1 X101.448 Y94.113 F7800.000
G1 X87.054 Y108.507 F2400.000 E21.47429
G1 X87.054 Y107.287 F7800.000
G1 X101.448 Y92.893 F2400.000 E22.50865
G1 X101.448 Y91.673 F7800.000
G1 X87.054 Y106.067 F2400.000 E23.54300
G1 X87.054 Y104.848 F7800.000
G1 X101.448 Y90.454 F2400.000 E24.57736
G1 X101.448 Y89.234 F7800.000
G1 X87.054 Y103.628 F2400.000 E25.61171
G1 X87.054 Y102.408 F7800.000
G1 X101.448 Y88.014 F2400.000 E26.64607
G1 X101.448 Y86.795 F7800.000
G1 X87.054 Y101.189 F2400.000 E27.68043
G1 X87.054 Y99.969 F7800.000
G1 X101.448 Y85.575 F2400.000 E28.71479
G1 X101.448 Y84.356 F7800.000
G1 X87.054 Y98.750 F2400.000 E29.74915
G1 X87.054 Y97.530 F7800.000
G1 X103.030 Y81.554 F2400.000 E30.89717
G1 X101.810 Y81.554 F7800.000
G1 X87.054 Y96.310 F2400.000 E31.95756
G1 X87.054 Y95.090 F7800.000
G1 X100.590 Y81.554 F2400.000 E32.93030
G1 X99.371 Y81.554 F7800.000
G1 X87.054 Y93.871 F2400.000 E33.81540
G1 X87.054 Y92.652 F7800.000
G1 X98.152 Y81.554 F2400.000 E34.61285
G1 X96.931 Y81.554 F7800.000
G1 X87.054 Y91.431 F2400.000 E35.32266
G1 X87.054 Y90.212 F7800.000
G1 X95.712 Y81.554 F2400.000 E35.94482
G1 X94.492 Y81.554 F7800.000
G1 X87.054 Y88.992 F2400.000 E36.47934
G1 X87.054 Y87.773 F7800.000
G1 X93.273 Y81.554 F2400.000 E36.92622
G1 X92.053 Y81.554 F7800.000
G1 X87.054 Y86.553 F2400.000 E37.28545
G1 X87.054 Y85.333 F7800.000
G1 X90.833 Y81.554 F2400.000 E37.55703
G1 X89.614 Y81.554 F7800.000
G1 X87.054 Y84.114 F2400.000 E37.74098
G1 X87.054 Y82.894 F7800.000
G1 X88.394 Y81.554 F2400.000 E37.83728
G1 F600.000 E37.33728
G92 E0
G1 X102.854 Y82.950 F7800.000
G1 F600.000 E0.50000
G1 X104.250 Y81.554 F2400.000 E0.60028
G1 F600.000 E0.10028
G92 E0
G1 X107.425 Y101.552 F7800.000
G1 F600.000 E0.50000
G1 X90.531 Y118.446 F2400.000 E1.71401
G1 X91.750 Y118.446 F7800.000
G1 X104.482 Y105.714 F2400.000 E2.62889
G1 X103.947 Y107.469 F7800.000
G1 X92.970 Y118.446 F2400.000 E3.41770
G1 X94.190 Y118.446 F7800.000
G1 X104.304 Y108.332 F2400.000 E4.14449
G1 X104.660 Y109.195 F7800.000
G1 X95.409 Y118.446 F2400.000 E4.80923
G1 X96.629 Y118.446 F7800.000
G1 X105.016 Y110.059 F2400.000 E5.41196
G1 X105.703 Y110.592 F7800.000
G1 X101.849 Y114.446 F2400.000 E5.68894
G1 X101.948 Y114.347 F7800.000
G1 X97.849 Y118.446 F2400.000 E5.98352
G1 X99.068 Y118.446 F7800.000
G1 X101.948 Y115.566 F2400.000 E6.19045
G1 X101.948 Y116.786 F7800.000
G1 X100.288 Y118.446 F2400.000 E6.30973
G1 X103.068 Y114.446 F7800.000
G1 X106.566 Y110.948 F2400.000 E6.56110
G1 X107.430 Y111.304 F7800.000
G1 X104.288 Y114.446 F2400.000 E6.78685
G1 X105.508 Y114.446 F7800.000
G1 X108.337 Y111.617 F2400.000 E6.99014
G1 X110.416 Y110.758 F7800.000
G1 X106.727 Y114.446 F2400.000 E7.25519
G1 X107.947 Y114.446 F7800.000
G1 X112.946 Y109.447 F2400.000 E7.61442
G1 X112.946 Y110.667 F7800.000
G1 X109.167 Y114.446 F2400.000 E7.88601
G1 X110.386 Y114.446 F7800.000
G1 X112.946 Y111.886 F2400.000 E8.06996
G1 X112.946 Y113.106 F7800.000
G1 X111.606 Y114.446 F2400.000 E8.16625
G1 X111.257 Y109.916 F7800.000
G1 X112.946 Y108.227 F2400.000 E8.28760
G1 X112.115 Y107.839 F7800.000
G1 X112.946 Y107.008 F2400.000 E8.34731
G1 X111.805 Y106.929 F7800.000
G1 X112.946 Y105.788 F2400.000 E8.42930
G1 X112.946 Y104.568 F7800.000
G1 X111.448 Y106.066 F2400.000 E8.53693
G1 X111.092 Y105.203 F7800.000
G1 X112.946 Y103.349 F2400.000 E8.67019
G1 X112.946 Y102.129 F7800.000
G1 X110.558 Y104.517 F2400.000 E8.84178
G1 X109.696 Y104.159 F7800.000
G1 X112.303 Y101.552 F2400.000 E9.02915
G1 X111.084 Y101.552 F7800.000
G1 X108.834 Y103.802 F2400.000 E9.19084
G1 X107.972 Y103.445 F7800.000
G1 X109.864 Y101.552 F2400.000 E9.32685
G1 X108.644 Y101.552 F7800.000
G1 X106.215 Y103.981 F2400.000 E9.50139
G1 F600.000 E9.00139
G92 E0
G1 Z1.200 F7800.000
G1 X105.534 Y105.034
G1 F600.000 E0.50000
G1 X108.001 Y104.012 F2400.000 E0.63352
G1 X110.466 Y105.034 E0.76694
G1 X111.485 Y107.499 E0.90026
G1 X110.466 Y109.966 E1.03372
G1 X108.001 Y110.985 E1.16708
G1 X105.534 Y109.966 E1.30055
G1 X104.515 Y107.499 E1.43402
G1 X105.481 Y105.162 E1.56046
G1 F600.000 E1.06046
G92 E0
G1 X107.104 Y100.959 F7800.000
G1 F600.000 E0.50000
G1 X113.539 Y100.959 F2400.000 E0.82171
G1 X113.539 Y115.039 E1.52566
G1 X102.541 Y115.039 E2.07553
G1 X102.541 Y119.039 E2.27552
G1 X86.461 Y119.039 E3.07947
G1 X86.461 Y80.961 E4.98325
G1 X108.997 Y81.013 E6.10998
G1 X109.983 Y81.170 E6.15991
G1 X110.933 Y81.423 E6.20907
G1 X111.880 Y81.786 E6.25975
G1 X112.768 Y82.238 E6.30956
G1 X113.192 Y82.516 E6.33491
G1 X112.666 Y83.041 E6.37206
G1 X111.752 Y83.041 E6.41777
