; generated by Slic3r 0.7.3-dev on 2012-05-06 at 02:06:08

; layer_height = 0.4
; perimeters = 2
; solid_layers = 3
; fill_density = 0.25
; nozzle_diameter = 0.75
; filament_diameter = 3
; extrusion_multiplier = 1
; perimeter_speed = 50
; infill_speed = 80
; travel_speed = 130
; extrusion_width_ratio = 2.3
; scale = 1
; single wall width = 0.92mm

M104 S220 ; set temperature
M92 E380
G92 X0 Y0 Z0  E0.0
G1 Z2.0 F150.0
G1 X-250.0 F2100.0
G1 X-249.0 F300.0
G1 X-251.0 F100.0
G92 X3.0
G1 Y-250.0 F2100.0
G1 Y-249.0 F300.0
G1 Y-251.0 F300.0
G92 Y10.0
G1 Y70.0 F2100.0
G1 Z-250.0 F150.0
G1 Z-249.0 F50.0
G1 Z-251.0 F50.0
G1 Y75.0 E2.0  F1000.0
G1 Y100.0 E2.3  F1000.0
G92 Z0.3
G92 E0.0
M106 S70
M107
M109 S220 ; wait for temperature to be reached
G90 ; use absolute coordinates
G21 ; set units to millimeters
G92 E0 ; reset extrusion distance
M82 ; use absolute distances for extrusion
G1 Z0.400 F7800.000
G1 X83.130 Y57.310
G1 F600.000 E0.50000
G1 X83.310 Y57.130 F2400.000 E0.51273
G1 X83.690 Y56.790 E0.53822
G1 X84.310 Y56.350 E0.57623
G1 X84.530 Y56.220 E0.58901
G1 X84.990 Y55.990 E0.61472
G1 X85.460 Y55.800 E0.64007
G1 X85.950 Y55.650 E0.66569
G1 X86.200 Y55.590 E0.67854
G1 X86.950 Y55.480 E0.71644
G1 X87.460 Y55.460 E0.74196
G1 X113.050 Y55.480 E2.02138
G1 X113.800 Y55.590 E2.05928
G1 X114.300 Y55.720 E2.08511
G1 X114.780 Y55.890 E2.11057
G1 X115.240 Y56.100 E2.13585
G1 X115.470 Y56.220 E2.14882
G1 X115.690 Y56.350 E2.16159
G1 X116.310 Y56.790 E2.19961
G1 X116.690 Y57.130 E2.22510
G1 X116.870 Y57.310 E2.23783
G1 X117.210 Y57.690 E2.26332
G1 X117.650 Y58.310 E2.30133
G1 X117.780 Y58.530 E2.31411
G1 X118.010 Y58.990 E2.33982
G1 X118.200 Y59.460 E2.36517
G1 X118.350 Y59.950 E2.39079
G1 X118.410 Y60.200 E2.40364
G1 X118.520 Y60.950 E2.44154
G1 X118.180 Y94.350 E4.11152
G1 X118.160 Y94.610 E4.12456
G1 X118.030 Y95.370 E4.16311
G1 X107.310 Y140.180 E6.46669
G1 X107.150 Y140.680 E6.49293
G1 X106.940 Y141.150 E6.51867
G1 X106.700 Y141.610 E6.54461
G1 X106.560 Y141.830 E6.55765
G1 X106.260 Y142.250 E6.58345
G1 X106.100 Y142.450 E6.59626
G1 X105.550 Y143.000 E6.63515
G1 X105.360 Y143.170 E6.64790
G1 X104.730 Y143.620 E6.68660
G1 X104.510 Y143.760 E6.69964
G1 X104.050 Y143.990 E6.72535
G1 X103.570 Y144.190 E6.75135
G1 X103.070 Y144.340 E6.77745
G1 X102.570 Y144.450 E6.80305
G1 X102.060 Y144.520 E6.82879
G1 X101.540 Y144.540 E6.85480
G1 X86.950 Y144.520 E7.58426
G1 X86.200 Y144.410 E7.62216
G1 X85.700 Y144.280 E7.64799
G1 X85.220 Y144.110 E7.67345
G1 X84.760 Y143.900 E7.69873
G1 X84.530 Y143.780 E7.71170
G1 X84.310 Y143.650 E7.72447
G1 X83.690 Y143.210 E7.76248
G1 X83.310 Y142.870 E7.78798
G1 X83.130 Y142.690 E7.80071
G1 X82.790 Y142.310 E7.82620
G1 X82.350 Y141.690 E7.86421
G1 X82.220 Y141.470 E7.87699
G1 X81.990 Y141.010 E7.90270
G1 X81.800 Y140.540 E7.92804
G1 X81.650 Y140.050 E7.95367
G1 X81.590 Y139.800 E7.96652
G1 X81.480 Y139.050 E8.00442
G1 X81.480 Y60.950 E11.90917
G1 X81.590 Y60.200 E11.94707
G1 X81.720 Y59.700 E11.97290
G1 X81.890 Y59.220 E11.99836
G1 X82.100 Y58.760 E12.02364
G1 X82.220 Y58.530 E12.03661
G1 X82.350 Y58.310 E12.04939
G1 X82.790 Y57.690 E12.08740
G1 X83.038 Y57.413 E12.10599
G1 F600.000 E11.60599
G92 E0
G1 X103.882 Y65.882 F7800.000
G1 F600.000 E0.50000
G1 X107.000 Y64.590 F2400.000 E0.66875
G1 X110.118 Y65.882 E0.83751
G1 X111.410 Y69.000 E1.00626
G1 X110.118 Y72.118 E1.17501
G1 X107.000 Y73.410 E1.34377
G1 X103.882 Y72.118 E1.51252
G1 X102.590 Y69.000 E1.68127
G1 X103.829 Y66.009 E1.84312
G1 X104.535 Y66.535 F7800.000
G1 X107.000 Y65.514 F2400.000 E1.97654
G1 X109.465 Y66.535 E2.10995
G1 X110.486 Y69.000 E2.24336
G1 X109.465 Y71.465 E2.37678
G1 X107.000 Y72.486 E2.51019
G1 X104.535 Y71.465 E2.64360
G1 X103.514 Y69.000 E2.77702
G1 X104.482 Y66.662 E2.90353
G1 F600.000 E2.40353
G92 E0
G1 X105.273 Y74.687 F7800.000
G1 F600.000 E0.50000
G1 X105.213 Y76.963 F2400.000 E0.61384
G1 X104.152 Y77.235 E0.66859
G1 X103.076 Y77.661 E0.72646
G1 X102.062 Y78.219 E0.78432
G1 X101.126 Y78.899 E0.84218
G1 X100.187 Y79.781 E0.90658
G1 X100.187 Y92.219 E1.52847
G1 X101.126 Y93.101 E1.59286
G1 X102.062 Y93.781 E1.65072
G1 X103.076 Y94.339 E1.70858
G1 X103.955 Y94.687 E1.75585
G1 X100.687 Y94.687 E1.91926
G1 X100.687 Y137.687 E4.06912
G1 X88.313 Y137.687 E4.68776
G1 X88.313 Y62.313 E8.45620
G1 X111.687 Y62.313 E9.62480
G1 X111.687 Y74.687 E10.24344
G1 X105.411 Y74.687 E10.55723
G1 X106.104 Y75.540 F7800.000
G1 X106.081 Y76.412 F2400.000 E10.60086
G1 X107.997 Y76.513 E10.69680
G1 X108.983 Y76.669 E10.74672
G1 X109.948 Y76.928 E10.79664
G1 X110.880 Y77.285 E10.84657
G1 X111.769 Y77.738 E10.89643
G1 X112.192 Y78.016 E10.92172
G1 X111.667 Y78.540 E10.95880
G1 X110.751 Y78.540 E11.00460
G1 X110.560 Y78.435 E11.01551
G1 X109.584 Y78.048 E11.06801
G1 X108.567 Y77.787 E11.12050
G1 X107.525 Y77.656 E11.17300
G1 X106.475 Y77.656 E11.22549
G1 X105.433 Y77.787 E11.27799
G1 X104.416 Y78.048 E11.33048
G1 X103.440 Y78.435 E11.38298
G1 X102.520 Y78.941 E11.43548
G1 X101.671 Y79.558 E11.48797
G1 X101.040 Y80.150 E11.53122
G1 X101.040 Y91.850 E12.11619
G1 X101.671 Y92.442 E12.15943
G1 X102.520 Y93.059 E12.21193
G1 X103.440 Y93.565 E12.26442
G1 X104.416 Y93.952 E12.31692
G1 X105.433 Y94.213 E12.36942
G1 X106.475 Y94.344 E12.42191
G1 X107.525 Y94.344 E12.47441
G1 X108.567 Y94.213 E12.52690
G1 X109.584 Y93.952 E12.57940
G1 X110.560 Y93.565 E12.63189
G1 X110.751 Y93.460 E12.64281
G1 X111.667 Y93.460 E12.68861
G1 X112.192 Y93.984 E12.72568
G1 X111.769 Y94.262 E12.75097
G1 X110.880 Y94.715 E12.80084
G1 X109.948 Y95.072 E12.85076
G1 X108.983 Y95.331 E12.90068
G1 X107.997 Y95.487 E12.95061
G1 X106.988 Y95.540 E13.00113
G1 X101.540 Y95.540 E13.27351
G1 X101.540 Y138.540 E15.42338
G1 X87.460 Y138.540 E16.12733
G1 X87.460 Y61.460 E19.98109
G1 X112.540 Y61.460 E21.23501
G1 X112.540 Y75.540 E21.93897
G1 X106.242 Y75.540 E22.25386
G1 X104.671 Y75.242 F7800.000
G1 X92.336 Y62.906 F1920.000 E23.13070
G1 X91.125 Y62.906 F7800.000
G1 X104.641 Y76.422 F1920.000 E24.09142
G1 X103.820 Y76.812 F7800.000
G1 X89.914 Y62.906 F1920.000 E25.07988
G1 X88.906 Y63.110 F7800.000
G1 X102.954 Y77.158 F1920.000 E26.07846
G1 X102.173 Y77.587 F7800.000
G1 X88.906 Y64.320 F1920.000 E27.02149
G1 X88.906 Y65.531 F7800.000
G1 X101.440 Y78.065 F1920.000 E27.91243
G1 X100.750 Y78.586 F7800.000
G1 X88.906 Y66.742 F1920.000 E28.75430
G1 X88.906 Y67.953 F7800.000
G1 X100.125 Y79.173 F1920.000 E29.55179
G1 X99.594 Y79.851 F7800.000
G1 X88.906 Y69.164 F1920.000 E30.31147
G1 X88.906 Y70.375 F7800.000
G1 X99.594 Y81.062 F1920.000 E31.07116
G1 X99.594 Y82.273 F7800.000
G1 X88.906 Y71.585 F1920.000 E31.83084
G1 X88.907 Y72.796 F7800.000
G1 X99.594 Y83.484 F1920.000 E32.59052
G1 X99.593 Y84.695 F7800.000
G1 X88.906 Y74.008 F1920.000 E33.35021
G1 X88.906 Y75.218 F7800.000
G1 X99.594 Y85.906 F1920.000 E34.10989
G1 X99.594 Y87.117 F7800.000
G1 X88.906 Y76.429 F1920.000 E34.86957
G1 X88.906 Y77.640 F7800.000
G1 X99.594 Y88.327 F1920.000 E35.62925
G1 X99.593 Y89.539 F7800.000
G1 X88.906 Y78.851 F1920.000 E36.38894
G1 X88.906 Y80.062 F7800.000
G1 X99.594 Y90.749 F1920.000 E37.14862
G1 X99.594 Y91.960 F7800.000
G1 X88.906 Y81.273 F1920.000 E37.90830
G1 X88.906 Y82.483 F7800.000
G1 X100.449 Y94.026 F1920.000 E38.72876
G1 X100.094 Y94.882 F7800.000
G1 X88.907 Y83.694 F1920.000 E39.52398
G1 X88.906 Y84.905 F7800.000
G1 X100.094 Y96.093 F1920.000 E40.31921
G1 X100.094 Y97.304 F7800.000
G1 X88.906 Y86.116 F1920.000 E41.11443
G1 X88.906 Y87.327 F7800.000
G1 X100.094 Y98.514 F1920.000 E41.90965
G1 X100.094 Y99.725 F7800.000
G1 X88.906 Y88.538 F1920.000 E42.70487
G1 X88.906 Y89.749 F7800.000
G1 X100.093 Y100.937 F1920.000 E43.50010
G1 X100.094 Y102.147 F7800.000
G1 X88.906 Y90.960 F1920.000 E44.29532
G1 X88.906 Y92.171 F7800.000
G1 X100.094 Y103.358 F1920.000 E45.09054
G1 X100.094 Y104.569 F7800.000
G1 X88.906 Y93.381 F1920.000 E45.88576
G1 X88.907 Y94.592 F7800.000
G1 X100.094 Y105.780 F1920.000 E46.68099
G1 X100.094 Y106.991 F7800.000
G1 X88.906 Y95.803 F1920.000 E47.47621
G1 X88.906 Y97.014 F7800.000
G1 X100.094 Y108.202 F1920.000 E48.27143
G1 X100.094 Y109.412 F7800.000
G1 X88.906 Y98.225 F1920.000 E49.06666
G1 X88.906 Y99.436 F7800.000
G1 X100.094 Y110.623 F1920.000 E49.86188
G1 X100.093 Y111.835 F7800.000
G1 X88.906 Y100.647 F1920.000 E50.65710
G1 X88.906 Y101.858 F7800.000
G1 X100.094 Y113.045 F1920.000 E51.45233
G1 X100.094 Y114.256 F7800.000
G1 X88.906 Y103.069 F1920.000 E52.24755
G1 X88.906 Y104.279 F7800.000
G1 X100.094 Y115.467 F1920.000 E53.04277
G1 X100.094 Y116.677 F7800.000
G1 X88.907 Y105.490 F1920.000 E53.83800
G1 X88.906 Y106.701 F7800.000
G1 X100.094 Y117.889 F1920.000 E54.63322
G1 X100.094 Y119.100 F7800.000
G1 X88.906 Y107.912 F1920.000 E55.42844
G1 X88.906 Y109.123 F7800.000
G1 X100.094 Y120.310 F1920.000 E56.22367
G1 X100.094 Y121.521 F7800.000
G1 X88.907 Y110.334 F1920.000 E57.01889
G1 X88.906 Y111.545 F7800.000
G1 X100.093 Y122.733 F1920.000 E57.81411
G1 X100.094 Y123.943 F7800.000
G1 X88.906 Y112.756 F1920.000 E58.60933
G1 X88.906 Y113.966 F7800.000
G1 X100.094 Y125.154 F1920.000 E59.40456
G1 X100.094 Y126.365 F7800.000
G1 X88.906 Y115.177 F1920.000 E60.19978
G1 X88.906 Y116.389 F7800.000
G1 X100.093 Y127.576 F1920.000 E60.99499
G1 X100.093 Y128.787 F7800.000
G1 X88.906 Y117.599 F1920.000 E61.79019
G1 X88.906 Y118.810 F7800.000
G1 X100.094 Y129.998 F1920.000 E62.58544
G1 X100.094 Y131.208 F7800.000
G1 X88.906 Y120.021 F1920.000 E63.38066
G1 X88.907 Y121.232 F7800.000
G1 X100.094 Y132.419 F1920.000 E64.17588
G1 X100.093 Y133.630 F7800.000
G1 X88.906 Y122.443 F1920.000 E64.97109
G1 X88.906 Y123.654 F7800.000
G1 X100.094 Y134.842 F1920.000 E65.76633
G1 X100.094 Y136.052 F7800.000
G1 X88.906 Y124.864 F1920.000 E66.56156
G1 X88.906 Y126.075 F7800.000
G1 X99.925 Y137.094 F1920.000 E67.34477
G1 X98.714 Y137.094 F7800.000
G1 X88.906 Y127.287 F1920.000 E68.04192
G1 X88.906 Y128.497 F7800.000
G1 X97.502 Y137.094 F1920.000 E68.65296
G1 X96.292 Y137.094 F7800.000
G1 X88.906 Y129.708 F1920.000 E69.17794
G1 X88.906 Y130.919 F7800.000
G1 X95.081 Y137.094 F1920.000 E69.61686
G1 X93.871 Y137.094 F7800.000
G1 X88.907 Y132.129 F1920.000 E69.96972
G1 X88.906 Y133.341 F7800.000
G1 X92.659 Y137.094 F1920.000 E70.23652
G1 X91.448 Y137.094 F7800.000
G1 X88.906 Y134.552 F1920.000 E70.41721
G1 X88.906 Y135.762 F7800.000
G1 X90.238 Y137.094 F1920.000 E70.51185
G1 F600.000 E70.01185
G92 E0
G1 X104.702 Y74.062 F7800.000
G1 F600.000 E0.50000
G1 X103.281 Y72.641 F1920.000 E0.60103
G1 X103.359 Y72.719 F7800.000
G1 X93.547 Y62.906 F1920.000 E1.29852
G1 X94.758 Y62.906 F7800.000
G1 X102.503 Y70.651 F1920.000 E1.84908
G1 X102.043 Y68.980 F7800.000
G1 X95.969 Y62.906 F1920.000 E2.28084
G1 X97.179 Y62.906 F7800.000
G1 X102.397 Y68.124 F1920.000 E2.65174
G1 X102.752 Y67.268 F7800.000
G1 X98.390 Y62.906 F1920.000 E2.96177
G1 X99.601 Y62.907 F7800.000
G1 X103.106 Y66.412 F1920.000 E3.21095
G1 X103.461 Y65.555 F7800.000
G1 X100.812 Y62.906 F1920.000 E3.39926
G1 X102.023 Y62.906 F7800.000
G1 X104.279 Y65.162 F1920.000 E3.55959
G1 X105.135 Y64.807 F7800.000
G1 X103.234 Y62.906 F1920.000 E3.69470
G1 X104.444 Y62.906 F7800.000
G1 X105.991 Y64.453 F1920.000 E3.80461
G1 X106.847 Y64.097 F7800.000
G1 X105.656 Y62.906 F1920.000 E3.88931
G1 F600.000 E3.38931
G92 E0
G1 X109.819 Y72.798 F7800.000
G1 F600.000 E0.50000
G1 X111.094 Y74.073 F1920.000 E0.63707
G1 X111.094 Y65.459 F7800.000
G1 X108.541 Y62.907 F1920.000 E0.81958
G1 X107.326 Y62.906 F7800.000
G1 X109.115 Y64.695 F1920.000 E0.94749
G1 X109.757 Y62.906 F7800.000
G1 X111.094 Y64.243 F1920.000 E1.04305
M104 S230 ; set temperature
G1 F600.000 E0.54305
G92 E0
G1 Z0.800 F7800.000
G1 X110.118 Y65.882
G1 F600.000 E0.50000
G1 X111.410 Y69.000 F3000.000 E0.66875
G1 X110.118 Y72.118 E0.83751
G1 X107.000 Y73.410 E1.00626
G1 X103.882 Y72.118 E1.17501
G1 X102.590 Y69.000 E1.34376
G1 X103.882 Y65.882 E1.51252
G1 X107.000 Y64.590 E1.68127
G1 X109.991 Y65.829 E1.84312
G1 X109.465 Y66.535 F7800.000
G1 X110.486 Y69.000 F3000.000 E1.97654
G1 X109.465 Y71.465 E2.10995
G1 X107.000 Y72.486 E2.24336
G1 X104.535 Y71.465 E2.37678
G1 X103.514 Y69.000 E2.51019
G1 X104.535 Y66.535 E2.64360
G1 X107.000 Y65.514 E2.77701
G1 X109.338 Y66.482 E2.90353
G1 F600.000 E2.40353
G92 E0
G1 X111.687 Y62.313 F7800.000
G1 F600.000 E0.50000
G1 X111.687 Y74.687 F3000.000 E1.11864
G1 X105.273 Y74.687 E1.43933
G1 X105.213 Y76.963 E1.55316
G1 X104.152 Y77.235 E1.60792
G1 X103.076 Y77.661 E1.66578
G1 X102.062 Y78.219 E1.72365
G1 X101.126 Y78.899 E1.78151
G1 X100.187 Y79.781 E1.84590
G1 X100.187 Y92.219 E2.46779
G1 X101.126 Y93.101 E2.53218
G1 X102.062 Y93.781 E2.59005
G1 X103.076 Y94.339 E2.64791
G1 X103.955 Y94.687 E2.69518
G1 X100.687 Y94.687 E2.85858
G1 X100.687 Y137.687 E5.00845
G1 X88.313 Y137.687 E5.62708
G1 X88.313 Y62.313 E9.39552
G1 X111.549 Y62.313 E10.55723
G1 X112.540 Y61.460 F7800.000
G1 X112.540 Y75.540 F3000.000 E11.26118
G1 X106.104 Y75.540 E11.58297
G1 X106.081 Y76.412 E11.62661
G1 X107.997 Y76.513 E11.72255
G1 X108.983 Y76.669 E11.77247
G1 X109.948 Y76.928 E11.82239
G1 X110.880 Y77.285 E11.87231
G1 X111.769 Y77.738 E11.92218
G1 X112.192 Y78.016 E11.94747
G1 X111.667 Y78.540 E11.98454
G1 X110.751 Y78.540 E12.03035
G1 X110.560 Y78.435 E12.04126
G1 X109.584 Y78.048 E12.09376
G1 X108.567 Y77.787 E12.14625
G1 X107.525 Y77.656 E12.19875
G1 X106.475 Y77.656 E12.25124
G1 X105.433 Y77.787 E12.30374
G1 X104.416 Y78.048 E12.35623
G1 X103.440 Y78.435 E12.40873
G1 X102.520 Y78.941 E12.46122
G1 X101.671 Y79.558 E12.51372
G1 X101.040 Y80.150 E12.55697
G1 X101.040 Y91.850 E13.14193
G1 X101.671 Y92.442 E13.18518
G1 X102.520 Y93.059 E13.23768
G1 X103.440 Y93.565 E13.29017
G1 X104.416 Y93.952 E13.34267
G1 X105.433 Y94.213 E13.39516
G1 X106.475 Y94.344 E13.44766
G1 X107.525 Y94.344 E13.50015
G1 X108.567 Y94.213 E13.55265
G1 X109.584 Y93.952 E13.60514
G1 X110.560 Y93.565 E13.65764
G1 X110.751 Y93.460 E13.66855
G1 X111.667 Y93.460 E13.71436
G1 X112.192 Y93.984 E13.75143
G1 X111.769 Y94.262 E13.77672
G1 X110.880 Y94.715 E13.82659
G1 X109.948 Y95.072 E13.87651
G1 X108.983 Y95.331 E13.92643
G1 X107.997 Y95.487 E13.97635
G1 X106.988 Y95.540 E14.02688
G1 X101.540 Y95.540 E14.29926
G1 X101.540 Y138.540 E16.44913
G1 X87.460 Y138.540 E17.15308
G1 X87.460 Y61.460 E21.00684
G1 X112.402 Y61.460 E22.25386
G1 X110.918 Y62.906 F7800.000
G1 X108.973 Y64.851 F2400.000 E22.39305
G1 X109.833 Y65.208 F7800.000
G1 X111.094 Y63.947 F2400.000 E22.48327
G1 X109.702 Y62.906 F7800.000
G1 X108.113 Y64.496 F2400.000 E22.59701
G1 X107.253 Y64.139 F7800.000
G1 X108.486 Y62.906 F2400.000 E22.68525
G1 X107.270 Y62.906 F7800.000
G1 X105.902 Y64.274 F2400.000 E22.78310
G1 X106.053 Y62.906 F7800.000
G1 X103.826 Y65.134 F2400.000 E22.94248
G1 X103.133 Y65.826 F7800.000
G1 X88.906 Y80.053 F2400.000 E23.96048
G1 X88.906 Y78.837 F7800.000
G1 X104.837 Y62.906 F2400.000 E25.10041
G1 X103.621 Y62.906 F7800.000
G1 X88.906 Y77.621 F2400.000 E26.15332
G1 X88.906 Y76.405 F7800.000
G1 X102.405 Y62.906 F2400.000 E27.11920
G1 X101.189 Y62.906 F7800.000
G1 X88.906 Y75.189 F2400.000 E27.99806
G1 X88.906 Y73.972 F7800.000
G1 X99.972 Y62.906 F2400.000 E28.78989
G1 X98.756 Y62.906 F7800.000
G1 X88.906 Y72.756 F2400.000 E29.49470
G1 X88.906 Y71.540 F7800.000
G1 X97.540 Y62.906 F2400.000 E30.11248
G1 X96.324 Y62.906 F7800.000
G1 X88.906 Y70.324 F2400.000 E30.64324
G1 X88.906 Y69.107 F7800.000
G1 X95.107 Y62.906 F2400.000 E31.08697
G1 X93.891 Y62.906 F7800.000
G1 X88.906 Y67.891 F2400.000 E31.44367
G1 X88.906 Y66.675 F7800.000
G1 X92.675 Y62.906 F2400.000 E31.71335
G1 X91.459 Y62.906 F7800.000
G1 X88.906 Y65.459 F2400.000 E31.89600
G1 X88.906 Y64.243 F7800.000
G1 X90.243 Y62.906 F2400.000 E31.99163
G1 F600.000 E31.49163
G92 E0
G1 X102.273 Y67.903 F7800.000
G1 F600.000 E0.50000
G1 X88.906 Y81.270 F2400.000 E1.45647
G1 X88.906 Y82.486 F7800.000
G1 X102.139 Y69.253 F2400.000 E2.40333
G1 X102.495 Y70.113 F7800.000
G1 X88.906 Y83.702 F2400.000 E3.37569
G1 X88.906 Y84.918 F7800.000
G1 X102.852 Y70.973 F2400.000 E4.37355
G1 X103.208 Y71.833 F7800.000
G1 X88.906 Y86.135 F2400.000 E5.39691
G1 X88.906 Y87.351 F7800.000
G1 X103.671 Y72.586 F2400.000 E6.45336
