; generated by Slic3r 0.7.3-dev on 2012-05-09 at 13:20:57

; layer_height = 0.4
; perimeters = 3
; solid_layers = 3
; fill_density = 0.4
; nozzle_diameter = 0.5
; filament_diameter = 3
; extrusion_multiplier = 1
; perimeter_speed = 40
; infill_speed = 80
; travel_speed = 130
; extrusion_width_ratio = 0
; scale = 1
; single wall width = 0.53mm

M104 S200 ; set temperature
G28 ; home all axes
M109 S200 ; wait for temperature to be reached
G90 ; use absolute coordinates
G21 ; set units to millimeters
G92 E0 ; reset extrusion distance
M82 ; use absolute distances for extrusion
G1 Z0.400 F7800.000
G1 X55.599 Y57.110
G1 F1800.000 E1.00000
G1 X55.779 Y56.930 F720.000 E1.00749
G1 X56.159 Y56.590 E1.02248
G1 X56.779 Y56.150 E1.04483
G1 X56.999 Y56.020 E1.05235
G1 X57.459 Y55.790 E1.06747
G1 X57.929 Y55.600 E1.08238
G1 X58.419 Y55.450 E1.09745
G1 X58.669 Y55.390 E1.10501
G1 X59.419 Y55.280 E1.12730
G1 X59.929 Y55.260 E1.14231
G1 X140.579 Y55.280 E3.51385
G1 X141.329 Y55.390 E3.53614
G1 X141.829 Y55.520 E3.55133
G1 X142.309 Y55.690 E3.56630
G1 X142.769 Y55.900 E3.58117
G1 X142.999 Y56.020 E3.58880
G1 X143.219 Y56.150 E3.59631
G1 X143.839 Y56.590 E3.61867
G1 X144.219 Y56.930 E3.63366
G1 X144.399 Y57.110 E3.64115
G1 X144.739 Y57.490 E3.65614
G1 X145.179 Y58.110 E3.67850
G1 X145.309 Y58.330 E3.68601
G1 X145.539 Y58.790 E3.70113
G1 X145.729 Y59.260 E3.71604
G1 X145.879 Y59.750 E3.73111
G1 X145.939 Y60.000 E3.73867
G1 X146.049 Y60.750 E3.76096
G1 X145.819 Y94.360 E4.74930
G1 X145.769 Y94.890 E4.76495
G1 X134.839 Y140.380 E6.14067
G1 X134.579 Y141.110 E6.16346
G1 X134.349 Y141.580 E6.17884
G1 X134.089 Y142.020 E6.19387
G1 X133.789 Y142.440 E6.20905
G1 X133.269 Y143.020 E6.23195
G1 X132.679 Y143.520 E6.25469
G1 X132.259 Y143.810 E6.26970
G1 X131.809 Y144.070 E6.28499
G1 X131.339 Y144.290 E6.30024
G1 X130.849 Y144.460 E6.31550
G1 X130.349 Y144.590 E6.33069
G1 X129.839 Y144.680 E6.34592
G1 X129.589 Y144.710 E6.35332
G1 X129.069 Y144.730 E6.36862
G1 X59.419 Y144.710 E8.41670
G1 X58.669 Y144.600 E8.43899
G1 X58.169 Y144.470 E8.45418
G1 X57.689 Y144.300 E8.46916
G1 X57.229 Y144.090 E8.48403
G1 X56.999 Y143.970 E8.49166
G1 X56.779 Y143.840 E8.49917
G1 X56.159 Y143.400 E8.52153
G1 X55.779 Y143.060 E8.53652
G1 X55.599 Y142.880 E8.54400
G1 X55.259 Y142.500 E8.55900
G1 X54.819 Y141.880 E8.58135
G1 X54.689 Y141.660 E8.58887
G1 X54.459 Y141.200 E8.60399
G1 X54.269 Y140.730 E8.61890
G1 X54.119 Y140.240 E8.63397
G1 X54.059 Y139.990 E8.64153
G1 X53.949 Y139.240 E8.66382
G1 X53.949 Y60.750 E10.97184
G1 X54.059 Y60.000 E10.99413
G1 X54.189 Y59.500 E11.00932
G1 X54.359 Y59.020 E11.02430
G1 X54.569 Y58.560 E11.03917
G1 X54.689 Y58.330 E11.04679
G1 X54.819 Y58.110 E11.05431
G1 X55.259 Y57.490 E11.07666
G1 X55.546 Y57.169 E11.08934
G1 F1800.000 E10.08934
G92 E0
G1 X130.186 Y69.002 F7800.000
G1 F1800.000 E1.00000
G1 X131.398 Y66.067 F720.000 E1.09339
G1 X134.334 Y64.855 E1.18677
G1 X137.267 Y66.067 E1.28010
G1 X138.479 Y69.002 E1.37347
G1 X137.267 Y71.934 E1.46676
G1 X134.334 Y73.150 E1.56012
G1 X131.398 Y71.934 E1.65354
G1 X130.216 Y69.075 E1.74452
G1 X130.744 Y69.002 F7800.000
G1 X131.793 Y66.461 F720.000 E1.82536
G1 X134.334 Y65.412 E1.90619
G1 X136.872 Y66.462 E1.98696
G1 X137.921 Y69.002 E2.06779
G1 X136.872 Y71.540 E2.14854
G1 X134.334 Y72.592 E2.22934
G1 X131.793 Y71.540 E2.31021
G1 X130.774 Y69.075 E2.38865
G1 X131.301 Y69.002 F7800.000
G1 X132.187 Y66.856 F720.000 E2.45693
G1 X134.333 Y65.970 E2.52521
G1 X136.478 Y66.856 E2.59343
G1 X137.364 Y69.002 E2.66170
G1 X136.478 Y71.146 E2.72991
G1 X134.333 Y72.035 E2.79816
G1 X132.187 Y71.146 E2.86647
G1 X131.331 Y69.075 E2.93237
G1 F1800.000 E1.93237
G92 E0
G1 X132.818 Y74.709 F7800.000
G1 F1800.000 E1.00000
G1 X132.760 Y76.948 F720.000 E1.06587
G1 X132.608 Y76.968 E1.07037
G1 X131.491 Y77.256 E1.10430
G1 X130.418 Y77.680 E1.13820
G1 X129.405 Y78.236 E1.17221
G1 X128.471 Y78.916 E1.20618
G1 X127.540 Y79.791 E1.24372
G1 X127.540 Y92.211 E1.60895
G1 X128.471 Y93.086 E1.64649
G1 X129.405 Y93.766 E1.68046
G1 X130.418 Y94.322 E1.71447
G1 X131.393 Y94.707 E1.74527
G1 X128.040 Y94.707 E1.84385
G1 X128.040 Y137.707 E3.10828
G1 X115.626 Y137.707 E3.47332
G1 X115.626 Y62.295 E5.69085
G1 X139.038 Y62.295 E6.37929
G1 X139.038 Y74.709 E6.74434
G1 X132.896 Y74.709 E6.92495
G1 X133.320 Y75.224 F7800.000
G1 X133.281 Y76.726 F720.000 E6.96913
G1 X135.296 Y76.831 E7.02847
G1 X136.250 Y76.982 E7.05686
G1 X137.183 Y77.231 E7.08525
G1 X138.082 Y77.577 E7.11360
G1 X138.941 Y78.014 E7.14192
G1 X139.023 Y78.068 E7.14483
G1 X138.867 Y78.224 E7.15133
G1 X138.167 Y78.224 E7.17192
G1 X138.028 Y78.147 E7.17658
G1 X137.014 Y77.747 E7.20864
G1 X135.960 Y77.475 E7.24066
G1 X134.878 Y77.338 E7.27272
G1 X133.787 Y77.338 E7.30482
G1 X132.705 Y77.475 E7.33688
G1 X131.650 Y77.747 E7.36890
G1 X130.638 Y78.147 E7.40091
G1 X129.682 Y78.672 E7.43300
G1 X128.800 Y79.314 E7.46506
G1 X128.056 Y80.014 E7.49510
G1 X128.056 Y91.988 E7.84722
G1 X128.800 Y92.688 E7.87727
G1 X129.682 Y93.330 E7.90932
G1 X130.638 Y93.855 E7.94141
G1 X131.650 Y94.255 E7.97342
G1 X132.705 Y94.527 E8.00545
G1 X133.787 Y94.664 E8.03750
G1 X134.878 Y94.664 E8.06960
G1 X135.960 Y94.527 E8.10166
G1 X137.014 Y94.255 E8.13369
G1 X138.028 Y93.855 E8.16575
G1 X138.167 Y93.778 E8.17040
G1 X138.867 Y93.778 E8.19100
G1 X139.023 Y93.934 E8.19750
G1 X138.941 Y93.988 E8.20041
G1 X138.082 Y94.425 E8.22872
G1 X137.183 Y94.771 E8.25707
G1 X136.250 Y95.020 E8.28547
G1 X135.296 Y95.171 E8.31386
G1 X134.313 Y95.222 E8.34280
G1 X128.556 Y95.222 E8.51210
G1 X128.556 Y138.222 E9.77653
G1 X115.111 Y138.222 E10.17187
G1 X115.111 Y61.780 E12.41970
G1 X139.554 Y61.780 E13.13844
G1 X139.554 Y75.224 E13.53378
G1 X133.398 Y75.224 E13.71478
G1 X133.822 Y75.739 F7800.000
G1 X133.809 Y76.238 F720.000 E13.72943
G1 X135.350 Y76.317 E13.77481
G1 X136.357 Y76.477 E13.80479
G1 X137.342 Y76.740 E13.83477
G1 X138.292 Y77.106 E13.86472
G1 X139.199 Y77.567 E13.89464
G1 X139.836 Y77.985 E13.91701
G1 X139.081 Y78.739 E13.94841
G1 X138.033 Y78.739 E13.97920
G1 X137.808 Y78.614 E13.98679
G1 X136.855 Y78.238 E14.01692
G1 X135.863 Y77.982 E14.04705
G1 X134.846 Y77.854 E14.07719
G1 X133.819 Y77.854 E14.10738
G1 X132.802 Y77.982 E14.13752
G1 X131.810 Y78.238 E14.16765
G1 X130.857 Y78.614 E14.19776
G1 X129.958 Y79.108 E14.22793
G1 X129.130 Y79.711 E14.25808
G1 X128.571 Y80.236 E14.28062
G1 X128.571 Y91.766 E14.61964
G1 X129.130 Y92.291 E14.64218
G1 X129.958 Y92.894 E14.67233
G1 X130.857 Y93.388 E14.70250
G1 X131.810 Y93.764 E14.73261
G1 X132.802 Y94.020 E14.76273
G1 X133.819 Y94.149 E14.79287
G1 X134.846 Y94.149 E14.82307
G1 X135.863 Y94.020 E14.85321
G1 X136.855 Y93.764 E14.88334
G1 X137.808 Y93.388 E14.91347
G1 X138.033 Y93.263 E14.92106
G1 X139.081 Y93.263 E14.95185
G1 X139.836 Y94.017 E14.98325
G1 X139.199 Y94.435 E15.00561
G1 X138.292 Y94.896 E15.03554
G1 X137.342 Y95.262 E15.06548
G1 X136.357 Y95.525 E15.09547
G1 X135.350 Y95.685 E15.12545
G1 X134.327 Y95.738 E15.15558
G1 X129.071 Y95.738 E15.31013
G1 X129.071 Y138.738 E16.57456
G1 X114.596 Y138.738 E17.00020
G1 X114.596 Y61.264 E19.27832
G1 X140.069 Y61.264 E20.02736
G1 X140.069 Y75.739 E20.45300
G1 X133.900 Y75.739 E20.63438
G1 F1800.000 E19.63438
G92 E0
G1 X111.145 Y69.000 F7800.000
G1 F1800.000 E1.00000
G1 X109.933 Y71.932 F720.000 E1.09328
G1 X107.000 Y73.148 E1.18664
G1 X104.065 Y71.932 E1.28007
G1 X102.853 Y69.000 E1.37337
G1 X104.065 Y66.065 E1.46675
G1 X107.000 Y64.853 E1.56014
G1 X109.933 Y66.065 E1.65346
G1 X111.115 Y68.928 E1.74452
G1 X110.588 Y69.000 F7800.000
G1 X109.539 Y71.538 F720.000 E1.82527
G1 X107.000 Y72.590 E1.90607
G1 X104.459 Y71.538 E1.98694
G1 X103.410 Y69.000 E2.06770
G1 X104.459 Y66.459 E2.14853
G1 X107.000 Y65.410 E2.22936
G1 X109.539 Y66.460 E2.31013
G1 X110.558 Y68.927 E2.38865
G1 X110.030 Y69.000 F7800.000
G1 X109.144 Y71.144 F720.000 E2.45685
G1 X107.000 Y72.033 E2.52510
G1 X104.854 Y71.144 E2.59341
G1 X103.968 Y69.000 E2.66163
G1 X104.854 Y66.854 E2.72991
G1 X107.000 Y65.968 E2.79819
G1 X109.144 Y66.854 E2.86641
G1 X110.000 Y68.927 E2.93237
G1 F1800.000 E1.93237
G92 E0
G1 X111.705 Y74.707 F7800.000
G1 F1800.000 E1.00000
G1 X105.484 Y74.707 F720.000 E1.18293
G1 X105.426 Y76.946 E1.24880
G1 X105.275 Y76.966 E1.25330
G1 X104.157 Y77.254 E1.28722
G1 X103.085 Y77.678 E1.32112
G1 X102.071 Y78.234 E1.35514
G1 X101.138 Y78.914 E1.38910
G1 X100.207 Y79.789 E1.42665
G1 X100.207 Y92.209 E1.79188
G1 X101.138 Y93.084 E1.82942
G1 X102.071 Y93.764 E1.86339
G1 X103.085 Y94.321 E1.89740
G1 X104.059 Y94.705 E1.92820
G1 X100.707 Y94.705 E2.02677
G1 X100.707 Y137.705 E3.29120
G1 X88.293 Y137.705 E3.65625
G1 X88.293 Y62.293 E5.87377
G1 X111.705 Y62.293 E6.56222
G1 X111.705 Y74.628 E6.92495
G1 X112.220 Y75.222 F7800.000
G1 X105.986 Y75.222 F720.000 E7.10826
G1 X105.948 Y76.724 E7.15244
G1 X107.963 Y76.829 E7.21178
G1 X108.916 Y76.980 E7.24017
G1 X109.849 Y77.229 E7.26856
G1 X110.749 Y77.575 E7.29692
G1 X111.607 Y78.012 E7.32523
G1 X111.690 Y78.066 E7.32814
G1 X111.534 Y78.222 E7.33464
G1 X110.834 Y78.222 E7.35523
G1 X110.695 Y78.145 E7.35989
G1 X109.681 Y77.745 E7.39195
G1 X108.626 Y77.473 E7.42397
G1 X107.545 Y77.336 E7.45603
G1 X106.453 Y77.336 E7.48813
G1 X105.372 Y77.473 E7.52019
G1 X104.317 Y77.745 E7.55221
G1 X103.305 Y78.145 E7.58422
G1 X102.348 Y78.670 E7.61631
G1 X101.467 Y79.312 E7.64837
G1 X100.722 Y80.012 E7.67841
G1 X100.722 Y91.986 E8.03053
G1 X101.467 Y92.686 E8.06058
G1 X102.348 Y93.328 E8.09264
G1 X103.305 Y93.853 E8.12473
G1 X104.317 Y94.253 E8.15673
G1 X105.372 Y94.525 E8.18876
G1 X106.453 Y94.662 E8.22082
G1 X107.545 Y94.662 E8.25291
G1 X108.626 Y94.525 E8.28497
G1 X109.681 Y94.253 E8.31700
G1 X110.695 Y93.853 E8.34906
G1 X110.834 Y93.776 E8.35372
G1 X111.534 Y93.776 E8.37431
G1 X111.690 Y93.932 E8.38081
G1 X111.607 Y93.986 E8.38372
G1 X110.749 Y94.423 E8.41203
G1 X109.849 Y94.769 E8.44039
G1 X108.916 Y95.018 E8.46878
G1 X107.963 Y95.169 E8.49717
G1 X106.980 Y95.220 E8.52611
G1 X101.222 Y95.220 E8.69541
G1 X101.222 Y138.220 E9.95984
G1 X87.778 Y138.220 E10.35519
G1 X87.778 Y61.778 E12.60301
G1 X112.220 Y61.778 E13.32175
G1 X112.220 Y75.144 E13.71478
G1 X112.736 Y75.738 F7800.000
G1 X106.488 Y75.738 F720.000 E13.89848
G1 X106.476 Y76.236 E13.91313
G1 X108.017 Y76.315 E13.95851
G1 X109.023 Y76.475 E13.98849
G1 X110.009 Y76.738 E14.01847
G1 X110.959 Y77.104 E14.04842
G1 X111.866 Y77.565 E14.07834
G1 X112.502 Y77.983 E14.10071
G1 X111.747 Y78.738 E14.13210
G1 X110.700 Y78.738 E14.16290
G1 X110.474 Y78.612 E14.17049
G1 X109.521 Y78.236 E14.20062
G1 X108.529 Y77.980 E14.23074
G1 X107.512 Y77.852 E14.26088
G1 X106.486 Y77.852 E14.29108
G1 X105.469 Y77.980 E14.32122
G1 X104.477 Y78.236 E14.35135
G1 X103.524 Y78.612 E14.38146
G1 X102.625 Y79.106 E14.41163
G1 X101.796 Y79.709 E14.44177
G1 X101.238 Y80.234 E14.46432
G1 X101.238 Y91.764 E14.80333
G1 X101.796 Y92.289 E14.82588
G1 X102.625 Y92.892 E14.85603
G1 X103.524 Y93.386 E14.88619
G1 X104.477 Y93.762 E14.91631
G1 X105.469 Y94.018 E14.94643
G1 X106.486 Y94.147 E14.97657
G1 X107.512 Y94.147 E15.00677
G1 X108.529 Y94.018 E15.03691
G1 X109.521 Y93.762 E15.06703
G1 X110.474 Y93.386 E15.09717
G1 X110.700 Y93.261 E15.10475
G1 X111.747 Y93.261 E15.13555
G1 X112.502 Y94.015 E15.16694
G1 X111.866 Y94.433 E15.18931
G1 X110.959 Y94.894 E15.21924
G1 X110.009 Y95.260 E15.24918
G1 X109.023 Y95.523 E15.27917
G1 X108.017 Y95.683 E15.30914
G1 X106.993 Y95.736 E15.33928
G1 X101.738 Y95.736 E15.49382
G1 X101.737 Y138.736 E16.75825
G1 X87.262 Y138.736 E17.18389
G1 X87.263 Y61.263 E19.46201
G1 X112.736 Y61.263 E20.21106
G1 X112.736 Y75.659 E20.63438
G1 F1800.000 E19.63438
G92 E0
G1 X83.814 Y69.000 F7800.000
G1 F1800.000 E1.00000
G1 X82.602 Y71.932 F720.000 E1.09328
G1 X79.669 Y73.148 E1.18664
G1 X76.734 Y71.932 E1.28007
G1 X75.521 Y69.000 E1.37337
G1 X76.734 Y66.065 E1.46675
G1 X79.669 Y64.853 E1.56014
G1 X82.602 Y66.065 E1.65346
G1 X83.784 Y68.928 E1.74452
G1 X83.256 Y69.000 F7800.000
G1 X82.207 Y71.538 F720.000 E1.82527
G1 X79.669 Y72.590 E1.90607
G1 X77.128 Y71.538 E1.98694
G1 X76.079 Y69.000 E2.06770
G1 X77.128 Y66.459 E2.14853
G1 X79.669 Y65.410 E2.22936
G1 X82.207 Y66.460 E2.31013
G1 X83.226 Y68.927 E2.38865
G1 X82.699 Y69.000 F7800.000
G1 X81.813 Y71.144 F720.000 E2.45685
G1 X79.669 Y72.033 E2.52510
G1 X77.523 Y71.144 E2.59341
G1 X76.636 Y69.000 E2.66163
G1 X77.523 Y66.854 E2.72991
G1 X79.669 Y65.968 E2.79819
G1 X81.813 Y66.854 E2.86641
G1 X82.669 Y68.927 E2.93237
G1 F1800.000 E1.93237
G92 E0
G1 X84.374 Y74.707 F7800.000
G1 F1800.000 E1.00000
G1 X78.153 Y74.707 F720.000 E1.18293
G1 X78.095 Y76.946 E1.24879
G1 X77.943 Y76.966 E1.25330
G1 X76.826 Y77.254 E1.28722
G1 X75.754 Y77.678 E1.32112
G1 X74.740 Y78.234 E1.35514
G1 X73.806 Y78.914 E1.38910
G1 X72.876 Y79.789 E1.42665
G1 X72.876 Y92.209 E1.79188
G1 X73.806 Y93.084 E1.82942
G1 X74.740 Y93.764 E1.86339
G1 X75.754 Y94.321 E1.89740
G1 X76.728 Y94.705 E1.92820
G1 X73.376 Y94.705 E2.02678
G1 X73.376 Y137.705 E3.29120
G1 X60.962 Y137.705 E3.65625
G1 X60.962 Y62.293 E5.87377
G1 X84.374 Y62.293 E6.56222
G1 X84.374 Y74.628 E6.92495
G1 X84.889 Y75.222 F7800.000
G1 X78.655 Y75.222 F720.000 E7.10826
G1 X78.616 Y76.724 E7.15244
G1 X80.631 Y76.829 E7.21178
G1 X81.585 Y76.980 E7.24017
G1 X82.518 Y77.229 E7.26856
G1 X83.418 Y77.575 E7.29692
G1 X84.276 Y78.012 E7.32523
G1 X84.359 Y78.066 E7.32814
G1 X84.203 Y78.222 E7.33464
G1 X83.502 Y78.222 E7.35523
G1 X83.364 Y78.145 E7.35989
G1 X82.350 Y77.745 E7.39195
G1 X81.295 Y77.473 E7.42397
G1 X80.213 Y77.336 E7.45603
G1 X79.122 Y77.336 E7.48813
G1 X78.040 Y77.473 E7.52019
G1 X76.986 Y77.745 E7.55221
G1 X75.973 Y78.145 E7.58422
G1 X75.017 Y78.670 E7.61631
G1 X74.136 Y79.312 E7.64837
G1 X73.391 Y80.012 E7.67841
G1 X73.391 Y91.986 E8.03053
G1 X74.136 Y92.686 E8.06058
G1 X75.017 Y93.328 E8.09264
G1 X75.973 Y93.853 E8.12473
G1 X76.986 Y94.253 E8.15673
G1 X78.040 Y94.525 E8.18876
G1 X79.122 Y94.662 E8.22082
G1 X80.213 Y94.662 E8.25291
G1 X81.295 Y94.525 E8.28497
G1 X82.350 Y94.253 E8.31700
G1 X83.364 Y93.853 E8.34906
G1 X83.502 Y93.776 E8.35372
G1 X84.203 Y93.776 E8.37431
G1 X84.359 Y93.932 E8.38081
G1 X84.276 Y93.986 E8.38372
G1 X83.418 Y94.423 E8.41203
G1 X82.518 Y94.769 E8.44039
G1 X81.585 Y95.018 E8.46878
G1 X80.631 Y95.169 E8.49717
G1 X79.649 Y95.220 E8.52611
G1 X73.891 Y95.220 E8.69541
G1 X73.891 Y138.220 E9.95984
G1 X60.446 Y138.220 E10.35519
G1 X60.446 Y61.778 E12.60301
G1 X84.889 Y61.778 E13.32175
G1 X84.889 Y75.144 E13.71478
G1 X85.404 Y75.738 F7800.000
G1 X79.157 Y75.738 F720.000 E13.89848
G1 X79.144 Y76.236 E13.91313
G1 X80.685 Y76.315 E13.95851
G1 X81.692 Y76.475 E13.98849
G1 X82.677 Y76.738 E14.01847
G1 X83.628 Y77.104 E14.04842
G1 X84.535 Y77.565 E14.07834
G1 X85.171 Y77.983 E14.10071
G1 X84.416 Y78.738 E14.13210
G1 X83.369 Y78.738 E14.16290
G1 X83.143 Y78.612 E14.17049
G1 X82.190 Y78.236 E14.20062
G1 X81.198 Y77.980 E14.23074
G1 X80.181 Y77.852 E14.26088
G1 X79.154 Y77.852 E14.29108
G1 X78.137 Y77.980 E14.32122
G1 X77.145 Y78.236 E14.35135
G1 X76.193 Y78.612 E14.38146
G1 X75.294 Y79.106 E14.41163
G1 X74.465 Y79.709 E14.44177
G1 X73.906 Y80.234 E14.46432
G1 X73.906 Y91.764 E14.80333
G1 X74.465 Y92.289 E14.82588
G1 X75.294 Y92.892 E14.85603
G1 X76.193 Y93.386 E14.88619
G1 X77.145 Y93.762 E14.91631
G1 X78.137 Y94.018 E14.94643
G1 X79.154 Y94.147 E14.97657
G1 X80.181 Y94.147 E15.00677
G1 X81.198 Y94.018 E15.03691
G1 X82.190 Y93.762 E15.06703
G1 X83.143 Y93.386 E15.09717
G1 X83.369 Y93.261 E15.10475
G1 X84.416 Y93.261 E15.13555
G1 X85.171 Y94.015 E15.16694
G1 X84.535 Y94.433 E15.18931
G1 X83.628 Y94.894 E15.21924
G1 X82.677 Y95.260 E15.24918
G1 X81.692 Y95.523 E15.27917
G1 X80.685 Y95.683 E15.30915
G1 X79.662 Y95.736 E15.33928
G1 X74.406 Y95.736 E15.49382
G1 X74.406 Y138.736 E16.75825
G1 X59.931 Y138.736 E17.18389
G1 X59.931 Y61.263 E19.46201
G1 X85.404 Y61.263 E20.21106
G1 X85.404 Y75.659 E20.63438
G1 F1800.000 E19.63438
G92 E0
G1 X115.993 Y75.824 F7800.000
G1 F1800.000 E1.00000
G1 X127.174 Y87.005 F1440.000 E1.46992
G1 X127.174 Y87.739 F7800.000
G1 X115.993 Y76.557 F1440.000 E1.93986
G1 X115.993 Y77.291 F7800.000
G1 X127.174 Y88.472 F1440.000 E2.40977
G1 X127.174 Y89.206 F7800.000
