; generated by Slic3r 0.7.3-dev on 2012-05-09 at 01:01:44

; layer_height = 0.4
; perimeters = 1
; solid_layers = 3
; fill_density = 0.25
; nozzle_diameter = 0.75
; filament_diameter = 3
; extrusion_multiplier = 1
; perimeter_speed = 40
; infill_speed = 50
; travel_speed = 130
; extrusion_width_ratio = 2.3
; scale = 1
; single wall width = 0.92mm

M104 S230 ; set temperature
M92 E380
G92 X0 Y0 Z0  E0.0
G1 Z2.0 F150.0
G1 X-250.0 F2100.0
G1 X-249.0 F300.0
G1 X-251.0 F100.0
G92 X3.0
G1 Y-250.0 F2100.0
G1 Y-249.0 F300.0
G1 Y-251.0 F300.0
G92 Y10.0
G1 Y70.0 F2100.0
G1 Z-250.0 F150.0
G1 Z-249.0 F50.0
G1 Z-251.0 F50.0
G1 Y75.0 E2.0  F1000.0
G1 Y100.0 E2.3  F1000.0
G92 Z0.3
G92 E0.0
M106 S70
M107
M109 S230 ; wait for temperature to be reached
G90 ; use absolute coordinates
G21 ; set units to millimeters
G92 E0 ; reset extrusion distance
M82 ; use absolute distances for extrusion
M107
G1 Z0.400 F7800.000
G1 X82.131 Y55.311
G1 F600.000 E0.50000
G1 X82.311 Y55.131 F1920.000 E0.51273
G1 X82.691 Y54.791 E0.53822
G1 X83.311 Y54.351 E0.57623
G1 X83.531 Y54.221 E0.58901
G1 X83.991 Y53.991 E0.61472
G1 X84.461 Y53.801 E0.64007
G1 X84.951 Y53.651 E0.66569
G1 X85.201 Y53.591 E0.67854
G1 X85.951 Y53.481 E0.71644
G1 X86.461 Y53.461 E0.74196
G1 X102.841 Y53.471 E1.56091
G1 X103.141 Y53.491 E1.57594
G1 X103.731 Y53.581 E1.60578
G1 X104.311 Y53.731 E1.63573
G1 X116.071 Y58.021 E2.26159
G1 X116.531 Y58.261 E2.28754
G1 X117.181 Y58.701 E2.32678
G1 X117.391 Y58.861 E2.33998
G1 X117.771 Y59.221 E2.36615
G1 X118.131 Y59.601 E2.39232
G1 X118.591 Y60.241 E2.43173
G1 X118.731 Y60.461 E2.44476
G1 X118.971 Y60.921 E2.47070
G1 X119.171 Y61.411 E2.49716
G1 X119.331 Y61.911 E2.52341
G1 X119.441 Y62.421 E2.54950
G1 X119.511 Y62.941 E2.57573
G1 X119.181 Y96.381 E4.24771
G1 X119.061 Y97.231 E4.29063
G1 X108.181 Y131.921 E6.10832
G1 X107.991 Y132.391 E6.13367
G1 X107.761 Y132.841 E6.15893
G1 X107.631 Y133.061 E6.17171
G1 X107.351 Y133.471 E6.19653
G1 X107.021 Y133.871 E6.22246
G1 X106.491 Y134.401 E6.25993
G1 X106.091 Y134.721 E6.28554
G1 X105.671 Y135.001 E6.31078
G1 X105.451 Y135.131 E6.32356
G1 X104.771 Y135.451 E6.36113
G1 X104.291 Y135.621 E6.38659
G1 X103.801 Y135.751 E6.41194
G1 X103.051 Y135.861 E6.44983
G1 X102.541 Y135.881 E6.47535
G1 X85.951 Y135.861 E7.30480
G1 X85.201 Y135.751 E7.34270
G1 X84.701 Y135.621 E7.36853
G1 X84.221 Y135.451 E7.39399
G1 X83.761 Y135.241 E7.41927
G1 X83.531 Y135.121 E7.43224
G1 X83.311 Y134.991 E7.44502
G1 X82.691 Y134.551 E7.48303
G1 X82.311 Y134.211 E7.50852
G1 X82.131 Y134.031 E7.52125
G1 X81.791 Y133.651 E7.54674
G1 X81.351 Y133.031 E7.58475
G1 X81.221 Y132.811 E7.59753
G1 X80.991 Y132.351 E7.62324
G1 X80.801 Y131.881 E7.64859
G1 X80.651 Y131.391 E7.67421
G1 X80.591 Y131.141 E7.68706
G1 X80.481 Y130.391 E7.72496
G1 X80.481 Y58.951 E11.29674
G1 X80.591 Y58.201 E11.33464
G1 X80.721 Y57.701 E11.36047
G1 X80.891 Y57.221 E11.38593
G1 X81.101 Y56.761 E11.41121
G1 X81.221 Y56.531 E11.42418
G1 X81.351 Y56.311 E11.43695
G1 X81.791 Y55.691 E11.47497
G1 X82.039 Y55.414 E11.49356
G1 F600.000 E10.99356
G92 E0
G1 X105.534 Y68.534 F7800.000
G1 F600.000 E0.50000
G1 X108.001 Y67.515 F1920.000 E0.63347
G1 X110.466 Y68.534 E0.76683
G1 X111.485 Y71.001 E0.90029
G1 X110.466 Y73.466 E1.03361
G1 X108.001 Y74.487 E1.16703
G1 X106.079 Y73.691 E1.27106
G1 X106.079 Y73.691 E1.27106
G1 X105.534 Y73.466 E1.30055
G1 X104.515 Y71.001 E1.43389
G1 X105.481 Y68.661 E1.56046
G1 F600.000 E1.06046
G92 E0
G1 X102.541 Y63.461 F7800.000
G1 F600.000 E0.50000
G1 X113.539 Y63.461 F1920.000 E1.04987
G1 X113.539 Y77.541 E1.75382
G1 X107.104 Y77.541 E2.07553
G1 X107.082 Y78.414 E2.11919
G1 X108.997 Y78.513 E2.21507
G1 X109.983 Y78.670 E2.26501
G1 X110.949 Y78.927 E2.31495
G1 X111.880 Y79.286 E2.36483
G1 X112.768 Y79.738 E2.41466
G1 X113.192 Y80.016 E2.44001
G1 X112.666 Y80.541 E2.47716
G1 X111.752 Y80.541 E2.52287
G1 X111.560 Y80.434 E2.53386
G1 X110.584 Y80.049 E2.58635
G1 X109.568 Y79.786 E2.63881
G1 X108.526 Y79.655 E2.69130
G1 X107.474 Y79.655 E2.74389
G1 X106.432 Y79.786 E2.79638
G1 X105.416 Y80.049 E2.84884
G1 X104.441 Y80.434 E2.90128
G1 X103.520 Y80.940 E2.95382
G1 X102.671 Y81.558 E3.00633
G1 X102.041 Y82.150 E3.04955
G1 X102.041 Y93.850 E3.63451
G1 X102.671 Y94.442 E3.67773
G1 X103.520 Y95.060 E3.73023
G1 X104.441 Y95.566 E3.78278
G1 X105.416 Y95.951 E3.83521
G1 X106.432 Y96.214 E3.88767
G1 X107.474 Y96.345 E3.94017
G1 X108.526 Y96.345 E3.99275
G1 X109.568 Y96.214 E4.04525
G1 X110.584 Y95.951 E4.09770
G1 X111.560 Y95.566 E4.15019
G1 X111.752 Y95.459 E4.16118
G1 X112.666 Y95.459 E4.20690
G1 X113.192 Y95.984 E4.24405
G1 X112.768 Y96.262 E4.26939
G1 X111.880 Y96.714 E4.31922
G1 X110.949 Y97.073 E4.36910
G1 X109.983 Y97.330 E4.41905
G1 X108.997 Y97.487 E4.46898
G1 X107.989 Y97.539 E4.51944
G1 X102.541 Y97.539 E4.79183
G1 X102.541 Y129.889 E6.40925
G1 X86.461 Y129.889 E7.21320
G1 X86.461 Y59.461 E10.73440
G1 X102.541 Y59.461 E11.53835
G1 X102.541 Y63.323 E11.73143
G1 X101.948 Y62.872 F7800.000
G1 X99.130 Y60.054 F1920.000 E11.93198
G1 X100.342 Y60.054 F7800.000
G1 X101.948 Y61.660 F1920.000 E12.04627
G1 X101.918 Y64.054 F7800.000
G1 X105.752 Y67.888 F1920.000 E12.31915
G1 X105.039 Y68.387 F7800.000
G1 X96.706 Y60.054 F1920.000 E12.91221
G1 X97.918 Y60.054 F7800.000
G1 X101.948 Y64.084 F1920.000 E13.19901
G1 X103.130 Y64.054 F7800.000
G1 X106.610 Y67.534 F1920.000 E13.44669
G1 X107.468 Y67.180 F7800.000
G1 X104.342 Y64.054 F1920.000 E13.66915
G1 X105.554 Y64.054 F7800.000
G1 X108.416 Y66.916 F1920.000 E13.87282
G1 X110.482 Y67.770 F7800.000
G1 X106.766 Y64.054 F1920.000 E14.13728
G1 X107.978 Y64.054 F7800.000
G1 X112.946 Y69.022 F1920.000 E14.49087
G1 X112.946 Y70.234 F7800.000
G1 X111.230 Y68.518 F1920.000 E14.61300
G1 X112.946 Y67.810 F7800.000
G1 X109.190 Y64.054 F1920.000 E14.88033
G1 X110.402 Y64.054 F7800.000
G1 X112.946 Y66.598 F1920.000 E15.06141
G1 X112.946 Y65.386 F7800.000
G1 X111.614 Y64.054 F1920.000 E15.15624
G1 X111.821 Y71.533 F7800.000
G1 X112.946 Y72.658 F1920.000 E15.23632
G1 X112.946 Y73.870 F7800.000
G1 X111.466 Y72.390 F1920.000 E15.34163
G1 X111.112 Y73.248 F7800.000
G1 X112.946 Y75.082 F1920.000 E15.47216
G1 X112.946 Y76.294 F7800.000
G1 X110.613 Y73.961 F1920.000 E15.63822
G1 X109.756 Y74.316 F7800.000
G1 X112.388 Y76.948 F1920.000 E15.82558
G1 X111.176 Y76.948 F7800.000
G1 X108.899 Y74.671 F1920.000 E15.98765
G1 X108.042 Y75.026 F7800.000
G1 X109.964 Y76.948 F1920.000 E16.12445
G1 X108.752 Y76.948 F7800.000
G1 X106.400 Y74.596 F1920.000 E16.29187
G1 X106.528 Y77.147 F7800.000
G1 X89.435 Y60.054 F1920.000 E17.50844
G1 X90.647 Y60.054 F7800.000
G1 X107.541 Y76.948 F1920.000 E18.71083
G1 X106.498 Y78.328 F7800.000
G1 X88.223 Y60.054 F1920.000 E20.01148
G1 X87.054 Y60.097 F7800.000
G1 X106.240 Y79.282 F1920.000 E21.37696
G1 X105.290 Y79.544 F7800.000
G1 X87.054 Y61.309 F1920.000 E22.67483
G1 X87.054 Y62.521 F7800.000
G1 X104.421 Y79.887 F1920.000 E23.91087
G1 X103.630 Y80.309 F7800.000
G1 X87.054 Y63.733 F1920.000 E25.09065
G1 X87.054 Y64.944 F7800.000
G1 X102.897 Y80.788 F1920.000 E26.21826
G1 X102.217 Y81.319 F7800.000
G1 X87.054 Y66.156 F1920.000 E27.29742
G1 X87.054 Y67.368 F7800.000
G1 X101.592 Y81.906 F1920.000 E28.33211
G1 X101.448 Y82.974 F7800.000
G1 X87.054 Y68.580 F1920.000 E29.35657
G1 X87.054 Y69.792 F7800.000
G1 X101.448 Y84.186 F1920.000 E30.38103
G1 X101.448 Y85.398 F7800.000
G1 X87.054 Y71.004 F1920.000 E31.40549
G1 X87.054 Y72.216 F7800.000
G1 X101.448 Y86.610 F1920.000 E32.42995
G1 X101.448 Y87.822 F7800.000
G1 X87.054 Y73.428 F1920.000 E33.45442
G1 X87.054 Y74.640 F7800.000
G1 X101.448 Y89.034 F1920.000 E34.47888
G1 X101.448 Y90.246 F7800.000
G1 X87.054 Y75.852 F1920.000 E35.50334
G1 X87.054 Y77.064 F7800.000
G1 X101.448 Y91.458 F1920.000 E36.52780
G1 X101.448 Y92.670 F7800.000
G1 X87.054 Y78.276 F1920.000 E37.55226
G1 X87.054 Y79.488 F7800.000
G1 X101.448 Y93.882 F1920.000 E38.57672
G1 X103.437 Y95.872 F7800.000
G1 X104.078 Y96.512 F1920.000 E38.62229
G1 X103.300 Y96.946 F7800.000
G1 X87.054 Y80.700 F1920.000 E39.77860
G1 X87.054 Y81.911 F7800.000
G1 X102.089 Y96.946 F1920.000 E40.84866
G1 X101.948 Y98.017 F7800.000
G1 X87.054 Y83.123 F1920.000 E41.90871
G1 X87.054 Y84.335 F7800.000
G1 X101.948 Y99.229 F1920.000 E42.96875
G1 X101.948 Y100.441 F7800.000
G1 X87.054 Y85.547 F1920.000 E44.02880
G1 X87.054 Y86.759 F7800.000
G1 X101.948 Y101.653 F1920.000 E45.08884
G1 X101.948 Y102.865 F7800.000
G1 X87.054 Y87.971 F1920.000 E46.14889
G1 X87.054 Y89.183 F7800.000
G1 X101.948 Y104.077 F1920.000 E47.20893
G1 X101.948 Y105.289 F7800.000
G1 X87.054 Y90.395 F1920.000 E48.26898
G1 X87.054 Y91.607 F7800.000
G1 X101.948 Y106.501 F1920.000 E49.32903
G1 X101.948 Y107.713 F7800.000
G1 X87.054 Y92.819 F1920.000 E50.38908
G1 X87.054 Y94.030 F7800.000
G1 X101.948 Y108.924 F1920.000 E51.44912
G1 X101.948 Y110.136 F7800.000
G1 X87.054 Y95.242 F1920.000 E52.50917
G1 X87.054 Y96.454 F7800.000
G1 X101.948 Y111.348 F1920.000 E53.56922
G1 X101.948 Y112.560 F7800.000
G1 X87.054 Y97.666 F1920.000 E54.62926
G1 X87.054 Y98.878 F7800.000
G1 X101.948 Y113.772 F1920.000 E55.68931
G1 X101.948 Y114.984 F7800.000
G1 X87.054 Y100.090 F1920.000 E56.74936
G1 X87.054 Y101.302 F7800.000
G1 X101.948 Y116.196 F1920.000 E57.80941
G1 X101.947 Y117.408 F7800.000
G1 X87.054 Y102.514 F1920.000 E58.86943
G1 X87.054 Y103.726 F7800.000
G1 X101.947 Y118.620 F1920.000 E59.92946
G1 X101.947 Y119.832 F7800.000
G1 X87.054 Y104.938 F1920.000 E60.98949
G1 X87.054 Y106.150 F7800.000
G1 X101.947 Y121.044 F1920.000 E62.04953
G1 X101.948 Y122.255 F7800.000
G1 X87.054 Y107.361 F1920.000 E63.10956
G1 X87.054 Y108.573 F7800.000
G1 X101.948 Y123.467 F1920.000 E64.16960
G1 X101.948 Y124.679 F7800.000
G1 X87.054 Y109.785 F1920.000 E65.22963
G1 X87.054 Y110.997 F7800.000
G1 X101.948 Y125.891 F1920.000 E66.28968
G1 X101.948 Y127.103 F7800.000
G1 X87.054 Y112.209 F1920.000 E67.34972
G1 X87.054 Y113.421 F7800.000
G1 X101.948 Y128.315 F1920.000 E68.40977
G1 X101.718 Y129.296 F7800.000
G1 X87.054 Y114.633 F1920.000 E69.45341
G1 X87.054 Y115.845 F7800.000
G1 X100.506 Y129.296 F1920.000 E70.41079
G1 X99.294 Y129.296 F7800.000
G1 X87.054 Y117.057 F1920.000 E71.28192
G1 X87.054 Y118.269 F7800.000
G1 X98.082 Y129.296 F1920.000 E72.06679
G1 X96.870 Y129.296 F7800.000
G1 X87.054 Y119.481 F1920.000 E72.76540
G1 X87.054 Y120.693 F7800.000
G1 X95.658 Y129.296 F1920.000 E73.37776
G1 X94.446 Y129.296 F7800.000
G1 X87.054 Y121.905 F1920.000 E73.90385
G1 X87.054 Y123.116 F7800.000
G1 X93.234 Y129.296 F1920.000 E74.34369
G1 X92.022 Y129.296 F7800.000
G1 X87.054 Y124.328 F1920.000 E74.69727
G1 X87.054 Y125.540 F7800.000
G1 X90.810 Y129.296 F1920.000 E74.96460
G1 X89.598 Y129.297 F7800.000
G1 X87.054 Y126.752 F1920.000 E75.14568
G1 X87.054 Y127.964 F7800.000
G1 X88.386 Y129.297 F1920.000 E75.24051
G1 F600.000 E74.74051
G92 E0
G1 X104.405 Y72.601 F7800.000
G1 F600.000 E0.50000
G1 X91.858 Y60.054 F1920.000 E1.39299
G1 X93.070 Y60.054 F7800.000
G1 X103.976 Y70.960 F1920.000 E2.16919
G1 X104.330 Y70.102 F7800.000
G1 X94.282 Y60.054 F1920.000 E2.88435
G1 X95.494 Y60.054 F7800.000
G1 X104.685 Y69.245 F1920.000 E3.53845
G1 F600.000 E3.03845
G92 E0
G1 Z0.800 F7800.000
G1 X105.534 Y68.534
G1 F600.000 E0.50000
G1 X108.001 Y67.515 F2400.000 E0.63347
G1 X110.466 Y68.534 E0.76683
G1 X111.485 Y71.001 E0.90029
G1 X110.466 Y73.466 E1.03361
G1 X108.001 Y74.487 E1.16703
G1 X105.534 Y73.466 E1.30055
G1 X104.515 Y71.001 E1.43389
G1 X105.481 Y68.661 E1.56046
G1 F600.000 E1.06046
G92 E0
G1 X102.541 Y63.461 F7800.000
G1 F600.000 E0.50000
G1 X113.539 Y63.461 F2400.000 E1.04987
G1 X113.539 Y77.541 E1.75382
G1 X107.104 Y77.541 E2.07553
G1 X107.082 Y78.414 E2.11919
G1 X108.997 Y78.513 E2.21507
G1 X109.983 Y78.670 E2.26501
G1 X110.949 Y78.927 E2.31495
G1 X111.880 Y79.286 E2.36483
G1 X112.768 Y79.738 E2.41466
G1 X113.192 Y80.016 E2.44001
G1 X112.666 Y80.541 E2.47716
G1 X111.752 Y80.541 E2.52287
G1 X111.560 Y80.434 E2.53386
G1 X110.584 Y80.049 E2.58635
G1 X109.568 Y79.786 E2.63881
G1 X108.526 Y79.655 E2.69130
G1 X107.474 Y79.655 E2.74389
G1 X106.432 Y79.786 E2.79638
G1 X105.416 Y80.049 E2.84884
G1 X104.441 Y80.434 E2.90128
G1 X103.520 Y80.940 E2.95382
G1 X102.671 Y81.558 E3.00633
G1 X102.041 Y82.150 E3.04955
G1 X102.041 Y93.850 E3.63451
G1 X102.671 Y94.442 E3.67773
G1 X103.520 Y95.060 E3.73023
G1 X104.441 Y95.566 E3.78278
G1 X105.416 Y95.951 E3.83521
G1 X106.432 Y96.214 E3.88767
G1 X107.474 Y96.345 E3.94017
G1 X108.526 Y96.345 E3.99275
G1 X109.568 Y96.214 E4.04525
G1 X110.584 Y95.951 E4.09770
G1 X111.560 Y95.566 E4.15019
G1 X111.752 Y95.459 E4.16118
G1 X112.666 Y95.459 E4.20690
G1 X113.192 Y95.984 E4.24405
G1 X112.768 Y96.262 E4.26939
G1 X111.880 Y96.714 E4.31922
G1 X110.949 Y97.073 E4.36910
G1 X109.983 Y97.330 E4.41905
G1 X108.997 Y97.487 E4.46898
G1 X107.989 Y97.539 E4.51944
G1 X102.541 Y97.539 E4.79183
G1 X102.541 Y130.193 E6.42442
G1 X86.461 Y130.193 E7.22837
G1 X86.461 Y59.461 E10.76475
G1 X102.541 Y59.461 E11.56870
G1 X102.541 Y63.323 E11.76179
G1 X101.948 Y63.585 F7800.000
G1 X87.054 Y78.479 F2400.000 E12.83289
G1 X87.054 Y79.699 F7800.000
G1 X102.698 Y64.054 F2400.000 E13.95800
G1 X103.919 Y64.054 F7800.000
G1 X87.054 Y80.919 F2400.000 E15.17088
G1 X87.054 Y82.139 F7800.000
G1 X105.139 Y64.054 F2400.000 E16.47153
G1 X106.360 Y64.054 F7800.000
G1 X87.054 Y83.360 F2400.000 E17.85995
G1 X87.054 Y84.580 F7800.000
G1 X107.580 Y64.054 F2400.000 E19.33610
G1 X108.800 Y64.054 F7800.000
G1 X104.779 Y68.075 F2400.000 E19.62524
G1 X105.075 Y67.780 F7800.000
G1 X87.054 Y85.800 F2400.000 E20.92122
G1 X87.054 Y87.021 F7800.000
G1 X104.217 Y69.858 F2400.000 E22.15550
G1 X104.057 Y71.238 F7800.000
G1 X87.054 Y88.241 F2400.000 E23.37830
G1 X87.054 Y89.461 F7800.000
G1 X104.414 Y72.101 F2400.000 E24.62678
G1 X104.771 Y72.964 F7800.000
G1 X87.054 Y90.681 F2400.000 E25.90093
G1 X87.054 Y91.902 F7800.000
G1 X105.128 Y73.827 F2400.000 E27.20077
G1 X105.973 Y74.203 F7800.000
G1 X87.054 Y93.122 F2400.000 E28.56138
G1 X87.054 Y94.342 F7800.000
G1 X106.836 Y74.561 F2400.000 E29.98397
G1 X107.699 Y74.918 F7800.000
G1 X87.054 Y95.562 F2400.000 E31.46866
G1 X87.054 Y96.783 F7800.000
G1 X101.448 Y82.389 F2400.000 E32.50381
G1 X101.448 Y83.609 F7800.000
G1 X87.054 Y98.003 F2400.000 E33.53896
G1 X87.054 Y99.223 F7800.000
G1 X101.448 Y84.829 F2400.000 E34.57411
G1 X101.448 Y86.050 F7800.000
G1 X87.054 Y100.444 F2400.000 E35.60926
G1 X87.054 Y101.664 F7800.000
G1 X101.448 Y87.270 F2400.000 E36.64447
G1 X101.448 Y88.490 F7800.000
G1 X87.054 Y102.884 F2400.000 E37.67962
G1 X87.054 Y104.104 F7800.000
G1 X101.448 Y89.710 F2400.000 E38.71477
G1 X101.448 Y90.931 F7800.000
G1 X87.054 Y105.325 F2400.000 E39.74992
G1 X87.054 Y106.545 F7800.000
G1 X101.448 Y92.151 F2400.000 E40.78507
G1 X101.448 Y93.371 F7800.000
G1 X87.054 Y107.765 F2400.000 E41.82022
G1 X87.054 Y108.985 F7800.000
G1 X101.774 Y94.265 F2400.000 E42.87887
G1 X102.406 Y94.854 F7800.000
G1 X87.054 Y110.206 F2400.000 E43.98292
G1 X87.054 Y111.426 F7800.000
G1 X101.948 Y96.532 F2400.000 E45.05408
G1 X101.534 Y96.946 F7800.000
G1 X103.111 Y95.369 F2400.000 E45.16753
G1 X103.875 Y95.825 F7800.000
G1 X102.754 Y96.946 F2400.000 E45.24813
G1 X101.948 Y97.752 F7800.000
G1 X87.054 Y112.646 F2400.000 E46.31923
G1 X87.054 Y113.867 F7800.000
G1 X101.948 Y98.973 F2400.000 E47.39034
G1 X101.948 Y100.193 F7800.000
G1 X87.054 Y115.087 F2400.000 E48.46144
G1 X87.054 Y116.307 F7800.000
G1 X101.947 Y101.413 F2400.000 E49.53254
G1 X101.947 Y102.634 F7800.000
G1 X87.054 Y117.527 F2400.000 E50.60365
G1 X87.054 Y118.748 F7800.000
G1 X101.948 Y103.853 F2400.000 E51.67480
G1 X101.948 Y105.074 F7800.000
G1 X87.054 Y119.968 F2400.000 E52.74596
G1 X87.054 Y121.188 F7800.000
G1 X101.948 Y106.294 F2400.000 E53.81706
G1 X101.948 Y107.515 F7800.000
G1 X87.054 Y122.408 F2400.000 E54.88816
G1 X87.054 Y123.629 F7800.000
G1 X101.948 Y108.735 F2400.000 E55.95927
G1 X101.948 Y109.956 F7800.000
G1 X87.054 Y124.849 F2400.000 E57.03037
G1 X87.054 Y126.069 F7800.000
G1 X101.947 Y111.175 F2400.000 E58.10147
G1 X101.948 Y112.395 F7800.000
G1 X87.054 Y127.290 F2400.000 E59.17263
G1 X87.054 Y128.510 F7800.000
