; generated by Slic3r 0.7.3-dev on 2012-05-09 at 13:22:37

; layer_height = 0.4
; perimeters = 1
; solid_layers = 3
; fill_density = 0.25
; nozzle_diameter = 0.75
; filament_diameter = 3
; extrusion_multiplier = 1
; perimeter_speed = 40
; infill_speed = 70
; travel_speed = 130
; extrusion_width_ratio = 2.3
; scale = 1
; single wall width = 0.92mm

M104 S230 ; set temperature
M92 E380
G92 X0 Y0 Z0  E0.0
G1 Z2.0 F150.0
G1 X-250.0 F2100.0
G1 X-249.0 F300.0
G1 X-251.0 F100.0
G92 X3.0
G1 Y-250.0 F2100.0
G1 Y-249.0 F300.0
G1 Y-251.0 F300.0
G92 Y10.0
G1 Y70.0 F2100.0
G1 Z-250.0 F150.0
G1 Z-249.0 F50.0
G1 Z-251.0 F50.0
G1 Y75.0 E2.0  F1000.0
G1 Y100.0 E2.3  F1000.0
G92 Z0.3
G92 E0.0
M106 S70
M107
M109 S230 ; wait for temperature to be reached
G90 ; use absolute coordinates
G21 ; set units to millimeters
G92 E0 ; reset extrusion distance
M82 ; use absolute distances for extrusion
M107
G1 Z0.400 F7800.000
G1 X55.799 Y57.310
G1 F600.000 E0.50000
G1 X55.979 Y57.130 F1920.000 E0.51273
G1 X56.359 Y56.790 E0.53822
G1 X56.979 Y56.350 E0.57623
G1 X57.199 Y56.220 E0.58901
G1 X57.659 Y55.990 E0.61472
G1 X58.129 Y55.800 E0.64007
G1 X58.619 Y55.650 E0.66569
G1 X58.869 Y55.590 E0.67854
G1 X59.619 Y55.480 E0.71644
G1 X60.129 Y55.460 E0.74196
G1 X140.379 Y55.480 E4.75421
G1 X141.129 Y55.590 E4.79211
G1 X141.629 Y55.720 E4.81794
G1 X142.109 Y55.890 E4.84340
G1 X142.569 Y56.100 E4.86868
G1 X142.799 Y56.220 E4.88165
G1 X143.019 Y56.350 E4.89442
G1 X143.639 Y56.790 E4.93243
G1 X144.019 Y57.130 E4.95793
G1 X144.199 Y57.310 E4.97065
G1 X144.539 Y57.690 E4.99615
G1 X144.979 Y58.310 E5.03416
G1 X145.109 Y58.530 E5.04694
G1 X145.339 Y58.990 E5.07265
G1 X145.529 Y59.460 E5.09799
G1 X145.679 Y59.950 E5.12362
G1 X145.739 Y60.200 E5.13647
G1 X145.849 Y60.950 E5.17437
G1 X145.509 Y94.350 E6.84435
G1 X145.489 Y94.610 E6.85739
G1 X145.359 Y95.370 E6.89594
G1 X134.639 Y140.180 E9.19952
G1 X134.479 Y140.680 E9.22576
G1 X134.269 Y141.150 E9.25150
G1 X134.029 Y141.610 E9.27744
G1 X133.889 Y141.830 E9.29048
G1 X133.589 Y142.250 E9.31628
G1 X133.429 Y142.450 E9.32909
G1 X132.879 Y143.000 E9.36798
G1 X132.689 Y143.170 E9.38072
G1 X132.059 Y143.620 E9.41943
G1 X131.839 Y143.760 E9.43247
G1 X131.379 Y143.990 E9.45818
G1 X130.899 Y144.190 E9.48418
G1 X130.399 Y144.340 E9.51028
G1 X129.899 Y144.450 E9.53588
G1 X129.389 Y144.520 E9.56161
G1 X128.869 Y144.540 E9.58763
G1 X59.619 Y144.510 E13.04992
G1 X58.859 Y144.400 E13.08831
G1 X58.369 Y144.270 E13.11366
G1 X57.889 Y144.100 E13.13911
G1 X57.429 Y143.890 E13.16440
G1 X57.199 Y143.770 E13.17737
G1 X56.979 Y143.640 E13.19014
G1 X56.359 Y143.200 E13.22815
G1 X55.979 Y142.860 E13.25365
G1 X55.799 Y142.680 E13.26637
G1 X55.459 Y142.300 E13.29187
G1 X55.019 Y141.680 E13.32988
G1 X54.889 Y141.460 E13.34265
G1 X54.659 Y141.000 E13.36837
G1 X54.469 Y140.530 E13.39371
G1 X54.319 Y140.040 E13.41933
G1 X54.259 Y139.790 E13.43219
G1 X54.149 Y139.040 E13.47009
G1 X54.149 Y60.950 E17.37434
G1 X54.259 Y60.200 E17.41224
G1 X54.389 Y59.700 E17.43807
G1 X54.559 Y59.220 E17.46353
G1 X54.769 Y58.760 E17.48881
G1 X54.889 Y58.530 E17.50178
G1 X55.019 Y58.310 E17.51456
G1 X55.459 Y57.690 E17.55257
G1 X55.707 Y57.413 E17.57116
G1 F600.000 E17.07116
G92 E0
G1 X130.847 Y69.002 F7800.000
G1 F600.000 E0.50000
G1 X131.866 Y66.535 F1920.000 E0.63347
G1 X134.334 Y65.516 E0.76693
G1 X136.799 Y66.535 E0.90030
G1 X137.817 Y69.002 E1.03375
G1 X136.799 Y71.467 E1.16708
G1 X134.334 Y72.489 E1.30050
G1 X131.866 Y71.467 E1.43402
G1 X130.900 Y69.130 E1.56046
G1 F600.000 E1.06046
G92 E0
G1 X133.437 Y75.542 F7800.000
G1 F600.000 E0.50000
G1 X133.414 Y76.415 F1920.000 E0.54367
G1 X135.329 Y76.514 E0.63954
G1 X136.316 Y76.671 E0.68948
G1 X137.281 Y76.928 E0.73942
G1 X138.212 Y77.287 E0.78930
G1 X139.100 Y77.739 E0.83913
G1 X139.524 Y78.017 E0.86448
G1 X138.999 Y78.542 E0.90163
G1 X138.085 Y78.542 E0.94734
G1 X137.892 Y78.435 E0.95833
G1 X136.916 Y78.050 E1.01082
G1 X135.900 Y77.787 E1.06328
G1 X134.858 Y77.656 E1.11578
G1 X133.806 Y77.656 E1.16836
G1 X132.765 Y77.787 E1.22086
G1 X131.749 Y78.050 E1.27331
G1 X130.773 Y78.435 E1.32575
G1 X129.852 Y78.941 E1.37830
G1 X129.003 Y79.559 E1.43080
G1 X128.373 Y80.151 E1.47402
G1 X128.373 Y91.851 E2.05898
G1 X129.003 Y92.443 E2.10220
G1 X129.852 Y93.061 E2.15470
G1 X130.773 Y93.567 E2.20725
G1 X131.749 Y93.952 E2.25968
G1 X132.765 Y94.215 E2.31214
G1 X133.806 Y94.346 E2.36464
G1 X134.858 Y94.346 E2.41722
G1 X135.900 Y94.215 E2.46972
G1 X136.916 Y93.952 E2.52218
G1 X137.892 Y93.567 E2.57466
G1 X138.085 Y93.460 E2.58566
G1 X138.999 Y93.460 E2.63137
G1 X139.524 Y93.985 E2.66852
G1 X139.100 Y94.263 E2.69387
G1 X138.212 Y94.715 E2.74370
G1 X137.281 Y95.074 E2.79357
G1 X136.316 Y95.331 E2.84352
G1 X135.329 Y95.488 E2.89346
G1 X134.321 Y95.540 E2.94391
G1 X128.873 Y95.540 E3.21630
G1 X128.873 Y138.540 E5.36617
G1 X114.793 Y138.540 E6.07012
G1 X114.793 Y61.462 E9.92378
G1 X139.871 Y61.462 E11.17760
G1 X139.871 Y75.542 E11.88156
G1 X133.575 Y75.542 E12.19637
G1 F600.000 E11.69637
G92 E0
G1 X110.484 Y69.000 F7800.000
G1 F600.000 E0.50000
G1 X109.465 Y71.465 F1920.000 E0.63332
G1 X107.000 Y72.487 E0.76674
G1 X104.533 Y71.465 E0.90026
G1 X103.514 Y69.000 E1.03360
G1 X104.533 Y66.533 E1.16707
G1 X107.000 Y65.514 E1.30054
G1 X109.465 Y66.533 E1.43390
G1 X110.431 Y68.873 E1.56046
G1 F600.000 E1.06046
G92 E0
G1 X112.538 Y75.540 F7800.000
G1 F600.000 E0.50000
G1 X106.103 Y75.540 F1920.000 E0.82171
G1 X106.081 Y76.413 E0.86537
G1 X107.996 Y76.512 E0.96125
G1 X108.982 Y76.669 E1.01118
G1 X109.948 Y76.926 E1.06113
G1 X110.879 Y77.285 E1.11101
G1 X111.767 Y77.737 E1.16084
G1 X112.191 Y78.015 E1.18618
G1 X111.665 Y78.540 E1.22334
G1 X110.751 Y78.540 E1.26905
G1 X110.559 Y78.433 E1.28004
G1 X109.583 Y78.048 E1.33253
G1 X108.567 Y77.785 E1.38498
G1 X107.525 Y77.654 E1.43748
G1 X106.473 Y77.654 E1.49007
G1 X105.431 Y77.785 E1.54256
G1 X104.415 Y78.048 E1.59502
G1 X103.440 Y78.433 E1.64745
G1 X102.519 Y78.939 E1.70000
G1 X101.670 Y79.557 E1.75250
G1 X101.040 Y80.149 E1.79572
G1 X101.040 Y91.849 E2.38068
G1 X101.670 Y92.441 E2.42390
G1 X102.519 Y93.059 E2.47641
G1 X103.440 Y93.565 E2.52895
G1 X104.415 Y93.950 E2.58139
G1 X105.431 Y94.213 E2.63385
G1 X106.473 Y94.344 E2.68634
G1 X107.525 Y94.344 E2.73893
G1 X108.567 Y94.213 E2.79142
G1 X109.583 Y93.950 E2.84388
G1 X110.559 Y93.565 E2.89637
G1 X110.751 Y93.458 E2.90736
G1 X111.665 Y93.458 E2.95307
G1 X112.191 Y93.983 E2.99022
G1 X111.767 Y94.261 E3.01557
G1 X110.879 Y94.713 E3.06540
G1 X109.948 Y95.072 E3.11528
G1 X108.982 Y95.329 E3.16522
G1 X107.996 Y95.486 E3.21516
G1 X106.988 Y95.538 E3.26562
G1 X101.540 Y95.538 E3.53801
G1 X101.540 Y138.538 E5.68787
G1 X87.460 Y138.538 E6.39183
G1 X87.460 Y61.460 E10.24549
G1 X112.538 Y61.460 E11.49931
G1 X112.538 Y75.402 E12.19637
G1 F600.000 E11.69637
G92 E0
G1 X83.153 Y69.000 F7800.000
G1 F600.000 E0.50000
G1 X82.134 Y71.465 F1920.000 E0.63332
G1 X79.669 Y72.487 E0.76674
G1 X77.201 Y71.465 E0.90026
G1 X76.183 Y69.000 E1.03360
G1 X77.201 Y66.533 E1.16707
G1 X79.669 Y65.514 E1.30054
G1 X82.134 Y66.533 E1.43390
G1 X83.100 Y68.873 E1.56046
G1 F600.000 E1.06046
G92 E0
G1 X85.207 Y75.540 F7800.000
G1 F600.000 E0.50000
G1 X78.772 Y75.540 F1920.000 E0.82171
G1 X78.750 Y76.413 E0.86537
G1 X80.665 Y76.512 E0.96125
G1 X81.651 Y76.669 E1.01118
G1 X82.616 Y76.926 E1.06113
G1 X83.547 Y77.285 E1.11101
G1 X84.436 Y77.737 E1.16084
G1 X84.860 Y78.015 E1.18618
G1 X84.334 Y78.540 E1.22334
G1 X83.420 Y78.540 E1.26905
G1 X83.228 Y78.433 E1.28004
G1 X82.251 Y78.048 E1.33253
G1 X81.235 Y77.785 E1.38498
G1 X80.194 Y77.654 E1.43748
G1 X79.142 Y77.654 E1.49007
G1 X78.100 Y77.785 E1.54256
G1 X77.084 Y78.048 E1.59502
G1 X76.109 Y78.433 E1.64745
G1 X75.188 Y78.939 E1.70000
G1 X74.339 Y79.557 E1.75250
G1 X73.709 Y80.149 E1.79572
G1 X73.709 Y91.849 E2.38068
G1 X74.339 Y92.441 E2.42390
G1 X75.188 Y93.059 E2.47641
G1 X76.109 Y93.565 E2.52895
G1 X77.084 Y93.950 E2.58139
G1 X78.100 Y94.213 E2.63385
G1 X79.142 Y94.344 E2.68634
G1 X80.194 Y94.344 E2.73893
G1 X81.235 Y94.213 E2.79142
G1 X82.251 Y93.950 E2.84388
G1 X83.228 Y93.565 E2.89637
G1 X83.420 Y93.458 E2.90736
G1 X84.334 Y93.458 E2.95307
G1 X84.860 Y93.983 E2.99022
G1 X84.436 Y94.261 E3.01557
G1 X83.547 Y94.713 E3.06540
G1 X82.616 Y95.072 E3.11528
G1 X81.651 Y95.329 E3.16523
G1 X80.665 Y95.486 E3.21516
G1 X79.657 Y95.538 E3.26562
G1 X74.209 Y95.538 E3.53801
G1 X74.209 Y138.538 E5.68787
G1 X60.129 Y138.538 E6.39183
G1 X60.129 Y61.460 E10.24549
G1 X85.207 Y61.460 E11.49931
G1 X85.207 Y75.402 E12.19637
G1 F600.000 E11.69637
G92 E0
G1 X115.387 Y75.915 F7800.000
G1 F600.000 E0.50000
G1 X127.780 Y88.309 F3360.000 E1.38434
G1 X127.780 Y87.096 F7800.000
G1 X115.386 Y74.702 F3360.000 E2.26870
G1 X115.387 Y73.487 F7800.000
G1 X127.780 Y85.881 F3360.000 E3.15303
G1 X127.780 Y84.668 F7800.000
G1 X115.386 Y72.274 F3360.000 E4.03738
G1 X115.386 Y71.060 F7800.000
G1 X127.780 Y83.454 F3360.000 E4.92175
G1 X127.780 Y82.240 F7800.000
G1 X115.387 Y69.846 F3360.000 E5.80609
G1 X115.386 Y68.632 F7800.000
G1 X127.780 Y81.026 F3360.000 E6.69045
G1 X127.898 Y79.931 F7800.000
G1 X115.386 Y67.418 F3360.000 E7.58325
G1 X115.386 Y66.204 F7800.000
G1 X128.525 Y79.343 F3360.000 E8.52072
G1 X129.204 Y78.808 F7800.000
G1 X115.386 Y64.990 F3360.000 E9.50665
G1 X115.387 Y63.776 F7800.000
G1 X129.936 Y78.325 F3360.000 E10.54477
G1 X130.724 Y77.900 F7800.000
G1 X115.386 Y62.562 F3360.000 E11.63917
G1 X116.093 Y62.055 F7800.000
G1 X131.594 Y77.556 F3360.000 E12.74521
G1 X132.543 Y77.291 F7800.000
G1 X117.307 Y62.055 F3360.000 E13.83232
G1 X118.521 Y62.055 F7800.000
G1 X132.829 Y76.363 F3360.000 E14.85327
G1 X132.860 Y75.180 F7800.000
G1 X119.735 Y62.055 F3360.000 E15.78978
G1 X120.949 Y62.055 F7800.000
G1 X133.843 Y74.949 F3360.000 E16.70983
G1 X135.057 Y74.949 F7800.000
G1 X132.684 Y72.577 F3360.000 E16.87910
G1 X134.356 Y73.034 F7800.000
G1 X136.271 Y74.949 F3360.000 E17.01568
G1 X137.485 Y74.949 F7800.000
G1 X135.214 Y72.679 F3360.000 E17.17769
G1 X136.073 Y72.324 F7800.000
G1 X138.698 Y74.949 F3360.000 E17.36503
G1 X139.279 Y74.315 F7800.000
G1 X136.931 Y71.967 F3360.000 E17.53254
G1 X137.439 Y71.262 F7800.000
G1 X139.278 Y73.101 F3360.000 E17.66377
G1 X139.279 Y71.887 F7800.000
G1 X137.794 Y70.403 F3360.000 E17.76967
G1 X138.149 Y69.543 F7800.000
G1 X139.278 Y70.673 F3360.000 E17.85025
G1 X139.279 Y68.245 F7800.000
G1 X137.570 Y66.536 F3360.000 E17.97219
G1 X136.797 Y65.763 F7800.000
G1 X133.089 Y62.055 F3360.000 E18.23678
G1 X134.302 Y62.055 F7800.000
G1 X139.278 Y67.031 F3360.000 E18.59182
G1 X139.279 Y65.817 F7800.000
G1 X135.516 Y62.054 F3360.000 E18.86029
G1 X136.730 Y62.055 F7800.000
G1 X139.279 Y64.604 F3360.000 E19.04212
G1 X139.278 Y63.389 F7800.000
G1 X137.944 Y62.055 F3360.000 E19.13733
G1 X134.727 Y64.908 F7800.000
G1 X131.874 Y62.055 F3360.000 E19.34090
G1 X130.660 Y62.055 F7800.000
G1 X133.790 Y65.185 F3360.000 E19.56422
G1 X132.931 Y65.539 F7800.000
G1 X129.447 Y62.055 F3360.000 E19.81284
G1 X128.232 Y62.055 F7800.000
G1 X132.072 Y65.895 F3360.000 E20.08681
G1 X131.365 Y66.402 F7800.000
G1 X127.019 Y62.055 F3360.000 E20.39697
G1 X125.804 Y62.055 F7800.000
G1 X131.010 Y67.262 F3360.000 E20.76845
G1 X130.656 Y68.121 F7800.000
G1 X124.591 Y62.055 F3360.000 E21.20125
G1 X123.377 Y62.055 F7800.000
G1 X130.301 Y68.979 F3360.000 E21.69533
G1 X130.757 Y70.650 F7800.000
G1 X122.163 Y62.055 F3360.000 E22.30859
G1 F600.000 E21.80859
G92 E0
G1 X115.386 Y77.130 F7800.000
G1 F600.000 E0.50000
G1 X127.780 Y89.524 F3360.000 E1.38437
G1 X127.780 Y90.738 F7800.000
G1 X115.386 Y78.343 F3360.000 E2.26873
G1 X115.387 Y79.557 F7800.000
G1 X127.780 Y91.951 F3360.000 E3.15304
G1 X129.617 Y93.788 F7800.000
G1 X130.397 Y94.567 F3360.000 E3.20864
G1 X129.562 Y94.947 F7800.000
G1 X115.386 Y80.772 F3360.000 E4.22009
G1 X115.386 Y81.985 F7800.000
G1 X128.348 Y94.947 F3360.000 E5.14497
G1 X128.280 Y96.094 F7800.000
G1 X115.386 Y83.200 F3360.000 E6.06500
G1 X115.386 Y84.413 F7800.000
G1 X128.280 Y97.307 F3360.000 E6.98503
G1 X128.280 Y98.521 F7800.000
G1 X115.386 Y85.627 F3360.000 E7.90506
G1 X115.386 Y86.841 F7800.000
G1 X128.280 Y99.735 F3360.000 E8.82509
G1 X128.280 Y100.949 F7800.000
G1 X115.386 Y88.055 F3360.000 E9.74512
G1 X115.387 Y89.269 F7800.000
G1 X128.280 Y102.162 F3360.000 E10.66510
G1 X128.280 Y103.377 F7800.000
G1 X115.386 Y90.483 F3360.000 E11.58514
G1 X115.386 Y91.696 F7800.000
G1 X128.280 Y104.590 F3360.000 E12.50517
G1 X128.280 Y105.805 F7800.000
G1 X115.386 Y92.911 F3360.000 E13.42520
G1 X115.386 Y94.125 F7800.000
G1 X128.280 Y107.019 F3360.000 E14.34523
G1 X128.280 Y108.232 F7800.000
G1 X115.387 Y95.339 F3360.000 E15.26521
G1 X115.386 Y96.553 F7800.000
G1 X128.280 Y109.447 F3360.000 E16.18524
G1 X128.280 Y110.660 F7800.000
G1 X115.386 Y97.766 F3360.000 E17.10527
G1 X115.386 Y98.981 F7800.000
G1 X128.280 Y111.875 F3360.000 E18.02531
G1 X128.280 Y113.088 F7800.000
G1 X115.386 Y100.194 F3360.000 E18.94534
G1 X115.386 Y101.408 F7800.000
G1 X128.280 Y114.302 F3360.000 E19.86537
G1 X128.280 Y115.517 F7800.000
G1 X115.386 Y102.623 F3360.000 E20.78540
G1 X115.386 Y103.836 F7800.000
G1 X128.280 Y116.730 F3360.000 E21.70543
G1 X128.280 Y117.943 F7800.000
G1 X115.387 Y105.050 F3360.000 E22.62541
G1 X115.386 Y106.264 F7800.000
G1 X128.280 Y119.158 F3360.000 E23.54545
G1 X128.280 Y120.372 F7800.000
G1 X115.386 Y107.478 F3360.000 E24.46548
G1 X115.386 Y108.692 F7800.000
G1 X128.280 Y121.586 F3360.000 E25.38551
G1 X128.280 Y122.800 F7800.000
G1 X115.386 Y109.906 F3360.000 E26.30554
G1 X115.387 Y111.120 F7800.000
G1 X128.280 Y124.013 F3360.000 E27.22552
G1 X128.280 Y125.228 F7800.000
G1 X115.386 Y112.334 F3360.000 E28.14555
G1 X115.386 Y113.547 F7800.000
G1 X128.280 Y126.441 F3360.000 E29.06558
G1 X128.280 Y127.656 F7800.000
G1 X115.386 Y114.762 F3360.000 E29.98562
G1 X115.386 Y115.976 F7800.000
G1 X128.280 Y128.870 F3360.000 E30.90565
G1 X128.280 Y130.083 F7800.000
G1 X115.386 Y117.189 F3360.000 E31.82568
G1 X115.386 Y118.404 F7800.000
G1 X128.280 Y131.298 F3360.000 E32.74571
G1 X128.280 Y132.511 F7800.000
G1 X115.386 Y119.617 F3360.000 E33.66574
G1 X115.387 Y120.831 F7800.000
G1 X128.280 Y133.725 F3360.000 E34.58572
G1 X128.280 Y134.940 F7800.000
G1 X115.386 Y122.045 F3360.000 E35.50575
G1 X115.386 Y123.259 F7800.000
G1 X128.280 Y136.153 F3360.000 E36.42579
G1 X128.280 Y137.368 F7800.000
G1 X115.386 Y124.474 F3360.000 E37.34582
G1 X115.386 Y125.687 F7800.000
G1 X127.646 Y137.947 F3360.000 E38.22059
G1 X126.433 Y137.947 F7800.000
G1 X115.387 Y126.901 F3360.000 E39.00874
G1 X115.386 Y128.115 F7800.000
G1 X125.218 Y137.947 F3360.000 E39.71025
G1 X124.004 Y137.947 F7800.000
G1 X115.386 Y129.329 F3360.000 E40.32519
G1 X115.386 Y130.543 F7800.000
G1 X122.790 Y137.948 F3360.000 E40.85349
G1 X121.576 Y137.947 F7800.000
G1 X115.386 Y131.757 F3360.000 E41.29517
G1 X115.386 Y132.970 F7800.000
G1 X120.363 Y137.947 F3360.000 E41.65026
G1 X119.149 Y137.948 F7800.000
G1 X115.386 Y134.185 F3360.000 E41.91873
G1 X115.386 Y135.398 F7800.000
G1 X117.935 Y137.947 F3360.000 E42.10057
G1 X116.721 Y137.948 F7800.000
G1 X115.386 Y136.613 F3360.000 E42.19577
G1 F600.000 E41.69577
G92 E0
G1 X100.947 Y136.151 F7800.000
G1 F600.000 E0.50000
G1 X88.053 Y123.257 F3360.000 E1.42003
G1 X88.053 Y122.043 F7800.000
G1 X100.947 Y134.937 F3360.000 E2.34006
G1 X100.946 Y133.723 F7800.000
G1 X88.053 Y120.830 F3360.000 E3.26004
G1 X88.053 Y119.615 F7800.000
G1 X100.947 Y132.509 F3360.000 E4.18008
G1 X100.947 Y131.296 F7800.000
G1 X88.053 Y118.402 F3360.000 E5.10011
G1 X88.052 Y117.188 F7800.000
G1 X100.946 Y130.082 F3360.000 E6.02014
G1 X100.947 Y128.868 F7800.000
G1 X88.053 Y115.973 F3360.000 E6.94017
G1 X88.053 Y114.760 F7800.000
G1 X100.947 Y127.654 F3360.000 E7.86020
G1 X100.947 Y126.439 F7800.000
G1 X88.053 Y113.545 F3360.000 E8.78023
G1 X88.053 Y112.332 F7800.000
G1 X100.947 Y125.226 F3360.000 E9.70026
G1 X100.946 Y124.012 F7800.000
G1 X88.053 Y111.118 F3360.000 E10.62025
G1 X88.053 Y109.904 F7800.000
G1 X100.947 Y122.798 F3360.000 E11.54028
G1 X100.947 Y121.584 F7800.000
G1 X88.053 Y108.690 F3360.000 E12.46031
G1 X88.053 Y107.475 F7800.000
G1 X100.947 Y120.370 F3360.000 E13.38034
