; generated by Slic3r 0.7.3-dev on 2012-05-09 at 15:00:16

; layer_height = 0.4
; perimeters = 1
; solid_layers = 3
; fill_density = 0.25
; nozzle_diameter = 0.75
; filament_diameter = 3
; extrusion_multiplier = 1
; perimeter_speed = 40
; infill_speed = 70
; travel_speed = 130
; extrusion_width_ratio = 2.3
; scale = 1
; single wall width = 0.92mm

M104 S230 ; set temperature
M92 E380
G92 X0 Y0 Z0  E0.0
G1 Z2.0 F150.0
G1 X-250.0 F2100.0
G1 X-249.0 F300.0
G1 X-251.0 F100.0
G92 X3.0
G1 Y-250.0 F2100.0
G1 Y-249.0 F300.0
G1 Y-251.0 F300.0
G92 Y10.0
G1 Y70.0 F2100.0
G1 Z-250.0 F150.0
G1 Z-249.0 F50.0
G1 Z-251.0 F50.0
G1 Y75.0 E2.0  F1000.0
G1 Y100.0 E2.3  F1000.0
G92 Z0.3
G92 E0.0
M106 S70
M107
M109 S230 ; wait for temperature to be reached
G90 ; use absolute coordinates
G21 ; set units to millimeters
G92 E0 ; reset extrusion distance
M82 ; use absolute distances for extrusion
M107
G1 Z0.400 F7800.000
G1 X56.745 Y49.282
G1 F600.000 E0.50000
G1 X57.255 Y49.262 F1920.000 E0.52552
G1 X137.905 Y49.282 E4.55777
G1 X138.655 Y49.392 E4.59566
G1 X139.155 Y49.522 E4.62149
G1 X139.635 Y49.692 E4.64695
G1 X140.095 Y49.902 E4.67224
G1 X140.325 Y50.022 E4.68521
G1 X140.545 Y50.152 E4.69798
G1 X141.165 Y50.592 E4.73599
G1 X141.545 Y50.932 E4.76149
G1 X141.725 Y51.112 E4.77421
G1 X142.065 Y51.492 E4.79971
G1 X142.505 Y52.112 E4.83772
G1 X142.635 Y52.332 E4.85049
G1 X142.865 Y52.792 E4.87621
G1 X143.055 Y53.262 E4.90155
G1 X143.205 Y53.752 E4.92717
G1 X143.265 Y54.002 E4.94003
G1 X143.375 Y54.752 E4.97793
G1 X143.155 Y88.352 E6.65786
G1 X143.105 Y88.892 E6.68497
G1 X132.165 Y134.382 E9.02418
G1 X131.905 Y135.112 E9.06292
G1 X131.675 Y135.582 E9.08908
G1 X131.415 Y136.022 E9.11463
G1 X130.945 Y136.642 E9.15353
G1 X130.595 Y137.022 E9.17936
G1 X130.005 Y137.522 E9.21803
G1 X129.585 Y137.812 E9.24354
G1 X129.135 Y138.072 E9.26953
G1 X128.665 Y138.292 E9.29547
G1 X128.175 Y138.462 E9.32140
G1 X127.675 Y138.592 E9.34723
G1 X127.165 Y138.682 E9.37313
G1 X126.915 Y138.712 E9.38572
G1 X126.395 Y138.732 E9.41173
G1 X56.745 Y138.712 E12.89402
G1 X55.995 Y138.602 E12.93191
G1 X55.495 Y138.472 E12.95774
G1 X55.015 Y138.302 E12.98320
G1 X54.555 Y138.092 E13.00848
G1 X54.325 Y137.972 E13.02145
G1 X54.105 Y137.842 E13.03423
G1 X53.485 Y137.402 E13.07224
G1 X53.105 Y137.062 E13.09774
G1 X52.925 Y136.882 E13.11046
G1 X52.585 Y136.502 E13.13596
G1 X52.145 Y135.882 E13.17397
G1 X52.015 Y135.662 E13.18674
G1 X51.785 Y135.202 E13.21246
G1 X51.595 Y134.732 E13.23780
G1 X51.445 Y134.242 E13.26342
G1 X51.385 Y133.992 E13.27628
G1 X51.275 Y133.242 E13.31418
G1 X51.275 Y54.752 E17.23843
G1 X51.385 Y54.002 E17.27633
G1 X51.515 Y53.502 E17.30216
G1 X51.685 Y53.022 E17.32762
G1 X51.895 Y52.562 E17.35290
G1 X52.015 Y52.332 E17.36587
G1 X52.145 Y52.112 E17.37865
G1 X52.585 Y51.492 E17.41666
G1 X52.925 Y51.112 E17.44215
G1 X53.105 Y50.932 E17.45488
G1 X53.485 Y50.592 E17.48037
G1 X54.105 Y50.152 E17.51838
G1 X54.325 Y50.022 E17.53116
G1 X54.785 Y49.792 E17.55687
G1 X55.255 Y49.602 E17.58222
G1 X55.745 Y49.452 E17.60784
G1 X55.995 Y49.392 E17.62069
G1 X56.608 Y49.298 E17.65169
G1 F600.000 E17.15169
G92 E0
G1 X56.795 Y53.452 F7800.000
G1 F600.000 E0.50000
G1 X132.495 Y53.472 F1920.000 E4.28476
G1 X132.795 Y53.492 E4.29980
G1 X133.385 Y53.582 E4.32964
G1 X133.965 Y53.732 E4.35959
G1 X145.725 Y58.022 E4.98545
G1 X146.195 Y58.262 E5.01184
G1 X146.635 Y58.542 E5.03791
G1 X147.055 Y58.862 E5.06431
G1 X147.435 Y59.222 E5.09048
G1 X147.795 Y59.602 E5.11665
G1 X148.255 Y60.242 E5.15606
G1 X148.395 Y60.462 E5.16910
G1 X148.635 Y60.922 E5.19504
G1 X148.835 Y61.412 E5.22150
G1 X148.995 Y61.912 E5.24774
G1 X149.105 Y62.422 E5.27383
G1 X149.175 Y62.942 E5.30006
G1 X148.845 Y96.382 E6.97204
G1 X148.775 Y96.952 E7.00075
G1 X148.725 Y97.232 E7.01497
G1 X137.835 Y131.922 E8.83282
G1 X137.645 Y132.392 E8.85816
G1 X137.535 Y132.622 E8.87091
G1 X137.285 Y133.062 E8.89621
G1 X137.145 Y133.272 E8.90883
G1 X136.845 Y133.672 E8.93383
G1 X136.505 Y134.052 E8.95932
G1 X136.325 Y134.232 E8.97205
G1 X135.745 Y134.722 E9.01001
G1 X135.325 Y135.002 E9.03525
G1 X135.105 Y135.132 E9.04802
G1 X134.655 Y135.352 E9.07307
G1 X134.185 Y135.542 E9.09841
G1 X133.455 Y135.752 E9.13639
G1 X132.705 Y135.862 E9.17429
G1 X132.195 Y135.882 E9.19981
G1 X56.285 Y135.862 E12.99507
G1 X55.535 Y135.752 E13.03297
G1 X55.035 Y135.622 E13.05880
G1 X54.555 Y135.452 E13.08426
G1 X54.095 Y135.242 E13.10954
G1 X53.865 Y135.122 E13.12251
G1 X53.645 Y134.992 E13.13528
G1 X53.025 Y134.552 E13.17330
G1 X52.645 Y134.212 E13.19879
G1 X52.465 Y134.032 E13.21152
G1 X52.125 Y133.652 E13.23701
G1 X51.685 Y133.032 E13.27502
G1 X51.555 Y132.812 E13.28780
G1 X51.325 Y132.352 E13.31351
G1 X51.135 Y131.882 E13.33886
G1 X50.985 Y131.392 E13.36448
G1 X50.925 Y131.142 E13.37733
G1 X50.815 Y130.392 E13.41523
G1 X50.815 Y58.942 E16.98751
G1 X50.925 Y58.192 E17.02540
G1 X51.055 Y57.692 E17.05123
G1 X51.225 Y57.212 E17.07669
G1 X51.435 Y56.752 E17.10198
G1 X51.555 Y56.522 E17.11495
G1 X51.685 Y56.302 E17.12772
G1 X52.125 Y55.682 E17.16573
G1 X52.465 Y55.302 E17.19123
G1 X52.645 Y55.122 E17.20395
G1 X53.025 Y54.782 E17.22945
G1 X53.645 Y54.342 E17.26746
G1 X53.865 Y54.212 E17.28023
G1 X54.325 Y53.982 E17.30595
G1 X54.795 Y53.792 E17.33129
G1 X55.285 Y53.642 E17.35691
G1 X55.535 Y53.582 E17.36977
G1 X56.285 Y53.472 E17.40767
G1 X56.657 Y53.458 E17.42628
G1 F600.000 E16.92628
G92 E0
G1 X78.333 Y74.487 F7800.000
G1 F600.000 E0.50000
G1 X75.869 Y73.465 F1920.000 E0.63339
G1 X74.847 Y71.000 E0.76678
G1 X75.869 Y68.533 E0.90030
G1 X78.333 Y67.514 E1.03364
G1 X80.801 Y68.533 E1.16711
G1 X81.819 Y71.000 E1.30057
G1 X80.801 Y73.465 E1.43391
G1 X78.461 Y74.434 E1.56053
G1 F600.000 E1.06053
G92 E0
G1 X77.437 Y77.540 F7800.000
G1 F600.000 E0.50000
G1 X77.414 Y78.413 F1920.000 E0.54367
G1 X79.331 Y78.512 E0.63965
G1 X80.318 Y78.669 E0.68958
G1 X81.283 Y78.926 E0.73953
G1 X82.214 Y79.285 E0.78940
G1 X83.102 Y79.737 E0.83923
G1 X83.526 Y80.015 E0.86458
G1 X83.001 Y80.540 E0.90173
G1 X82.087 Y80.540 E0.94744
G1 X81.894 Y80.433 E0.95844
G1 X80.918 Y80.048 E1.01092
G1 X79.902 Y79.785 E1.06338
G1 X78.860 Y79.654 E1.11588
G1 X77.808 Y79.654 E1.16846
G1 X76.767 Y79.785 E1.22096
G1 X75.751 Y80.048 E1.27342
G1 X74.775 Y80.433 E1.32585
G1 X73.854 Y80.939 E1.37840
G1 X73.006 Y81.557 E1.43088
G1 X72.373 Y82.148 E1.47417
G1 X72.373 Y93.850 E2.05919
G1 X73.006 Y94.441 E2.10249
G1 X73.854 Y95.059 E2.15497
G1 X74.775 Y95.565 E2.20752
G1 X75.751 Y95.950 E2.25995
G1 X76.767 Y96.213 E2.31241
G1 X77.808 Y96.344 E2.36491
G1 X78.860 Y96.344 E2.41749
G1 X79.902 Y96.213 E2.46999
G1 X80.918 Y95.950 E2.52244
G1 X81.893 Y95.565 E2.57487
G1 X82.085 Y95.460 E2.58581
G1 X83.001 Y95.460 E2.63161
G1 X83.526 Y95.984 E2.66867
G1 X83.102 Y96.261 E2.69399
G1 X82.214 Y96.713 E2.74382
G1 X81.283 Y97.072 E2.79370
G1 X80.318 Y97.329 E2.84365
G1 X79.331 Y97.486 E2.89360
G1 X78.321 Y97.540 E2.94417
G1 X72.873 Y97.540 E3.21653
G1 X72.873 Y129.888 E4.83385
G1 X56.795 Y129.888 E5.63770
G1 X56.795 Y59.460 E9.15890
G1 X72.873 Y59.460 E9.96275
G1 X72.873 Y63.460 E10.16274
G1 X83.873 Y63.460 E10.71270
G1 X83.873 Y77.540 E11.41666
G1 X77.575 Y77.540 E11.73157
G1 X77.875 Y76.947 F7800.000
G1 X60.981 Y60.053 F3360.000 E12.93397
G1 X59.769 Y60.053 F7800.000
G1 X76.860 Y77.144 F3360.000 E14.15039
G1 X76.830 Y78.326 F7800.000
G1 X58.557 Y60.053 F3360.000 E15.45090
G1 X57.388 Y60.096 F7800.000
G1 X76.573 Y79.282 F3360.000 E16.81638
G1 X75.624 Y79.544 F7800.000
G1 X57.388 Y61.308 F3360.000 E18.11426
G1 X57.388 Y62.520 F7800.000
G1 X74.755 Y79.887 F3360.000 E19.35030
G1 X73.964 Y80.308 F7800.000
G1 X57.388 Y63.732 F3360.000 E20.53008
G1 X57.389 Y64.943 F7800.000
G1 X73.232 Y80.786 F3360.000 E21.65768
G1 X72.551 Y81.318 F7800.000
G1 X57.389 Y66.155 F3360.000 E22.73683
G1 X57.389 Y67.367 F7800.000
G1 X71.925 Y81.903 F3360.000 E23.77141
G1 X71.781 Y82.971 F7800.000
G1 X57.389 Y68.579 F3360.000 E24.79573
G1 X57.389 Y69.791 F7800.000
G1 X71.781 Y84.183 F3360.000 E25.82004
G1 X71.781 Y85.395 F7800.000
G1 X57.388 Y71.003 F3360.000 E26.84436
G1 X57.388 Y72.215 F7800.000
G1 X71.780 Y86.607 F3360.000 E27.86868
G1 X71.780 Y87.819 F7800.000
G1 X57.388 Y73.427 F3360.000 E28.89300
G1 X57.388 Y74.639 F7800.000
G1 X71.780 Y89.031 F3360.000 E29.91731
G1 X71.780 Y90.243 F7800.000
G1 X57.388 Y75.851 F3360.000 E30.94164
G1 X57.388 Y77.063 F7800.000
G1 X71.780 Y91.455 F3360.000 E31.96595
G1 X71.780 Y92.667 F7800.000
G1 X57.388 Y78.275 F3360.000 E32.99027
G1 X57.388 Y79.487 F7800.000
G1 X71.780 Y93.879 F3360.000 E34.01459
G1 X73.772 Y95.870 F7800.000
G1 X74.416 Y96.514 F3360.000 E34.06039
G1 X73.637 Y96.947 F7800.000
G1 X57.388 Y80.699 F3360.000 E35.21685
G1 X57.388 Y81.910 F7800.000
G1 X72.425 Y96.947 F3360.000 E36.28705
G1 X72.280 Y98.014 F7800.000
G1 X57.388 Y83.122 F3360.000 E37.34696
G1 X57.388 Y84.334 F7800.000
G1 X72.280 Y99.226 F3360.000 E38.40686
G1 X72.280 Y100.438 F7800.000
G1 X57.388 Y85.546 F3360.000 E39.46676
G1 X57.388 Y86.758 F7800.000
G1 X72.280 Y101.650 F3360.000 E40.52667
G1 X72.280 Y102.862 F7800.000
G1 X57.388 Y87.970 F3360.000 E41.58657
G1 X57.388 Y89.182 F7800.000
G1 X72.280 Y104.074 F3360.000 E42.64647
G1 X72.281 Y105.285 F7800.000
G1 X57.389 Y90.393 F3360.000 E43.70638
G1 X57.389 Y91.605 F7800.000
G1 X72.281 Y106.497 F3360.000 E44.76629
G1 X72.281 Y107.709 F7800.000
G1 X57.389 Y92.817 F3360.000 E45.82619
G1 X57.389 Y94.029 F7800.000
G1 X72.281 Y108.921 F3360.000 E46.88609
G1 X72.281 Y110.133 F7800.000
G1 X57.389 Y95.241 F3360.000 E47.94600
G1 X57.388 Y96.453 F7800.000
G1 X72.281 Y111.345 F3360.000 E49.00590
G1 X72.280 Y112.557 F7800.000
G1 X57.388 Y97.665 F3360.000 E50.06580
G1 X57.388 Y98.877 F7800.000
G1 X72.281 Y113.769 F3360.000 E51.12572
G1 X72.281 Y114.981 F7800.000
G1 X57.388 Y100.089 F3360.000 E52.18564
G1 X57.388 Y101.301 F7800.000
G1 X72.281 Y116.193 F3360.000 E53.24556
G1 X72.281 Y117.405 F7800.000
G1 X57.388 Y102.513 F3360.000 E54.30548
G1 X57.388 Y103.725 F7800.000
G1 X72.281 Y118.617 F3360.000 E55.36541
G1 X72.281 Y119.829 F7800.000
G1 X57.388 Y104.937 F3360.000 E56.42533
G1 X57.388 Y106.149 F7800.000
G1 X72.280 Y121.040 F3360.000 E57.48521
G1 X72.280 Y122.252 F7800.000
G1 X57.388 Y107.361 F3360.000 E58.54509
G1 X57.388 Y108.573 F7800.000
G1 X72.280 Y123.464 F3360.000 E59.60498
G1 X72.280 Y124.676 F7800.000
G1 X57.388 Y109.785 F3360.000 E60.66487
G1 X57.388 Y110.996 F7800.000
G1 X72.280 Y125.888 F3360.000 E61.72476
G1 X72.280 Y127.100 F7800.000
G1 X57.388 Y112.208 F3360.000 E62.78465
G1 X57.388 Y113.420 F7800.000
G1 X72.280 Y128.312 F3360.000 E63.84455
G1 X72.052 Y129.295 F7800.000
G1 X57.389 Y114.632 F3360.000 E64.88819
G1 X57.389 Y115.844 F7800.000
G1 X70.840 Y129.295 F3360.000 E65.84557
G1 X69.628 Y129.295 F7800.000
G1 X57.389 Y117.056 F3360.000 E66.71670
G1 X57.389 Y118.267 F7800.000
G1 X68.416 Y129.295 F3360.000 E67.50157
G1 X67.204 Y129.295 F7800.000
G1 X57.389 Y119.479 F3360.000 E68.20018
G1 X57.389 Y120.691 F7800.000
G1 X65.992 Y129.295 F3360.000 E68.81253
G1 X64.780 Y129.295 F7800.000
G1 X57.388 Y121.903 F3360.000 E69.33863
G1 X57.388 Y123.115 F7800.000
G1 X63.568 Y129.295 F3360.000 E69.77846
G1 X62.356 Y129.295 F7800.000
G1 X57.388 Y124.327 F3360.000 E70.13204
G1 X57.388 Y125.539 F7800.000
G1 X61.144 Y129.295 F3360.000 E70.39936
G1 X59.932 Y129.295 F7800.000
G1 X57.388 Y126.751 F3360.000 E70.58044
G1 X57.388 Y127.963 F7800.000
G1 X58.720 Y129.295 F3360.000 E70.67525
G1 F600.000 E70.17525
G92 E0
G1 X79.087 Y76.947 F7800.000
G1 F600.000 E0.50000
G1 X76.736 Y74.596 F3360.000 E0.66736
G1 X78.376 Y75.024 F7800.000
G1 X80.299 Y76.947 F3360.000 E0.80421
G1 X81.511 Y76.947 F7800.000
G1 X79.233 Y74.669 F3360.000 E0.96632
G1 X80.090 Y74.314 F7800.000
G1 X82.723 Y76.947 F3360.000 E1.15368
G1 X83.280 Y76.293 F7800.000
G1 X80.947 Y73.960 F3360.000 E1.31973
G1 X81.446 Y73.247 F7800.000
G1 X83.280 Y75.081 F3360.000 E1.45027
G1 X83.280 Y73.869 F7800.000
G1 X81.801 Y72.389 F3360.000 E1.55558
G1 X82.155 Y71.532 F7800.000
G1 X83.280 Y72.657 F3360.000 E1.63566
G1 X83.281 Y70.233 F7800.000
G1 X81.565 Y68.517 F3360.000 E1.75779
G1 X80.816 Y67.769 F7800.000
G1 X77.101 Y64.053 F3360.000 E2.02226
G1 X75.889 Y64.053 F7800.000
G1 X78.752 Y66.916 F3360.000 E2.22606
G1 X77.802 Y67.178 F7800.000
G1 X74.677 Y64.053 F3360.000 E2.44849
G1 X73.465 Y64.053 F7800.000
G1 X76.944 Y67.533 F3360.000 E2.69614
G1 X76.087 Y67.887 F7800.000
G1 X72.253 Y64.053 F3360.000 E2.96903
G1 X72.280 Y64.081 F7800.000
G1 X68.253 Y60.053 F3360.000 E3.25568
G1 X69.465 Y60.053 F7800.000
G1 X72.280 Y62.869 F3360.000 E3.45609
G1 X72.280 Y61.657 F7800.000
G1 X70.677 Y60.053 F3360.000 E3.57023
G1 X67.041 Y60.053 F7800.000
G1 X75.374 Y68.386 F3360.000 E4.16332
G1 X75.019 Y69.243 F7800.000
G1 X65.829 Y60.053 F3360.000 E4.81740
G1 X64.617 Y60.053 F7800.000
G1 X74.664 Y70.100 F3360.000 E5.53248
G1 X74.309 Y70.957 F7800.000
G1 X63.405 Y60.053 F3360.000 E6.30856
G1 X62.193 Y60.053 F7800.000
G1 X74.738 Y72.598 F3360.000 E7.20139
G1 X83.281 Y69.021 F7800.000
G1 X78.312 Y64.053 F3360.000 E7.55498
G1 X79.524 Y64.053 F7800.000
G1 X83.281 Y67.809 F3360.000 E7.82232
G1 X83.281 Y66.597 F7800.000
G1 X80.736 Y64.053 F3360.000 E8.00341
G1 X81.948 Y64.053 F7800.000
G1 X83.281 Y65.385 F3360.000 E8.09824
G1 F600.000 E7.59824
G92 E0
G1 X110.799 Y68.533 F7800.000
G1 F600.000 E0.50000
G1 X111.817 Y71.000 F1920.000 E0.63347
G1 X110.799 Y73.465 E0.76680
G1 X108.331 Y74.487 E0.90032
G1 X105.867 Y73.465 E1.03372
G1 X104.845 Y71.000 E1.16711
G1 X105.867 Y68.533 E1.30063
G1 X108.331 Y67.514 E1.43396
G1 X110.671 Y68.480 E1.56053
G1 F600.000 E1.06053
G92 E0
G1 X113.871 Y63.460 F7800.000
G1 F600.000 E0.50000
G1 X113.871 Y77.540 F1920.000 E1.20396
G1 X107.435 Y77.540 E1.52576
G1 X107.412 Y78.413 E1.56943
G1 X109.329 Y78.512 E1.66541
G1 X110.316 Y78.669 E1.71535
G1 X111.281 Y78.926 E1.76529
G1 X112.212 Y79.285 E1.81517
G1 X113.100 Y79.737 E1.86500
G1 X113.524 Y80.015 E1.89035
G1 X112.999 Y80.540 E1.92750
G1 X112.085 Y80.540 E1.97321
G1 X111.892 Y80.433 E1.98420
G1 X110.916 Y80.048 E2.03669
G1 X109.900 Y79.785 E2.08915
G1 X108.858 Y79.654 E2.14164
G1 X107.806 Y79.654 E2.19423
G1 X106.765 Y79.785 E2.24672
G1 X105.749 Y80.048 E2.29918
G1 X104.773 Y80.433 E2.35162
G1 X103.852 Y80.939 E2.40416
G1 X103.004 Y81.557 E2.45664
G1 X102.371 Y82.148 E2.49994
G1 X102.371 Y93.850 E3.08496
G1 X103.004 Y94.441 E3.12826
G1 X103.852 Y95.059 E3.18073
G1 X104.773 Y95.565 E3.23328
G1 X105.749 Y95.950 E3.28571
G1 X106.765 Y96.213 E3.33817
G1 X107.806 Y96.344 E3.39067
G1 X108.858 Y96.344 E3.44325
G1 X109.900 Y96.213 E3.49575
G1 X110.916 Y95.950 E3.54821
G1 X111.891 Y95.565 E3.60063
G1 X112.083 Y95.460 E3.61158
G1 X112.999 Y95.460 E3.65737
G1 X113.524 Y95.984 E3.69444
G1 X113.100 Y96.261 E3.71976
G1 X112.212 Y96.713 E3.76959
G1 X111.281 Y97.072 E3.81947
G1 X110.316 Y97.329 E3.86941
G1 X109.329 Y97.486 E3.91937
G1 X108.319 Y97.540 E3.96993
G1 X102.871 Y97.540 E4.24230
G1 X102.871 Y129.888 E5.85962
G1 X86.793 Y129.888 E6.66347
G1 X86.793 Y59.460 E10.18467
G1 X102.871 Y59.460 E10.98852
G1 X102.871 Y63.460 E11.18850
G1 X113.733 Y63.460 E11.73157
G1 X111.946 Y64.053 F7800.000
G1 X113.279 Y65.385 F3360.000 E11.82640
G1 X113.279 Y66.597 F7800.000
G1 X110.734 Y64.053 F3360.000 E12.00748
G1 X109.522 Y64.053 F7800.000
G1 X113.279 Y67.809 F3360.000 E12.27482
G1 X113.279 Y69.021 F7800.000
G1 X108.310 Y64.053 F3360.000 E12.62841
G1 X107.099 Y64.053 F7800.000
G1 X110.814 Y67.769 F3360.000 E12.89288
G1 X111.563 Y68.517 F7800.000
G1 X113.279 Y70.233 F3360.000 E13.01501
G1 X112.153 Y71.532 F7800.000
G1 X113.278 Y72.657 F3360.000 E13.09509
G1 X113.278 Y73.869 F7800.000
G1 X111.799 Y72.389 F3360.000 E13.20040
G1 X111.444 Y73.247 F7800.000
G1 X113.278 Y75.081 F3360.000 E13.33094
G1 X113.278 Y76.293 F7800.000
G1 X110.945 Y73.960 F3360.000 E13.49699
G1 X110.088 Y74.314 F7800.000
G1 X112.721 Y76.947 F3360.000 E13.68435
G1 X111.509 Y76.947 F7800.000
G1 X109.231 Y74.669 F3360.000 E13.84646
G1 X108.374 Y75.024 F7800.000
G1 X110.297 Y76.947 F3360.000 E13.98331
G1 X109.085 Y76.947 F7800.000
G1 X106.734 Y74.596 F3360.000 E14.15067
G1 X106.858 Y77.144 F7800.000
G1 X89.767 Y60.053 F3360.000 E15.36709
