; generated by Slic3r 0.7.3-dev on 2012-05-09 at 13:19:43

; layer_height = 0.4
; perimeters = 3
; solid_layers = 3
; fill_density = 0.4
; nozzle_diameter = 0.5
; filament_diameter = 3
; extrusion_multiplier = 1
; perimeter_speed = 30
; infill_speed = 60
; travel_speed = 130
; extrusion_width_ratio = 0
; scale = 1
; single wall width = 0.53mm

M104 S200 ; set temperature
G28 ; home all axes
M109 S200 ; wait for temperature to be reached
G90 ; use absolute coordinates
G21 ; set units to millimeters
G92 E0 ; reset extrusion distance
M82 ; use absolute distances for extrusion
G1 Z0.400 F7800.000
G1 X59.412 Y55.282
G1 F1800.000 E1.00000
G1 X59.922 Y55.262 F540.000 E1.01501
G1 X140.572 Y55.282 E3.38655
G1 X141.322 Y55.392 E3.40884
G1 X141.822 Y55.522 E3.42403
G1 X142.302 Y55.692 E3.43900
G1 X142.762 Y55.902 E3.45387
G1 X142.992 Y56.022 E3.46150
G1 X143.212 Y56.152 E3.46901
G1 X143.832 Y56.592 E3.49137
G1 X144.212 Y56.932 E3.50636
G1 X144.392 Y57.112 E3.51385
G1 X144.732 Y57.492 E3.52884
G1 X145.172 Y58.112 E3.55120
G1 X145.302 Y58.332 E3.55871
G1 X145.532 Y58.792 E3.57384
G1 X145.722 Y59.262 E3.58874
G1 X145.872 Y59.752 E3.60381
G1 X145.932 Y60.002 E3.61137
G1 X146.042 Y60.752 E3.63366
G1 X145.822 Y94.352 E4.62170
G1 X145.772 Y94.892 E4.63765
G1 X134.832 Y140.382 E6.01344
G1 X134.572 Y141.112 E6.03622
G1 X134.342 Y141.582 E6.05161
G1 X134.082 Y142.022 E6.06664
G1 X133.612 Y142.642 E6.08952
G1 X133.262 Y143.022 E6.10471
G1 X132.672 Y143.522 E6.12745
G1 X132.252 Y143.812 E6.14246
G1 X131.802 Y144.072 E6.15774
G1 X131.332 Y144.292 E6.17300
G1 X130.842 Y144.462 E6.18825
G1 X130.342 Y144.592 E6.20344
G1 X129.832 Y144.682 E6.21867
G1 X129.582 Y144.712 E6.22607
G1 X129.062 Y144.732 E6.24138
G1 X59.412 Y144.712 E8.28946
G1 X58.662 Y144.602 E8.31175
G1 X58.162 Y144.472 E8.32694
G1 X57.682 Y144.302 E8.34191
G1 X57.222 Y144.092 E8.35678
G1 X56.992 Y143.972 E8.36441
G1 X56.772 Y143.842 E8.37192
G1 X56.152 Y143.402 E8.39428
G1 X55.772 Y143.062 E8.40927
G1 X55.592 Y142.882 E8.41676
G1 X55.252 Y142.502 E8.43175
G1 X54.812 Y141.882 E8.45411
G1 X54.682 Y141.662 E8.46162
G1 X54.452 Y141.202 E8.47675
G1 X54.262 Y140.732 E8.49165
G1 X54.112 Y140.242 E8.50672
G1 X54.052 Y139.992 E8.51428
G1 X53.942 Y139.242 E8.53657
G1 X53.942 Y60.752 E10.84459
G1 X54.052 Y60.002 E10.86688
G1 X54.182 Y59.502 E10.88208
G1 X54.352 Y59.022 E10.89705
G1 X54.562 Y58.562 E10.91192
G1 X54.682 Y58.332 E10.91955
G1 X54.812 Y58.112 E10.92706
G1 X55.252 Y57.492 E10.94942
G1 X55.592 Y57.112 E10.96441
G1 X55.772 Y56.932 E10.97190
G1 X56.152 Y56.592 E10.98689
G1 X56.772 Y56.152 E11.00925
G1 X56.992 Y56.022 E11.01676
G1 X57.452 Y55.792 E11.03188
G1 X57.922 Y55.602 E11.04679
G1 X58.412 Y55.452 E11.06186
G1 X58.662 Y55.392 E11.06942
G1 X59.334 Y55.291 E11.08939
G1 F1800.000 E10.08939
G92 E0
G1 X79.669 Y73.148 F7800.000
G1 F1800.000 E1.00000
G1 X76.734 Y71.932 F540.000 E1.09343
G1 X75.521 Y69.000 E1.18672
G1 X76.734 Y66.065 E1.28011
G1 X79.669 Y64.853 E1.37350
G1 X82.602 Y66.065 E1.46682
G1 X83.814 Y69.000 E1.56019
G1 X82.602 Y71.932 E1.65348
G1 X79.742 Y73.118 E1.74452
G1 X79.669 Y72.590 F7800.000
G1 X77.128 Y71.538 F540.000 E1.82539
G1 X76.079 Y69.000 E1.90614
G1 X77.128 Y66.459 E1.98698
G1 X79.669 Y65.410 E2.06781
G1 X82.207 Y66.460 E2.14858
G1 X83.256 Y69.000 E2.22941
G1 X82.207 Y71.538 E2.31016
G1 X79.742 Y72.560 E2.38865
G1 X79.669 Y72.033 F7800.000
G1 X77.523 Y71.144 F540.000 E2.45695
G1 X76.636 Y69.000 E2.52517
G1 X77.523 Y66.854 E2.59345
G1 X79.669 Y65.968 E2.66173
G1 X81.813 Y66.854 E2.72995
G1 X82.699 Y69.000 E2.79823
G1 X81.813 Y71.144 E2.86643
G1 X79.742 Y72.002 E2.93237
G1 F1800.000 E1.93237
G92 E0
G1 X78.153 Y74.707 F7800.000
G1 F1800.000 E1.00000
G1 X78.095 Y76.946 F540.000 E1.06587
G1 X77.943 Y76.966 E1.07037
G1 X76.826 Y77.254 E1.10430
G1 X75.754 Y77.678 E1.13820
G1 X74.740 Y78.234 E1.17221
G1 X73.806 Y78.914 E1.20618
G1 X72.876 Y79.789 E1.24372
G1 X72.876 Y92.209 E1.60895
G1 X73.806 Y93.084 E1.64649
G1 X74.740 Y93.764 E1.68046
G1 X75.754 Y94.321 E1.71447
G1 X76.728 Y94.705 E1.74527
G1 X73.376 Y94.705 E1.84385
G1 X73.376 Y137.705 E3.10828
G1 X60.962 Y137.705 E3.47332
G1 X60.962 Y62.293 E5.69085
G1 X84.374 Y62.293 E6.37929
G1 X84.374 Y74.707 E6.74434
G1 X78.232 Y74.707 E6.92495
G1 X78.655 Y75.222 F7800.000
G1 X78.616 Y76.724 F540.000 E6.96913
G1 X80.631 Y76.829 E7.02847
G1 X81.585 Y76.980 E7.05686
G1 X82.518 Y77.229 E7.08525
G1 X83.418 Y77.575 E7.11360
G1 X84.276 Y78.012 E7.14192
G1 X84.359 Y78.066 E7.14483
G1 X84.203 Y78.222 E7.15132
G1 X83.502 Y78.222 E7.17192
G1 X83.364 Y78.145 E7.17658
G1 X82.350 Y77.745 E7.20864
G1 X81.295 Y77.473 E7.24066
G1 X80.213 Y77.336 E7.27272
G1 X79.122 Y77.336 E7.30482
G1 X78.040 Y77.473 E7.33688
G1 X76.986 Y77.745 E7.36890
G1 X75.973 Y78.145 E7.40091
G1 X75.017 Y78.670 E7.43300
G1 X74.136 Y79.312 E7.46506
G1 X73.391 Y80.012 E7.49510
G1 X73.391 Y91.986 E7.84722
G1 X74.136 Y92.686 E7.87727
G1 X75.017 Y93.328 E7.90932
G1 X75.973 Y93.853 E7.94141
G1 X76.986 Y94.253 E7.97342
G1 X78.040 Y94.525 E8.00545
G1 X79.122 Y94.662 E8.03750
G1 X80.213 Y94.662 E8.06960
G1 X81.295 Y94.525 E8.10166
G1 X82.350 Y94.253 E8.13369
G1 X83.364 Y93.853 E8.16575
G1 X83.502 Y93.776 E8.17040
G1 X84.203 Y93.776 E8.19100
G1 X84.359 Y93.932 E8.19750
G1 X84.276 Y93.986 E8.20041
G1 X83.418 Y94.423 E8.22872
G1 X82.518 Y94.769 E8.25707
G1 X81.585 Y95.018 E8.28546
G1 X80.631 Y95.169 E8.31386
G1 X79.649 Y95.220 E8.34280
G1 X73.891 Y95.220 E8.51210
G1 X73.891 Y138.220 E9.77653
G1 X60.446 Y138.220 E10.17187
G1 X60.446 Y61.778 E12.41969
G1 X84.889 Y61.778 E13.13844
G1 X84.889 Y75.222 E13.53378
G1 X78.734 Y75.222 E13.71478
G1 X79.157 Y75.738 F7800.000
G1 X79.144 Y76.236 F540.000 E13.72943
G1 X80.685 Y76.315 E13.77481
G1 X81.692 Y76.475 E13.80479
G1 X82.677 Y76.738 E13.83477
G1 X83.628 Y77.104 E13.86472
G1 X84.535 Y77.565 E13.89464
G1 X85.171 Y77.983 E13.91701
G1 X84.416 Y78.738 E13.94841
G1 X83.369 Y78.738 E13.97920
G1 X83.143 Y78.612 E13.98679
G1 X82.190 Y78.236 E14.01692
G1 X81.198 Y77.980 E14.04704
G1 X80.181 Y77.852 E14.07718
G1 X79.154 Y77.852 E14.10738
G1 X78.137 Y77.980 E14.13752
G1 X77.145 Y78.236 E14.16765
G1 X76.193 Y78.612 E14.19776
G1 X75.294 Y79.106 E14.22793
G1 X74.465 Y79.709 E14.25808
G1 X73.906 Y80.234 E14.28062
G1 X73.906 Y91.764 E14.61964
G1 X74.465 Y92.289 E14.64218
G1 X75.294 Y92.892 E14.67233
G1 X76.193 Y93.386 E14.70250
G1 X77.145 Y93.762 E14.73261
G1 X78.137 Y94.018 E14.76273
G1 X79.154 Y94.147 E14.79287
G1 X80.181 Y94.147 E14.82307
G1 X81.198 Y94.018 E14.85321
G1 X82.190 Y93.762 E14.88334
G1 X83.143 Y93.386 E14.91347
G1 X83.369 Y93.261 E14.92106
G1 X84.416 Y93.261 E14.95185
G1 X85.171 Y94.015 E14.98325
G1 X84.535 Y94.433 E15.00561
G1 X83.628 Y94.894 E15.03554
G1 X82.677 Y95.260 E15.06548
G1 X81.692 Y95.523 E15.09547
G1 X80.685 Y95.683 E15.12545
G1 X79.662 Y95.736 E15.15558
G1 X74.406 Y95.736 E15.31013
G1 X74.406 Y138.736 E16.57455
G1 X59.931 Y138.736 E17.00020
G1 X59.931 Y61.263 E19.27832
G1 X85.404 Y61.263 E20.02736
G1 X85.404 Y75.738 E20.45300
G1 X79.236 Y75.738 E20.63438
G1 X78.919 Y74.341 F7800.000
G1 X77.157 Y72.579 F1080.000 E20.70844
G1 X78.409 Y73.097 F7800.000
G1 X79.653 Y74.341 F1080.000 E20.76072
G1 X80.386 Y74.340 F7800.000
G1 X79.579 Y73.533 F1080.000 E20.79465
G1 X80.097 Y73.318 F7800.000
G1 X81.119 Y74.341 F1080.000 E20.83763
G1 X81.853 Y74.341 F7800.000
G1 X80.616 Y73.103 F1080.000 E20.88963
G1 X81.135 Y72.888 F7800.000
G1 X82.587 Y74.340 F1080.000 E20.95068
G1 X83.321 Y74.340 F7800.000
G1 X81.653 Y72.673 F1080.000 E21.02076
G1 X82.171 Y72.458 F7800.000
G1 X84.007 Y74.294 F1080.000 E21.09790
G1 X84.007 Y73.560 F7800.000
G1 X82.690 Y72.243 F1080.000 E21.15325
G1 X82.997 Y71.816 F7800.000
G1 X84.007 Y72.826 F1080.000 E21.19569
G1 X84.007 Y72.093 F7800.000
G1 X83.212 Y71.298 F1080.000 E21.22911
G1 X83.591 Y70.943 F7800.000
G1 X84.007 Y71.359 F1080.000 E21.24661
G1 F1800.000 E20.24661
G92 E0
G1 X84.007 Y66.958 F7800.000
G1 F1800.000 E1.00000
G1 X83.042 Y65.993 F1080.000 E1.04055
G1 X82.674 Y65.625 F7800.000
G1 X79.709 Y62.660 F1080.000 E1.16517
G1 X78.975 Y62.659 F7800.000
G1 X81.424 Y65.107 F1080.000 E1.26806
G1 X80.173 Y64.591 F7800.000
G1 X78.242 Y62.659 F1080.000 E1.34922
G1 X77.508 Y62.660 F7800.000
G1 X79.446 Y64.598 F1080.000 E1.43066
G1 X78.927 Y64.811 F7800.000
G1 X76.775 Y62.659 F1080.000 E1.52112
G1 X76.041 Y62.659 F7800.000
G1 X78.408 Y65.026 F1080.000 E1.62058
G1 X77.888 Y65.241 F7800.000
G1 X75.307 Y62.660 F1080.000 E1.72906
G1 X74.574 Y62.660 F7800.000
G1 X77.369 Y65.455 F1080.000 E1.84654
G1 X76.850 Y65.669 F7800.000
G1 X73.840 Y62.659 F1080.000 E1.97304
G1 X73.107 Y62.660 F7800.000
G1 X76.423 Y65.976 F1080.000 E2.11241
G1 X76.208 Y66.495 F7800.000
G1 X72.373 Y62.660 F1080.000 E2.27360
G1 X71.640 Y62.659 F7800.000
G1 X75.994 Y67.014 F1080.000 E2.45662
G1 X75.780 Y67.533 F7800.000
G1 X70.906 Y62.659 F1080.000 E2.66145
G1 X70.172 Y62.660 F7800.000
G1 X75.565 Y68.053 F1080.000 E2.88810
G1 X75.351 Y68.572 F7800.000
G1 X69.439 Y62.660 F1080.000 E3.13658
G1 X68.706 Y62.659 F7800.000
G1 X75.137 Y69.091 F1080.000 E3.40687
G1 X75.572 Y70.259 F7800.000
G1 X67.972 Y62.660 F1080.000 E3.72628
G1 X67.238 Y62.660 F7800.000
G1 X76.088 Y71.510 F1080.000 E4.09825
G1 X78.186 Y74.340 F7800.000
G1 X66.505 Y62.659 F1080.000 E4.58918
G1 X65.771 Y62.659 F7800.000
G1 X77.791 Y74.679 F1080.000 E5.09435
G1 X77.772 Y75.394 F7800.000
G1 X65.037 Y62.660 F1080.000 E5.62957
G1 X64.304 Y62.659 F7800.000
G1 X77.754 Y76.109 F1080.000 E6.19485
G1 X77.616 Y76.705 F7800.000
G1 X63.571 Y62.659 F1080.000 E6.78515
G1 X62.837 Y62.660 F7800.000
G1 X77.033 Y76.856 F1080.000 E7.38179
G1 X76.485 Y77.042 F7800.000
G1 X62.103 Y62.660 F1080.000 E7.98626
G1 X61.370 Y62.659 F7800.000
G1 X75.960 Y77.249 F1080.000 E8.59945
G1 X75.459 Y77.482 F7800.000
G1 X61.328 Y63.352 F1080.000 E9.19333
G1 X61.328 Y64.085 F7800.000
G1 X74.985 Y77.742 F1080.000 E9.76731
G1 X74.522 Y78.012 F7800.000
G1 X61.328 Y64.818 F1080.000 E10.32183
G1 X61.328 Y65.552 F7800.000
G1 X74.098 Y78.322 F1080.000 E10.85851
G1 X73.673 Y78.631 F7800.000
G1 X61.328 Y66.286 F1080.000 E11.37735
G1 X61.328 Y67.020 F7800.000
G1 X73.289 Y78.981 F1080.000 E11.88007
G1 X72.912 Y79.336 F7800.000
G1 X61.328 Y67.753 F1080.000 E12.36690
G1 X61.328 Y68.487 F7800.000
G1 X72.533 Y79.692 F1080.000 E12.83784
G1 X72.509 Y80.401 F7800.000
G1 X61.328 Y69.220 F1080.000 E13.30776
G1 X61.328 Y69.953 F7800.000
G1 X72.509 Y81.134 F1080.000 E13.77767
G1 X72.509 Y81.868 F7800.000
G1 X61.328 Y70.687 F1080.000 E14.24759
G1 X61.328 Y71.421 F7800.000
G1 X72.509 Y82.602 F1080.000 E14.71751
G1 X72.509 Y83.336 F7800.000
G1 X61.328 Y72.155 F1080.000 E15.18742
G1 X61.328 Y72.888 F7800.000
G1 X72.509 Y84.069 F1080.000 E15.65734
G1 X72.509 Y84.802 F7800.000
G1 X61.328 Y73.622 F1080.000 E16.12726
G1 X61.328 Y74.355 F7800.000
G1 X72.509 Y85.536 F1080.000 E16.59718
G1 X72.509 Y86.269 F7800.000
G1 X61.328 Y75.088 F1080.000 E17.06709
G1 X61.328 Y75.822 F7800.000
G1 X72.509 Y87.003 F1080.000 E17.53701
G1 X72.509 Y87.737 F7800.000
G1 X61.328 Y76.556 F1080.000 E18.00693
G1 X61.329 Y77.289 F7800.000
G1 X72.509 Y88.470 F1080.000 E18.47685
G1 X72.509 Y89.204 F7800.000
G1 X61.328 Y78.023 F1080.000 E18.94677
G1 X61.328 Y78.757 F7800.000
G1 X72.509 Y89.937 F1080.000 E19.41669
G1 X72.509 Y90.671 F7800.000
G1 X61.328 Y79.490 F1080.000 E19.88660
G1 X61.328 Y80.223 F7800.000
G1 X72.509 Y91.404 F1080.000 E20.35652
G1 X72.509 Y92.138 F7800.000
G1 X61.328 Y80.957 F1080.000 E20.82644
G1 X61.328 Y81.691 F7800.000
G1 X73.976 Y94.339 F1080.000 E21.35801
G1 X73.243 Y94.338 F7800.000
G1 X61.328 Y82.424 F1080.000 E21.85874
G1 X61.328 Y83.158 F7800.000
G1 X73.009 Y94.839 F1080.000 E22.34967
G1 X73.009 Y95.572 F7800.000
G1 X61.328 Y83.891 F1080.000 E22.84060
G1 X61.328 Y84.625 F7800.000
G1 X73.009 Y96.306 F1080.000 E23.33154
G1 X73.009 Y97.039 F7800.000
G1 X61.328 Y85.358 F1080.000 E23.82247
G1 X61.328 Y86.092 F7800.000
G1 X73.009 Y97.773 F1080.000 E24.31341
G1 X73.009 Y98.507 F7800.000
G1 X61.328 Y86.826 F1080.000 E24.80434
G1 X61.328 Y87.559 F7800.000
G1 X73.009 Y99.240 F1080.000 E25.29527
G1 X73.009 Y99.974 F7800.000
G1 X61.328 Y88.293 F1080.000 E25.78620
G1 X61.328 Y89.026 F7800.000
G1 X73.009 Y100.707 F1080.000 E26.27713
G1 X73.009 Y101.440 F7800.000
G1 X61.329 Y89.760 F1080.000 E26.76806
G1 X61.328 Y90.493 F7800.000
G1 X73.009 Y102.174 F1080.000 E27.25899
G1 X73.009 Y102.908 F7800.000
G1 X61.328 Y91.227 F1080.000 E27.74992
G1 X61.328 Y91.961 F7800.000
G1 X73.009 Y103.642 F1080.000 E28.24086
G1 X73.009 Y104.375 F7800.000
G1 X61.328 Y92.694 F1080.000 E28.73179
G1 X61.328 Y93.428 F7800.000
G1 X73.009 Y105.109 F1080.000 E29.22272
G1 X73.009 Y105.842 F7800.000
G1 X61.328 Y94.161 F1080.000 E29.71365
G1 X61.328 Y94.894 F7800.000
G1 X73.009 Y106.575 F1080.000 E30.20459
G1 X73.009 Y107.309 F7800.000
G1 X61.328 Y95.628 F1080.000 E30.69552
G1 X61.328 Y96.362 F7800.000
G1 X73.009 Y108.043 F1080.000 E31.18646
G1 X73.009 Y108.777 F7800.000
G1 X61.328 Y97.096 F1080.000 E31.67739
G1 X61.328 Y97.829 F7800.000
G1 X73.009 Y109.510 F1080.000 E32.16832
G1 X73.009 Y110.244 F7800.000
G1 X61.328 Y98.563 F1080.000 E32.65925
G1 X61.328 Y99.296 F7800.000
G1 X73.009 Y110.977 F1080.000 E33.15018
G1 X73.009 Y111.710 F7800.000
G1 X61.328 Y100.030 F1080.000 E33.64111
G1 X61.328 Y100.763 F7800.000
G1 X73.009 Y112.444 F1080.000 E34.13204
G1 X73.009 Y113.178 F7800.000
G1 X61.328 Y101.497 F1080.000 E34.62297
G1 X61.328 Y102.231 F7800.000
G1 X73.009 Y113.912 F1080.000 E35.11391
G1 X73.009 Y114.645 F7800.000
G1 X61.328 Y102.964 F1080.000 E35.60484
G1 X61.328 Y103.698 F7800.000
G1 X73.009 Y115.379 F1080.000 E36.09577
G1 X73.009 Y116.112 F7800.000
G1 X61.328 Y104.431 F1080.000 E36.58670
G1 X61.328 Y105.164 F7800.000
G1 X73.009 Y116.845 F1080.000 E37.07764
G1 X73.009 Y117.579 F7800.000
G1 X61.328 Y105.898 F1080.000 E37.56857
G1 X61.328 Y106.632 F7800.000
G1 X73.009 Y118.313 F1080.000 E38.05951
G1 X73.009 Y119.046 F7800.000
G1 X61.329 Y107.365 F1080.000 E38.55044
G1 X61.328 Y108.099 F7800.000
G1 X73.009 Y119.780 F1080.000 E39.04137
G1 X73.009 Y120.514 F7800.000
G1 X61.328 Y108.833 F1080.000 E39.53230
G1 X61.328 Y109.566 F7800.000
G1 X73.009 Y121.247 F1080.000 E40.02323
G1 X73.009 Y121.980 F7800.000
G1 X61.328 Y110.299 F1080.000 E40.51416
G1 X61.328 Y111.033 F7800.000
G1 X73.009 Y122.714 F1080.000 E41.00510
G1 X73.009 Y123.448 F7800.000
G1 X61.328 Y111.767 F1080.000 E41.49602
G1 X61.328 Y112.500 F7800.000
G1 X73.009 Y124.181 F1080.000 E41.98695
G1 X73.009 Y124.915 F7800.000
G1 X61.328 Y113.234 F1080.000 E42.47789
G1 X61.328 Y113.968 F7800.000
G1 X73.009 Y125.649 F1080.000 E42.96883
G1 X73.009 Y126.382 F7800.000
G1 X61.328 Y114.701 F1080.000 E43.45976
G1 X61.328 Y115.434 F7800.000
G1 X73.009 Y127.115 F1080.000 E43.95069
G1 X73.009 Y127.849 F7800.000
G1 X61.328 Y116.168 F1080.000 E44.44164
G1 X61.328 Y116.902 F7800.000
G1 X73.009 Y128.583 F1080.000 E44.93255
G1 X73.009 Y129.316 F7800.000
G1 X61.328 Y117.635 F1080.000 E45.42348
G1 X61.328 Y118.369 F7800.000
G1 X73.009 Y130.050 F1080.000 E45.91442
G1 X73.009 Y130.783 F7800.000
G1 X61.328 Y119.103 F1080.000 E46.40534
G1 X61.329 Y119.836 F7800.000
G1 X73.009 Y131.516 F1080.000 E46.89626
G1 X73.009 Y132.250 F7800.000
G1 X61.328 Y120.569 F1080.000 E47.38720
G1 X61.328 Y121.303 F7800.000
G1 X73.009 Y132.984 F1080.000 E47.87814
G1 X73.009 Y133.718 F7800.000
G1 X61.328 Y122.037 F1080.000 E48.36906
G1 X61.328 Y122.770 F7800.000
G1 X73.009 Y134.451 F1080.000 E48.85999
G1 X73.009 Y135.185 F7800.000
G1 X61.328 Y123.504 F1080.000 E49.35093
G1 X61.328 Y124.238 F7800.000
G1 X73.009 Y135.918 F1080.000 E49.84185
G1 X73.009 Y136.651 F7800.000
G1 X61.328 Y124.971 F1080.000 E50.33278
G1 X61.328 Y125.704 F7800.000
G1 X72.962 Y137.338 F1080.000 E50.82173
G1 X72.229 Y137.339 F7800.000
G1 X61.328 Y126.438 F1080.000 E51.27986
G1 X61.328 Y127.172 F7800.000
G1 X71.495 Y137.339 F1080.000 E51.70716
G1 X70.761 Y137.338 F7800.000
G1 X61.328 Y127.905 F1080.000 E52.10361
G1 X61.328 Y128.639 F7800.000
G1 X70.028 Y137.339 F1080.000 E52.46926
G1 X69.294 Y137.339 F7800.000
G1 X61.328 Y129.373 F1080.000 E52.80407
G1 X61.328 Y130.106 F7800.000
