; generated by Slic3r 0.7.3-dev on 2012-05-09 at 18:19:33

; layer_height = 0.4
; perimeters = 1
; solid_layers = 3
; fill_density = 0.25
; nozzle_diameter = 0.75
; filament_diameter = 3
; extrusion_multiplier = 1
; perimeter_speed = 40
; infill_speed = 70
; travel_speed = 130
; extrusion_width_ratio = 2.3
; scale = 1
; single wall width = 0.92mm

M104 S230 ; set temperature
M92 E380
G92 X0 Y0 Z0  E0.0
G1 Z2.0 F150.0
G1 X-250.0 F2100.0
G1 X-249.0 F300.0
G1 X-251.0 F100.0
G92 X3.0
G1 Y-250.0 F2100.0
G1 Y-249.0 F300.0
G1 Y-251.0 F300.0
G92 Y10.0
G1 Y70.0 F2100.0
G1 Z-250.0 F150.0
G1 Z-249.0 F50.0
G1 Z-251.0 F50.0
G1 Y75.0 E2.0  F1000.0
G1 Y100.0 E2.3  F1000.0
G92 Z0.3
G92 E0.0
M106 S70
M107
M109 S230 ; wait for temperature to be reached
G90 ; use absolute coordinates
G21 ; set units to millimeters
G92 E0 ; reset extrusion distance
M82 ; use absolute distances for extrusion
M107
G1 Z0.400 F7800.000
G1 X55.272 Y75.909
G1 F600.000 E0.50000
G1 X55.532 Y75.859 F1920.000 E0.51324
G1 X56.042 Y75.799 E0.53891
G1 X116.282 Y74.129 E3.55188
G1 X139.292 Y74.189 E4.70231
G1 X140.882 Y74.399 E4.78250
G1 X141.552 Y74.539 E4.81672
G1 X143.112 Y74.989 E4.89789
G1 X144.042 Y75.349 E4.94775
G1 X145.472 Y76.049 E5.02736
G1 X146.092 Y76.409 E5.06320
G1 X146.932 Y76.999 E5.11452
G1 X147.332 Y77.339 E5.14077
G1 X147.692 Y77.719 E5.16694
G1 X148.022 Y78.129 E5.19325
G1 X148.312 Y78.569 E5.21960
G1 X148.562 Y79.029 E5.24578
G1 X148.782 Y79.509 E5.27218
G1 X149.012 Y80.269 E5.31187
G1 X149.072 Y80.519 E5.32473
G1 X149.152 Y81.039 E5.35103
G1 X149.512 Y114.719 E7.03502
G1 X149.442 Y115.239 E7.06126
G1 X149.332 Y115.749 E7.08734
G1 X149.172 Y116.249 E7.11359
G1 X148.972 Y116.739 E7.14005
G1 X148.732 Y117.199 E7.16599
G1 X148.292 Y117.849 E7.20523
G1 X148.132 Y118.059 E7.21843
G1 X147.772 Y118.439 E7.24460
G1 X147.392 Y118.799 E7.27078
G1 X146.972 Y119.119 E7.29717
G1 X146.532 Y119.399 E7.32325
G1 X146.062 Y119.639 E7.34963
G1 X134.282 Y123.939 E7.97661
G1 X133.672 Y124.089 E8.00802
G1 X133.042 Y124.179 E8.03983
G1 X102.732 Y125.199 E9.55610
G1 X102.662 Y125.199 E9.55960
G1 X72.672 Y125.869 E11.05938
G1 X55.952 Y125.849 E11.89532
G1 X55.202 Y125.739 E11.93322
G1 X54.702 Y125.609 E11.95905
G1 X54.222 Y125.439 E11.98451
G1 X53.762 Y125.229 E12.00979
G1 X53.532 Y125.109 E12.02276
G1 X53.312 Y124.979 E12.03554
G1 X52.692 Y124.539 E12.07355
G1 X52.312 Y124.199 E12.09904
G1 X52.132 Y124.019 E12.11177
G1 X51.792 Y123.639 E12.13727
G1 X51.352 Y123.019 E12.17528
G1 X51.222 Y122.799 E12.18805
G1 X50.992 Y122.339 E12.21377
G1 X50.802 Y121.869 E12.23911
G1 X50.652 Y121.379 E12.26473
G1 X50.592 Y121.129 E12.27759
G1 X50.482 Y120.379 E12.31549
G1 X50.482 Y81.279 E14.27036
G1 X50.552 Y80.769 E14.29610
G1 X50.662 Y80.259 E14.32219
G1 X50.812 Y79.769 E14.34781
G1 X51.112 Y79.059 E14.38634
G1 X51.512 Y78.399 E14.42493
G1 X51.662 Y78.189 E14.43783
G1 X51.982 Y77.789 E14.46344
G1 X52.532 Y77.249 E14.50198
G1 X52.942 Y76.929 E14.52798
G1 X53.362 Y76.649 E14.55322
G1 X53.822 Y76.399 E14.57939
G1 X54.532 Y76.109 E14.61774
G1 X55.022 Y75.959 E14.64336
G1 X55.137 Y75.936 E14.64921
G1 F600.000 E14.14921
G92 E0
G1 X75.535 Y105.867 F7800.000
G1 F600.000 E0.50000
G1 X78.002 Y104.845 F1920.000 E0.63352
G1 X80.467 Y105.867 E0.76694
G1 X81.486 Y108.331 E0.90026
G1 X80.467 Y110.798 E1.03372
G1 X78.002 Y111.817 E1.16708
G1 X75.535 Y110.799 E1.30055
G1 X74.516 Y108.331 E1.43402
G1 X75.482 Y105.994 E1.56046
G1 F600.000 E1.06046
G92 E0
G1 X77.105 Y101.791 F7800.000
G1 F600.000 E0.50000
G1 X83.540 Y101.791 F1920.000 E0.82171
G1 X83.540 Y115.871 E1.52566
G1 X72.542 Y115.871 E2.07553
G1 X72.542 Y119.871 E2.27552
G1 X56.462 Y119.871 E3.07947
G1 X56.462 Y81.793 E4.98325
G1 X78.998 Y81.845 E6.10998
G1 X79.984 Y82.002 E6.15991
G1 X80.947 Y82.259 E6.20970
G1 X81.881 Y82.618 E6.25974
G1 X82.769 Y83.070 E6.30956
G1 X83.193 Y83.348 E6.33491
G1 X82.667 Y83.873 E6.37206
G1 X81.753 Y83.873 E6.41777
G1 X81.561 Y83.767 E6.42877
G1 X80.585 Y83.381 E6.48125
G1 X79.569 Y83.119 E6.53371
G1 X78.527 Y82.987 E6.58621
G1 X77.475 Y82.987 E6.63879
G1 X76.433 Y83.119 E6.69129
G1 X75.417 Y83.381 E6.74375
G1 X74.442 Y83.766 E6.79618
G1 X73.521 Y84.272 E6.84873
G1 X72.672 Y84.890 E6.90123
G1 X72.042 Y85.482 E6.94445
G1 X72.042 Y97.182 E7.52941
G1 X72.672 Y97.774 E7.57263
G1 X73.521 Y98.392 E7.62514
G1 X74.442 Y98.899 E7.67768
G1 X75.417 Y99.284 E7.73012
G1 X76.433 Y99.546 E7.78258
G1 X77.475 Y99.677 E7.83507
G1 X78.527 Y99.677 E7.88766
G1 X79.569 Y99.546 E7.94015
G1 X80.585 Y99.284 E7.99261
G1 X81.561 Y98.898 E8.04510
G1 X81.753 Y98.791 E8.05609
G1 X82.667 Y98.791 E8.10180
G1 X83.193 Y99.317 E8.13895
G1 X82.769 Y99.595 E8.16430
G1 X81.881 Y100.047 E8.21413
G1 X80.947 Y100.406 E8.26417
G1 X79.984 Y100.663 E8.31395
G1 X78.998 Y100.819 E8.36389
G1 X77.083 Y100.918 E8.45976
G1 X77.102 Y101.653 E8.49653
G1 F600.000 E7.99653
G92 E0
G1 X104.514 Y107.664 F7800.000
G1 F600.000 E0.50000
G1 X105.533 Y105.200 F1920.000 E0.63334
G1 X108.000 Y104.178 E0.76686
G1 X110.465 Y105.200 E0.90028
G1 X111.484 Y107.664 E1.03360
G1 X110.465 Y110.132 E1.16706
G1 X108.000 Y111.151 E1.30042
G1 X105.533 Y110.132 E1.43389
G1 X104.567 Y107.792 E1.56046
G1 F600.000 E1.06046
G92 E0
G1 X107.103 Y101.125 F7800.000
G1 F600.000 E0.50000
G1 X113.538 Y101.125 F1920.000 E0.82171
G1 X113.538 Y115.205 E1.52566
G1 X102.540 Y115.205 E2.07553
G1 X102.540 Y119.205 E2.27552
G1 X86.460 Y119.205 E3.07947
G1 X86.460 Y81.127 E4.98325
G1 X108.996 Y81.179 E6.10998
G1 X109.982 Y81.335 E6.15991
G1 X110.945 Y81.592 E6.20970
G1 X111.879 Y81.951 E6.25974
G1 X112.767 Y82.403 E6.30956
G1 X113.191 Y82.681 E6.33491
G1 X112.665 Y83.207 E6.37206
G1 X111.751 Y83.207 E6.41777
G1 X111.559 Y83.100 E6.42877
G1 X110.583 Y82.714 E6.48125
G1 X109.567 Y82.452 E6.53371
G1 X108.525 Y82.321 E6.58621
G1 X107.473 Y82.321 E6.63879
G1 X106.431 Y82.452 E6.69129
G1 X105.415 Y82.714 E6.74375
G1 X104.440 Y83.099 E6.79618
G1 X103.519 Y83.606 E6.84873
G1 X102.670 Y84.224 E6.90123
G1 X102.040 Y84.816 E6.94445
G1 X102.040 Y96.516 E7.52941
G1 X102.670 Y97.108 E7.57263
G1 X103.519 Y97.726 E7.62514
G1 X104.440 Y98.232 E7.67768
G1 X105.415 Y98.617 E7.73012
G1 X106.431 Y98.879 E7.78258
G1 X107.473 Y99.011 E7.83507
G1 X108.525 Y99.011 E7.88766
G1 X109.567 Y98.879 E7.94015
G1 X110.583 Y98.617 E7.99261
G1 X111.559 Y98.231 E8.04510
G1 X111.751 Y98.125 E8.05609
G1 X112.665 Y98.125 E8.10180
G1 X113.191 Y98.650 E8.13895
G1 X112.767 Y98.928 E8.16430
G1 X111.879 Y99.380 E8.21413
G1 X110.945 Y99.739 E8.26417
G1 X109.982 Y99.996 E8.31395
G1 X108.996 Y100.153 E8.36389
G1 X107.081 Y100.252 E8.45976
G1 X107.100 Y100.987 E8.49653
G1 F600.000 E7.99653
G92 E0
G1 X134.514 Y106.666 F7800.000
G1 F600.000 E0.50000
G1 X135.533 Y104.202 F1920.000 E0.63334
G1 X138.000 Y103.180 E0.76686
G1 X140.465 Y104.202 E0.90028
G1 X141.484 Y106.666 E1.03360
G1 X140.465 Y109.134 E1.16706
G1 X138.000 Y110.153 E1.30042
G1 X135.533 Y109.134 E1.43389
G1 X134.567 Y106.794 E1.56046
G1 F600.000 E1.06046
G92 E0
G1 X137.103 Y100.127 F7800.000
G1 F600.000 E0.50000
G1 X143.538 Y100.127 F1920.000 E0.82171
G1 X143.538 Y114.207 E1.52566
G1 X132.540 Y114.207 E2.07553
G1 X132.540 Y118.207 E2.27552
G1 X116.460 Y118.207 E3.07947
G1 X116.460 Y80.129 E4.98325
G1 X138.996 Y80.181 E6.10998
G1 X139.982 Y80.337 E6.15991
G1 X140.945 Y80.594 E6.20970
G1 X141.879 Y80.953 E6.25974
G1 X142.767 Y81.405 E6.30956
G1 X143.191 Y81.683 E6.33491
G1 X142.665 Y82.209 E6.37206
G1 X141.751 Y82.209 E6.41777
G1 X141.559 Y82.102 E6.42877
G1 X140.583 Y81.716 E6.48125
G1 X139.567 Y81.454 E6.53371
G1 X138.525 Y81.323 E6.58621
G1 X137.473 Y81.323 E6.63879
G1 X136.431 Y81.454 E6.69129
G1 X135.415 Y81.716 E6.74375
G1 X134.440 Y82.101 E6.79618
G1 X133.519 Y82.608 E6.84873
G1 X132.670 Y83.226 E6.90123
G1 X132.040 Y83.818 E6.94445
G1 X132.040 Y95.518 E7.52941
G1 X132.670 Y96.110 E7.57263
G1 X133.519 Y96.728 E7.62514
G1 X134.440 Y97.234 E7.67768
G1 X135.415 Y97.619 E7.73012
G1 X136.431 Y97.881 E7.78258
G1 X137.473 Y98.013 E7.83507
G1 X138.525 Y98.013 E7.88766
G1 X139.567 Y97.881 E7.94015
G1 X140.583 Y97.619 E7.99261
G1 X141.559 Y97.233 E8.04510
G1 X141.751 Y97.127 E8.05609
G1 X142.665 Y97.127 E8.10180
G1 X143.191 Y97.652 E8.13895
G1 X142.767 Y97.930 E8.16430
G1 X141.879 Y98.382 E8.21413
G1 X140.945 Y98.741 E8.26417
G1 X139.982 Y98.998 E8.31395
G1 X138.996 Y99.155 E8.36389
G1 X137.081 Y99.254 E8.45976
G1 X137.100 Y99.989 E8.49653
G1 F600.000 E7.99653
G92 E0
G1 X82.947 Y103.695 F7800.000
G1 F600.000 E0.50000
G1 X81.637 Y102.384 F3360.000 E0.59376
G1 X80.420 Y102.384 F7800.000
G1 X82.947 Y104.911 F3360.000 E0.77456
G1 X82.947 Y106.127 F7800.000
G1 X79.204 Y102.384 F3360.000 E1.04242
G1 X77.988 Y102.384 F7800.000
G1 X80.863 Y105.259 F3360.000 E1.24818
G1 X81.074 Y105.471 F7800.000
G1 X82.947 Y107.343 F3360.000 E1.38221
G1 X81.919 Y108.748 F7800.000
G1 X82.947 Y109.776 F3360.000 E1.45576
G1 X82.947 Y110.992 F7800.000
G1 X81.529 Y109.574 F3360.000 E1.55728
G1 X81.173 Y110.434 F7800.000
G1 X82.947 Y112.209 F3360.000 E1.68424
G1 X82.947 Y113.425 F7800.000
G1 X80.757 Y111.234 F3360.000 E1.84103
G1 X79.895 Y111.590 F7800.000
G1 X82.947 Y114.642 F3360.000 E2.05940
G1 X82.367 Y115.279 F7800.000
G1 X79.035 Y111.946 F3360.000 E2.29789
G1 X78.174 Y112.302 F7800.000
G1 X81.151 Y115.279 F3360.000 E2.51092
G1 X79.935 Y115.279 F7800.000
G1 X76.711 Y112.055 F3360.000 E2.74162
G1 X75.134 Y111.694 F7800.000
G1 X57.055 Y93.615 F3360.000 E4.03548
G1 X57.055 Y92.399 F7800.000
G1 X74.279 Y109.622 F3360.000 E5.26811
G1 X74.031 Y108.159 F7800.000
G1 X57.055 Y91.182 F3360.000 E6.48306
G1 X57.055 Y89.966 F7800.000
G1 X74.387 Y107.299 F3360.000 E7.72347
G1 X74.743 Y106.438 F7800.000
G1 X57.055 Y88.750 F3360.000 E8.98934
G1 X57.055 Y87.533 F7800.000
G1 X75.099 Y105.577 F3360.000 E10.28067
G1 X75.899 Y105.160 F7800.000
G1 X57.055 Y86.317 F3360.000 E11.62923
G1 X57.055 Y85.100 F7800.000
G1 X76.759 Y104.804 F3360.000 E13.03935
G1 X77.619 Y104.448 F7800.000
G1 X57.055 Y83.884 F3360.000 E14.51102
G1 X57.055 Y82.668 F7800.000
G1 X71.449 Y97.062 F3360.000 E15.54114
G1 X71.449 Y95.845 F7800.000
G1 X57.990 Y82.386 F3360.000 E16.50435
G1 X59.206 Y82.386 F7800.000
G1 X71.449 Y94.629 F3360.000 E17.38052
G1 X71.449 Y93.413 F7800.000
G1 X60.422 Y82.386 F3360.000 E18.16964
G1 X61.639 Y82.386 F7800.000
G1 X71.449 Y92.197 F3360.000 E18.87171
G1 X71.449 Y90.980 F7800.000
G1 X62.855 Y82.387 F3360.000 E19.48673
G1 X64.071 Y82.387 F7800.000
G1 X71.449 Y89.764 F3360.000 E20.01471
G1 X71.449 Y88.548 F7800.000
G1 X65.288 Y82.387 F3360.000 E20.45563
G1 X66.505 Y82.386 F7800.000
G1 X71.449 Y87.331 F3360.000 E20.80951
G1 X71.449 Y86.114 F7800.000
G1 X67.721 Y82.386 F3360.000 E21.07634
G1 X68.937 Y82.386 F7800.000
G1 X71.694 Y85.143 F3360.000 E21.27365
G1 X72.321 Y84.554 F7800.000
G1 X70.153 Y82.386 F3360.000 E21.42878
G1 X71.370 Y82.386 F7800.000
G1 X73.017 Y84.033 F3360.000 E21.54667
G1 X73.767 Y83.567 F7800.000
G1 X72.586 Y82.386 F3360.000 E21.63116
G1 F600.000 E21.13116
G92 E0
G1 X73.776 Y99.389 F7800.000
G1 F600.000 E0.50000
G1 X76.514 Y102.127 F3360.000 E0.69595
G1 X76.772 Y102.384 F7800.000
G1 X78.785 Y104.398 F3360.000 E0.84007
G1 X76.482 Y100.878 F7800.000
G1 X75.630 Y100.027 F3360.000 E0.90100
G1 F600.000 E0.40100
G92 E0
G1 X74.639 Y111.199 F7800.000
G1 F600.000 E0.50000
G1 X78.718 Y115.278 F3360.000 E0.79193
G1 X77.502 Y115.278 F7800.000
G1 X57.055 Y94.831 F3360.000 E2.25525
G1 X57.055 Y96.047 F7800.000
G1 X76.286 Y115.278 F3360.000 E3.63152
G1 X75.070 Y115.278 F7800.000
G1 X57.055 Y97.264 F3360.000 E4.92075
G1 X57.055 Y98.480 F7800.000
G1 X73.853 Y115.278 F3360.000 E6.12293
G1 X72.637 Y115.278 F7800.000
G1 X57.055 Y99.696 F3360.000 E7.23805
G1 X57.055 Y100.913 F7800.000
G1 X71.949 Y115.807 F3360.000 E8.30395
G1 X71.949 Y117.023 F7800.000
G1 X57.055 Y102.129 F3360.000 E9.36985
G1 X57.055 Y103.345 F7800.000
G1 X71.949 Y118.239 F3360.000 E10.43576
G1 X71.771 Y119.279 F7800.000
G1 X57.055 Y104.562 F3360.000 E11.48895
G1 X57.055 Y105.778 F7800.000
G1 X70.555 Y119.279 F3360.000 E12.45510
G1 X69.339 Y119.279 F7800.000
G1 X57.055 Y106.995 F3360.000 E13.33420
G1 X57.055 Y108.211 F7800.000
G1 X68.122 Y119.278 F3360.000 E14.12626
G1 X66.906 Y119.278 F7800.000
G1 X57.055 Y109.427 F3360.000 E14.83126
G1 X57.055 Y110.644 F7800.000
G1 X65.690 Y119.278 F3360.000 E15.44922
G1 X64.473 Y119.278 F7800.000
G1 X57.055 Y111.860 F3360.000 E15.98012
G1 X57.055 Y113.076 F7800.000
G1 X63.257 Y119.278 F3360.000 E16.42398
G1 X62.041 Y119.278 F7800.000
G1 X57.055 Y114.292 F3360.000 E16.78079
G1 X57.055 Y115.509 F7800.000
G1 X60.825 Y119.278 F3360.000 E17.05056
G1 X59.608 Y119.278 F7800.000
G1 X57.055 Y116.725 F3360.000 E17.23327
G1 X57.055 Y117.941 F7800.000
G1 X58.392 Y119.278 F3360.000 E17.32894
G1 F600.000 E16.82894
G92 E0
G1 X87.053 Y117.275 F7800.000
G1 F600.000 E0.50000
G1 X88.390 Y118.611 F3360.000 E0.59564
G1 X89.606 Y118.611 F7800.000
G1 X87.053 Y116.058 F3360.000 E0.77834
G1 X87.053 Y114.842 F7800.000
G1 X90.822 Y118.611 F3360.000 E1.04807
G1 X92.039 Y118.612 F7800.000
G1 X87.053 Y113.626 F3360.000 E1.40491
G1 X87.053 Y112.410 F7800.000
G1 X93.255 Y118.612 F3360.000 E1.84879
G1 X94.472 Y118.612 F7800.000
G1 X87.053 Y111.193 F3360.000 E2.37971
G1 X87.053 Y109.977 F7800.000
G1 X95.688 Y118.612 F3360.000 E2.99767
G1 X96.904 Y118.612 F7800.000
G1 X87.053 Y108.761 F3360.000 E3.70268
G1 X87.053 Y107.544 F7800.000
G1 X98.120 Y118.612 F3360.000 E4.49474
G1 X99.336 Y118.612 F7800.000
G1 X87.053 Y106.328 F3360.000 E5.37384
G1 X87.053 Y105.111 F7800.000
G1 X100.553 Y118.611 F3360.000 E6.33998
G1 X101.770 Y118.611 F7800.000
G1 X87.053 Y103.895 F3360.000 E7.39317
G1 X87.053 Y102.679 F7800.000
G1 X101.947 Y117.573 F3360.000 E8.45906
G1 X101.947 Y116.356 F7800.000
G1 X87.053 Y101.462 F3360.000 E9.52496
G1 X87.053 Y100.246 F7800.000
G1 X101.947 Y115.140 F3360.000 E10.59086
G1 X102.635 Y114.612 F7800.000
G1 X87.053 Y99.030 F3360.000 E11.70600
G1 X87.053 Y97.814 F7800.000
G1 X103.851 Y114.612 F3360.000 E12.90819
G1 X105.068 Y114.612 F7800.000
G1 X87.053 Y96.597 F3360.000 E14.19742
G1 X87.053 Y95.381 F7800.000
G1 X106.284 Y114.612 F3360.000 E15.57370
G1 X107.500 Y114.612 F7800.000
G1 X87.053 Y94.165 F3360.000 E17.03702
G1 X87.053 Y92.948 F7800.000
G1 X105.132 Y111.028 F3360.000 E18.33087
G1 X104.637 Y110.533 F7800.000
G1 X108.716 Y114.612 F3360.000 E18.62280
G1 X109.932 Y114.612 F7800.000
G1 X106.709 Y111.388 F3360.000 E18.85351
G1 X108.173 Y111.635 F7800.000
G1 X111.149 Y114.611 F3360.000 E19.06651
G1 X112.366 Y114.611 F7800.000
G1 X109.034 Y111.279 F3360.000 E19.30496
G1 X109.894 Y110.924 F7800.000
G1 X112.945 Y113.975 F3360.000 E19.52332
G1 X112.945 Y112.759 F7800.000
G1 X110.754 Y110.567 F3360.000 E19.68014
G1 X111.171 Y109.768 F7800.000
G1 X112.945 Y111.542 F3360.000 E19.80711
G1 X112.945 Y110.326 F7800.000
G1 X111.526 Y108.907 F3360.000 E19.90867
G1 X111.917 Y108.082 F7800.000
G1 X112.945 Y109.109 F3360.000 E19.98220
G1 X112.945 Y106.677 F7800.000
G1 X111.072 Y104.804 F3360.000 E20.11620
G1 X110.861 Y104.593 F7800.000
G1 X107.986 Y101.718 F3360.000 E20.32196
G1 X106.770 Y101.718 F7800.000
G1 X108.783 Y103.732 F3360.000 E20.46608
G1 X107.617 Y103.781 F7800.000
G1 X87.053 Y83.217 F3360.000 E21.93774
G1 X87.053 Y82.001 F7800.000
G1 X101.447 Y96.395 F3360.000 E22.96785
G1 X101.447 Y95.179 F7800.000
G1 X87.988 Y81.720 F3360.000 E23.93106
G1 X89.204 Y81.720 F7800.000
G1 X101.447 Y93.963 F3360.000 E24.80723
G1 X101.447 Y92.746 F7800.000
G1 X90.420 Y81.720 F3360.000 E25.59635
G1 X91.637 Y81.720 F7800.000
G1 X101.447 Y91.530 F3360.000 E26.29842
G1 X101.447 Y90.314 F7800.000
G1 X92.853 Y81.720 F3360.000 E26.91344
G1 X94.070 Y81.719 F7800.000
G1 X101.447 Y89.097 F3360.000 E27.44141
G1 X101.447 Y87.881 F7800.000
G1 X95.286 Y81.719 F3360.000 E27.88234
G1 X96.502 Y81.719 F7800.000
G1 X101.447 Y86.664 F3360.000 E28.23622
G1 X101.447 Y85.448 F7800.000
G1 X97.719 Y81.720 F3360.000 E28.50305
G1 X98.935 Y81.720 F7800.000
G1 X101.692 Y84.477 F3360.000 E28.70035
G1 X102.319 Y83.887 F7800.000
G1 X100.151 Y81.720 F3360.000 E28.85549
G1 X101.368 Y81.720 F7800.000
G1 X103.015 Y83.367 F3360.000 E28.97338
G1 X103.764 Y82.900 F7800.000
