; generated by Slic3r 0.7.3-dev on 2012-05-08 at 20:31:23

; layer_height = 0.4
; perimeters = 1
; solid_layers = 3
; fill_density = 0.25
; nozzle_diameter = 0.75
; filament_diameter = 3
; extrusion_multiplier = 1
; perimeter_speed = 40
; infill_speed = 50
; travel_speed = 130
; extrusion_width_ratio = 2.3
; scale = 1
; single wall width = 0.92mm

M104 S230 ; set temperature
M92 E380
G92 X0 Y0 Z0  E0.0
G1 Z2.0 F150.0
G1 X-250.0 F2100.0
G1 X-249.0 F300.0
G1 X-251.0 F100.0
G92 X3.0
G1 Y-250.0 F2100.0
G1 Y-249.0 F300.0
G1 Y-251.0 F300.0
G92 Y10.0
G1 Y70.0 F2100.0
G1 Z-250.0 F150.0
G1 Z-249.0 F50.0
G1 Z-251.0 F50.0
G1 Y75.0 E2.0  F1000.0
G1 Y100.0 E2.3  F1000.0
G92 Z0.3
G92 E0.0
M106 S70
M107
M109 S230 ; wait for temperature to be reached
G90 ; use absolute coordinates
G21 ; set units to millimeters
G92 E0 ; reset extrusion distance
M82 ; use absolute distances for extrusion
G1 Z0.400 F7800.000
G1 X77.920 Y89.100
G1 F600.000 E0.50000
G1 X78.790 Y88.280 F1920.000 E0.55977
G1 X80.340 Y87.100 E0.65717
G1 X80.980 Y86.690 E0.69517
G1 X82.030 Y86.110 E0.75514
G1 X82.740 Y85.780 E0.79429
G1 X83.860 Y85.340 E0.85445
G1 X84.590 Y85.100 E0.89287
G1 X85.750 Y84.810 E0.95265
G1 X86.460 Y84.680 E0.98874
G1 X87.650 Y84.530 E1.04871
G1 X88.400 Y84.480 E1.08629
G1 X111.590 Y84.480 E2.24572
G1 X112.340 Y84.530 E2.28330
G1 X113.530 Y84.680 E2.34326
G1 X114.240 Y84.810 E2.37935
G1 X115.400 Y85.100 E2.43913
G1 X116.130 Y85.340 E2.47755
G1 X117.250 Y85.780 E2.53771
G1 X117.960 Y86.110 E2.57686
G1 X119.010 Y86.690 E2.63683
G1 X119.650 Y87.100 E2.67483
G1 X121.200 Y88.280 E2.77223
G1 X122.070 Y89.100 E2.83200
G1 X122.580 Y89.650 E2.86950
G1 X123.340 Y90.570 E2.92917
G1 X123.780 Y91.180 E2.96677
G1 X124.420 Y92.190 E3.02655
G1 X124.780 Y92.840 E3.06370
G1 X125.290 Y93.920 E3.12342
G1 X125.570 Y94.630 E3.16157
G1 X125.940 Y95.770 E3.22150
G1 X126.120 Y96.470 E3.25763
G1 X126.350 Y97.650 E3.31774
G1 X126.450 Y98.450 E3.35805
G1 X126.520 Y99.650 E3.41815
G1 X126.520 Y100.350 E3.45314
G1 X126.450 Y101.540 E3.51274
G1 X126.350 Y102.340 E3.55305
G1 X126.120 Y103.520 E3.61316
G1 X125.940 Y104.220 E3.64930
G1 X125.570 Y105.360 E3.70922
G1 X125.290 Y106.070 E3.74738
G1 X124.780 Y107.150 E3.80709
G1 X124.420 Y107.800 E3.84424
G1 X123.780 Y108.810 E3.90402
G1 X123.360 Y109.400 E3.94023
G1 X122.600 Y110.330 E4.00028
G1 X122.070 Y110.900 E4.03919
G1 X121.200 Y111.720 E4.09897
G1 X120.590 Y112.220 E4.13840
G1 X119.620 Y112.920 E4.19821
G1 X119.010 Y113.300 E4.23414
G1 X117.960 Y113.880 E4.29411
G1 X117.250 Y114.210 E4.33326
G1 X116.130 Y114.650 E4.39342
G1 X115.440 Y114.880 E4.42978
G1 X114.280 Y115.180 E4.48969
G1 X113.530 Y115.320 E4.52783
G1 X112.340 Y115.470 E4.58780
G1 X111.590 Y115.520 E4.62538
G1 X88.400 Y115.520 E5.78481
G1 X87.650 Y115.470 E5.82239
G1 X86.460 Y115.320 E5.88236
G1 X85.710 Y115.180 E5.92050
G1 X84.550 Y114.880 E5.98041
G1 X83.860 Y114.650 E6.01677
G1 X82.740 Y114.210 E6.07693
G1 X82.030 Y113.880 E6.11608
G1 X80.980 Y113.300 E6.17605
G1 X80.370 Y112.920 E6.21198
G1 X79.400 Y112.220 E6.27179
G1 X78.790 Y111.720 E6.31122
G1 X77.920 Y110.900 E6.37100
G1 X77.390 Y110.330 E6.40991
G1 X76.630 Y109.400 E6.46996
G1 X76.210 Y108.810 E6.50617
G1 X75.570 Y107.800 E6.56595
G1 X75.210 Y107.150 E6.60310
G1 X74.700 Y106.070 E6.66281
G1 X74.420 Y105.360 E6.70097
G1 X74.050 Y104.220 E6.76089
G1 X73.870 Y103.520 E6.79703
G1 X73.640 Y102.340 E6.85714
G1 X73.540 Y101.540 E6.89745
G1 X73.470 Y100.350 E6.95705
G1 X73.470 Y99.650 E6.99204
G1 X73.540 Y98.450 E7.05214
G1 X73.640 Y97.650 E7.09245
G1 X73.870 Y96.470 E7.15256
G1 X74.050 Y95.770 E7.18869
G1 X74.420 Y94.630 E7.24862
G1 X74.700 Y93.920 E7.28678
G1 X75.210 Y92.840 E7.34649
G1 X75.570 Y92.190 E7.38364
G1 X76.210 Y91.180 E7.44342
G1 X76.650 Y90.570 E7.48102
G1 X77.410 Y89.650 E7.54069
G1 X77.826 Y89.201 E7.57129
G1 F600.000 E7.07129
G92 E0
G1 X105.939 Y97.996 F7800.000
G1 F600.000 E0.50000
G1 X106.230 Y97.378 F1920.000 E0.53418
G1 X106.596 Y96.801 E0.56835
G1 X107.032 Y96.274 E0.60253
G1 X107.530 Y95.806 E0.63671
G1 X108.083 Y95.404 E0.67088
G1 X108.682 Y95.075 E0.70506
G1 X109.318 Y94.823 E0.73923
G1 X109.980 Y94.653 E0.77341
G1 X110.658 Y94.568 E0.80758
G1 X111.342 Y94.568 E0.84176
G1 X112.020 Y94.653 E0.87594
G1 X112.682 Y94.823 E0.91011
G1 X113.318 Y95.075 E0.94429
G1 X113.917 Y95.404 E0.97846
G1 X114.470 Y95.806 E1.01264
G1 X114.968 Y96.274 E1.04682
G1 X115.404 Y96.801 E1.08099
G1 X115.770 Y97.378 E1.11517
G1 X116.061 Y97.996 E1.14934
G1 X116.272 Y98.646 E1.18352
G1 X116.400 Y99.318 E1.21769
G1 X116.443 Y100.000 E1.25187
G1 X116.400 Y100.682 E1.28605
G1 X116.272 Y101.354 E1.32022
G1 X116.061 Y102.004 E1.35440
G1 X115.770 Y102.622 E1.38857
G1 X115.404 Y103.199 E1.42275
G1 X114.968 Y103.726 E1.45692
G1 X114.470 Y104.194 E1.49110
G1 X113.917 Y104.596 E1.52528
G1 X113.318 Y104.925 E1.55945
G1 X112.682 Y105.177 E1.59363
G1 X112.020 Y105.347 E1.62780
G1 X111.342 Y105.432 E1.66198
G1 X110.658 Y105.432 E1.69616
G1 X109.980 Y105.347 E1.73033
G1 X109.318 Y105.177 E1.76451
G1 X108.682 Y104.925 E1.79868
G1 X108.083 Y104.596 E1.83286
G1 X107.530 Y104.194 E1.86703
G1 X107.032 Y103.726 E1.90121
G1 X106.596 Y103.199 E1.93539
G1 X106.230 Y102.622 E1.96956
G1 X105.939 Y102.004 E2.00374
G1 X105.728 Y101.354 E2.03791
G1 X105.600 Y100.682 E2.07209
G1 X105.557 Y100.000 E2.10627
G1 X105.600 Y99.318 E2.14044
G1 X105.728 Y98.646 E2.17462
G1 X105.896 Y98.128 E2.20189
G1 F600.000 E1.70189
G92 E0
G1 X102.131 Y96.488 F7800.000
G1 F600.000 E0.50000
G1 X102.641 Y95.405 F1920.000 E0.55989
G1 X103.283 Y94.393 E0.61978
G1 X104.046 Y93.470 E0.67968
G1 X104.920 Y92.650 E0.73957
G1 X105.889 Y91.946 E0.79946
G1 X106.938 Y91.369 E0.85936
G1 X108.052 Y90.928 E0.91925
G1 X109.213 Y90.630 E0.97914
G1 X110.401 Y90.480 E1.03903
G1 X111.599 Y90.480 E1.09893
G1 X112.787 Y90.630 E1.15882
G1 X113.948 Y90.928 E1.21871
G1 X115.062 Y91.369 E1.27861
G1 X116.111 Y91.946 E1.33850
G1 X117.080 Y92.650 E1.39839
G1 X117.954 Y93.470 E1.45828
G1 X118.717 Y94.393 E1.51818
G1 X119.359 Y95.405 E1.57807
G1 X119.869 Y96.488 E1.63796
G1 X120.239 Y97.628 E1.69785
G1 X120.464 Y98.804 E1.75775
G1 X120.539 Y100.000 E1.81764
G1 X120.464 Y101.196 E1.87753
G1 X120.239 Y102.372 E1.93743
G1 X119.869 Y103.512 E1.99732
G1 X119.359 Y104.595 E2.05721
G1 X118.717 Y105.607 E2.11710
G1 X117.954 Y106.530 E2.17699
G1 X117.080 Y107.350 E2.23689
G1 X116.111 Y108.054 E2.29678
G1 X115.062 Y108.631 E2.35667
G1 X113.948 Y109.072 E2.41657
G1 X112.787 Y109.370 E2.47646
G1 X111.599 Y109.520 E2.53635
G1 X110.401 Y109.520 E2.59624
G1 X109.213 Y109.370 E2.65614
G1 X108.052 Y109.072 E2.71603
G1 X106.938 Y108.631 E2.77592
G1 X105.889 Y108.054 E2.83582
G1 X104.920 Y107.350 E2.89571
G1 X104.046 Y106.530 E2.95560
G1 X103.283 Y105.607 E3.01549
G1 X102.641 Y104.595 E3.07539
G1 X102.131 Y103.512 E3.13528
G1 X101.761 Y102.372 E3.19517
G1 X101.536 Y101.196 E3.25507
G1 X101.461 Y100.000 E3.31496
G1 X101.536 Y98.804 E3.37485
G1 X101.761 Y97.628 E3.43474
G1 X102.088 Y96.620 E3.48774
G1 F600.000 E2.98774
G92 E0
G1 X94.272 Y98.646 F7800.000
G1 F600.000 E0.50000
G1 X94.400 Y99.318 F1920.000 E0.53418
G1 X94.443 Y100.000 E0.56835
G1 X94.400 Y100.682 E0.60253
G1 X94.272 Y101.354 E0.63670
G1 X94.061 Y102.004 E0.67088
G1 X93.770 Y102.622 E0.70505
G1 X93.404 Y103.199 E0.73923
G1 X92.968 Y103.726 E0.77341
G1 X92.470 Y104.194 E0.80758
G1 X91.917 Y104.596 E0.84176
G1 X91.318 Y104.925 E0.87593
G1 X90.682 Y105.177 E0.91011
G1 X90.020 Y105.347 E0.94429
G1 X89.342 Y105.432 E0.97846
G1 X88.658 Y105.432 E1.01264
G1 X87.980 Y105.347 E1.04681
G1 X87.318 Y105.177 E1.08099
G1 X86.682 Y104.925 E1.11516
G1 X86.083 Y104.596 E1.14934
G1 X85.530 Y104.194 E1.18352
G1 X85.032 Y103.726 E1.21769
G1 X84.596 Y103.199 E1.25187
G1 X84.230 Y102.622 E1.28604
G1 X83.939 Y102.004 E1.32022
G1 X83.728 Y101.354 E1.35440
G1 X83.600 Y100.682 E1.38857
G1 X83.557 Y100.000 E1.42275
G1 X83.600 Y99.318 E1.45692
G1 X83.728 Y98.646 E1.49110
G1 X83.939 Y97.996 E1.52527
G1 X84.230 Y97.378 E1.55945
G1 X84.596 Y96.801 E1.59363
G1 X85.032 Y96.274 E1.62780
G1 X85.530 Y95.806 E1.66198
G1 X86.083 Y95.404 E1.69615
G1 X86.682 Y95.075 E1.73033
G1 X87.318 Y94.823 E1.76450
G1 X87.980 Y94.653 E1.79868
G1 X88.658 Y94.568 E1.83286
G1 X89.342 Y94.568 E1.86703
G1 X90.020 Y94.653 E1.90121
G1 X90.682 Y94.823 E1.93538
G1 X91.318 Y95.075 E1.96956
G1 X91.917 Y95.404 E2.00374
G1 X92.470 Y95.806 E2.03791
G1 X92.968 Y96.274 E2.07209
G1 X93.404 Y96.801 E2.10626
G1 X93.770 Y97.378 E2.14044
G1 X94.061 Y97.996 E2.17461
G1 X94.230 Y98.515 E2.20189
G1 F600.000 E1.70189
G92 E0
G1 X98.239 Y97.628 F7800.000
G1 F600.000 E0.50000
G1 X98.464 Y98.804 F1920.000 E0.55989
G1 X98.539 Y100.000 E0.61979
G1 X98.464 Y101.196 E0.67968
G1 X98.239 Y102.372 E0.73957
G1 X97.869 Y103.512 E0.79946
G1 X97.359 Y104.595 E0.85936
G1 X96.717 Y105.607 E0.91925
G1 X95.954 Y106.530 E0.97914
G1 X95.080 Y107.350 E1.03903
G1 X94.111 Y108.054 E1.09893
G1 X93.062 Y108.631 E1.15882
G1 X91.948 Y109.072 E1.21871
G1 X90.787 Y109.370 E1.27861
G1 X89.599 Y109.520 E1.33850
G1 X88.401 Y109.520 E1.39839
G1 X87.213 Y109.370 E1.45828
G1 X86.052 Y109.072 E1.51818
G1 X84.938 Y108.631 E1.57807
G1 X83.889 Y108.054 E1.63796
G1 X82.920 Y107.350 E1.69785
G1 X82.046 Y106.530 E1.75775
G1 X81.283 Y105.607 E1.81764
G1 X80.641 Y104.595 E1.87753
G1 X80.131 Y103.512 E1.93742
G1 X79.761 Y102.372 E1.99732
G1 X79.536 Y101.196 E2.05721
G1 X79.461 Y100.000 E2.11710
G1 X79.536 Y98.804 E2.17700
G1 X79.761 Y97.628 E2.23689
G1 X80.131 Y96.488 E2.29678
G1 X80.641 Y95.405 E2.35667
G1 X81.283 Y94.393 E2.41657
G1 X82.046 Y93.470 E2.47646
G1 X82.920 Y92.650 E2.53635
G1 X83.889 Y91.946 E2.59624
G1 X84.938 Y91.369 E2.65614
G1 X86.052 Y90.928 E2.71603
G1 X87.213 Y90.630 E2.77592
G1 X88.401 Y90.480 E2.83582
G1 X89.599 Y90.480 E2.89571
G1 X90.787 Y90.630 E2.95560
G1 X91.948 Y90.928 E3.01549
G1 X93.062 Y91.369 E3.07539
G1 X94.111 Y91.946 E3.13528
G1 X95.080 Y92.650 E3.19517
G1 X95.954 Y93.470 E3.25506
G1 X96.717 Y94.393 E3.31496
G1 X97.359 Y95.405 E3.37485
G1 X97.869 Y96.488 E3.43474
G1 X98.197 Y97.496 E3.48774
G1 X97.307 Y97.004 F7800.000
G1 X92.019 Y91.717 F1920.000 E3.88471
G1 X90.240 Y91.193 F7800.000
G1 X97.795 Y98.748 F1920.000 E4.45192
G1 X97.937 Y100.146 F7800.000
G1 X93.846 Y96.055 F1920.000 E4.75909
G1 X92.996 Y95.205 F7800.000
G1 X88.864 Y91.073 F1920.000 E5.06930
G1 X87.674 Y91.138 F7800.000
G1 X90.667 Y94.132 F1920.000 E5.29404
G1 X89.254 Y93.975 F7800.000
G1 X86.616 Y91.337 F1920.000 E5.49208
G1 X85.661 Y91.637 F7800.000
G1 X88.095 Y94.072 F1920.000 E5.67486
G1 X87.116 Y94.349 F7800.000
G1 X84.789 Y92.021 F1920.000 E5.84959
G1 X83.990 Y92.478 F7800.000
G1 X86.253 Y94.741 F1920.000 E6.01948
G1 X85.488 Y95.232 F7800.000
G1 X83.262 Y93.006 F1920.000 E6.18656
G1 X82.608 Y93.608 F7800.000
G1 X84.813 Y95.813 F1920.000 E6.35212
G1 X84.227 Y96.483 F7800.000
G1 X82.015 Y94.271 F1920.000 E6.51818
G1 X81.485 Y94.997 F7800.000
G1 X83.733 Y97.244 F1920.000 E6.68693
G1 X83.348 Y98.116 F7800.000
G1 X81.021 Y95.788 F1920.000 E6.86167
G1 X80.630 Y96.653 F7800.000
G1 X83.082 Y99.105 F1920.000 E7.04576
G1 X82.963 Y100.242 F7800.000
G1 X80.324 Y97.603 F1920.000 E7.24391
G1 X80.124 Y98.659 F7800.000
G1 X83.129 Y101.664 F1920.000 E7.46955
G1 X84.154 Y103.945 F7800.000
G1 X80.063 Y99.854 F1920.000 E7.77672
G1 X80.205 Y101.252 F7800.000
G1 X87.760 Y108.807 F1920.000 E8.34393
G1 X89.136 Y108.927 F7800.000
G1 X85.004 Y104.795 F1920.000 E8.65415
G1 X87.333 Y105.868 F7800.000
G1 X90.326 Y108.861 F1920.000 E8.87888
G1 X91.384 Y108.663 F7800.000
G1 X88.746 Y106.025 F1920.000 E9.07691
G1 X89.905 Y105.928 F7800.000
G1 X92.339 Y108.363 F1920.000 E9.25969
G1 X93.211 Y107.979 F7800.000
G1 X90.884 Y105.651 F1920.000 E9.43442
G1 X91.747 Y105.259 F7800.000
G1 X94.010 Y107.522 F1920.000 E9.60431
G1 X94.738 Y106.994 F7800.000
G1 X92.512 Y104.768 F1920.000 E9.77138
G1 X93.187 Y104.187 F7800.000
G1 X95.392 Y106.392 F1920.000 E9.93693
G1 X95.985 Y105.729 F7800.000
G1 X93.773 Y103.517 F1920.000 E10.10300
G1 X94.267 Y102.756 F7800.000
G1 X96.515 Y105.003 F1920.000 E10.27176
G1 X96.979 Y104.212 F7800.000
G1 X94.652 Y101.885 F1920.000 E10.44649
G1 X94.918 Y100.895 F7800.000
G1 X97.370 Y103.347 F1920.000 E10.63057
G1 X97.676 Y102.397 F7800.000
G1 X95.037 Y99.758 F1920.000 E10.82872
G1 X94.871 Y98.336 F7800.000
G1 X97.876 Y101.341 F1920.000 E11.05436
G1 F600.000 E10.55436
G92 E0
G1 X85.981 Y108.283 F7800.000
G1 F600.000 E0.50000
G1 X80.693 Y102.996 F1920.000 E0.89697
G1 F600.000 E0.39697
G92 E0
G1 X102.205 Y101.252 F7800.000
G1 F600.000 E0.50000
G1 X109.760 Y108.807 F1920.000 E1.06721
G1 X111.136 Y108.927 F7800.000
G1 X107.004 Y104.795 F1920.000 E1.37742
G1 X106.154 Y103.945 F7800.000
G1 X102.063 Y99.854 F1920.000 E1.68459
G1 X102.124 Y98.659 F7800.000
G1 X105.129 Y101.664 F1920.000 E1.91023
G1 X104.963 Y100.242 F7800.000
G1 X102.324 Y97.603 F1920.000 E2.10838
G1 X102.630 Y96.653 F7800.000
G1 X105.082 Y99.105 F1920.000 E2.29247
G1 X105.348 Y98.116 F7800.000
G1 X103.021 Y95.788 F1920.000 E2.46720
G1 X103.485 Y94.997 F7800.000
G1 X105.733 Y97.244 F1920.000 E2.63596
G1 X106.227 Y96.483 F7800.000
G1 X104.015 Y94.271 F1920.000 E2.80202
G1 X104.608 Y93.608 F7800.000
G1 X106.813 Y95.813 F1920.000 E2.96758
G1 X107.487 Y95.232 F7800.000
G1 X105.262 Y93.007 F1920.000 E3.13465
G1 X105.989 Y92.478 F7800.000
G1 X108.252 Y94.741 F1920.000 E3.30455
G1 X109.116 Y94.349 F7800.000
G1 X106.789 Y92.022 F1920.000 E3.47928
G1 X107.660 Y91.637 F7800.000
G1 X110.095 Y94.072 F1920.000 E3.66206
G1 X111.254 Y93.975 F7800.000
G1 X108.616 Y91.337 F1920.000 E3.86009
G1 X109.673 Y91.139 F7800.000
G1 X112.667 Y94.132 F1920.000 E4.08483
G1 X114.995 Y95.205 F7800.000
G1 X110.863 Y91.073 F1920.000 E4.39504
G1 X112.240 Y91.194 F7800.000
G1 X119.795 Y98.749 F1920.000 E4.96225
G1 X119.937 Y100.147 F7800.000
G1 X115.846 Y96.055 F1920.000 E5.26942
G1 X116.871 Y98.336 F7800.000
G1 X119.876 Y101.342 F1920.000 E5.49506
G1 X119.676 Y102.397 F7800.000
G1 X117.036 Y99.758 F1920.000 E5.69321
G1 X116.918 Y100.895 F7800.000
G1 X119.370 Y103.347 F1920.000 E5.87730
G1 X118.979 Y104.212 F7800.000
G1 X116.652 Y101.885 F1920.000 E6.05203
G1 X116.267 Y102.756 F7800.000
G1 X118.515 Y105.004 F1920.000 E6.22078
G1 X117.984 Y105.729 F7800.000
G1 X115.773 Y103.517 F1920.000 E6.38684
G1 X115.187 Y104.187 F7800.000
G1 X117.392 Y106.392 F1920.000 E6.55240
G1 X116.738 Y106.994 F7800.000
G1 X114.512 Y104.768 F1920.000 E6.71948
G1 X113.747 Y105.259 F7800.000
G1 X116.010 Y107.522 F1920.000 E6.88938
G1 X115.211 Y107.979 F7800.000
G1 X112.884 Y105.651 F1920.000 E7.06411
G1 X111.905 Y105.928 F7800.000
G1 X114.339 Y108.363 F1920.000 E7.24689
G1 X113.384 Y108.663 F7800.000
G1 X110.746 Y106.025 F1920.000 E7.44493
G1 X109.333 Y105.868 F7800.000
G1 X112.326 Y108.861 F1920.000 E7.66966
G1 X107.981 Y108.283 F7800.000
G1 X102.693 Y102.996 F1920.000 E8.06664
G1 F600.000 E7.56664
G92 E0
G1 X114.019 Y91.717 F7800.000
G1 F600.000 E0.50000
G1 X119.306 Y97.004 F1920.000 E0.89697
G1 F600.000 E0.39697
G92 E0
G1 Z0.800 F7800.000
G1 X116.061 Y97.996
G1 F600.000 E0.50000
G1 X116.272 Y98.646 F2400.000 E0.53417
G1 X116.400 Y99.318 E0.56835
G1 X116.443 Y100.000 E0.60253
G1 X116.400 Y100.682 E0.63670
G1 X116.272 Y101.354 E0.67088
G1 X116.061 Y102.004 E0.70505
G1 X115.770 Y102.622 E0.73923
G1 X115.404 Y103.199 E0.77340
G1 X114.968 Y103.726 E0.80758
G1 X114.470 Y104.194 E0.84176
G1 X113.917 Y104.596 E0.87593
G1 X113.318 Y104.925 E0.91011
G1 X112.682 Y105.177 E0.94428
G1 X112.020 Y105.347 E0.97846
G1 X111.342 Y105.432 E1.01263
G1 X110.658 Y105.432 E1.04681
G1 X109.980 Y105.347 E1.08099
G1 X109.318 Y105.177 E1.11516
G1 X108.682 Y104.925 E1.14934
G1 X108.083 Y104.596 E1.18351
G1 X107.530 Y104.194 E1.21769
G1 X107.032 Y103.726 E1.25187
G1 X106.596 Y103.199 E1.28604
G1 X106.230 Y102.622 E1.32022
G1 X105.939 Y102.004 E1.35440
G1 X105.728 Y101.354 E1.38857
G1 X105.600 Y100.682 E1.42274
G1 X105.557 Y100.000 E1.45692
G1 X105.600 Y99.318 E1.49110
G1 X105.728 Y98.646 E1.52527
G1 X105.939 Y97.996 E1.55945
G1 X106.230 Y97.378 E1.59362
G1 X106.596 Y96.801 E1.62780
G1 X107.032 Y96.274 E1.66197
G1 X107.530 Y95.806 E1.69615
G1 X108.083 Y95.404 E1.73033
G1 X108.682 Y95.075 E1.76450
