; generated by Slic3r 0.7.3-dev on 2012-05-10 at 17:36:49

; layer_height = 0.4
; perimeters = 1
; solid_layers = 3
; fill_density = 0.25
; nozzle_diameter = 0.75
; filament_diameter = 3
; extrusion_multiplier = 1
; perimeter_speed = 25
; infill_speed = 30
; travel_speed = 130
; extrusion_width_ratio = 2.3
; scale = 1
; single wall width = 0.92mm

M104 S230 ; set temperature
M92 E380
G92 X0 Y0 Z0  E0.0
G1 Z2.0 F150.0
G1 X-250.0 F2100.0
G1 X-249.0 F300.0
G1 X-251.0 F100.0
G92 X3.0
G1 Y-250.0 F2100.0
G1 Y-249.0 F300.0
G1 Y-251.0 F300.0
G92 Y10.0
G1 Y70.0 F2100.0
G1 Z-250.0 F150.0
G1 Z-249.0 F50.0
G1 Z-251.0 F50.0
G1 Y75.0 E2.0  F1000.0
G1 Y100.0 E2.3  F1000.0
G92 Z0.3
G92 E0.0
M106 S70
M107
M109 S230 ; wait for temperature to be reached
G90 ; use absolute coordinates
G21 ; set units to millimeters
G92 E0 ; reset extrusion distance
M82 ; use absolute distances for extrusion
M107
G1 Z0.400 F7800.000
G1 X77.777 Y67.306
G1 F600.000 E0.50000
G1 X78.257 Y66.786 F1200.000 E0.53538
G1 X79.127 Y65.966 E0.59515
G1 X80.677 Y64.786 E0.69255
G1 X81.317 Y64.376 E0.73055
G1 X82.367 Y63.796 E0.79052
G1 X83.057 Y63.466 E0.82877
G1 X84.167 Y63.026 E0.88846
G1 X84.917 Y62.786 E0.92783
G1 X86.077 Y62.496 E0.98761
G1 X86.787 Y62.366 E1.02370
G1 X87.977 Y62.216 E1.08367
G1 X88.727 Y62.166 E1.12125
G1 X111.927 Y62.166 E2.28118
G1 X112.677 Y62.216 E2.31876
G1 X113.867 Y62.366 E2.37873
G1 X114.577 Y62.496 E2.41481
G1 X115.737 Y62.786 E2.47460
G1 X116.487 Y63.026 E2.51397
G1 X117.597 Y63.466 E2.57366
G1 X118.287 Y63.796 E2.61190
G1 X119.337 Y64.376 E2.67188
G1 X119.977 Y64.786 E2.70988
G1 X120.947 Y65.496 E2.76998
G1 X121.497 Y65.946 E2.80551
G1 X122.377 Y66.766 E2.86565
G1 X122.917 Y67.336 E2.90490
G1 X123.677 Y68.256 E2.96456
G1 X124.117 Y68.866 E3.00217
G1 X124.757 Y69.876 E3.06195
G1 X125.117 Y70.526 E3.09910
G1 X125.627 Y71.606 E3.15881
G1 X125.907 Y72.316 E3.19697
G1 X126.277 Y73.456 E3.25690
G1 X126.457 Y74.156 E3.29303
G1 X126.687 Y75.336 E3.35314
G1 X126.787 Y76.136 E3.39345
G1 X126.117 Y123.856 E5.77953
G1 X126.017 Y124.666 E5.82034
G1 X125.787 Y125.836 E5.87995
G1 X125.607 Y126.526 E5.91561
G1 X125.237 Y127.666 E5.97553
G1 X124.447 Y129.446 E6.07289
G1 X124.087 Y130.116 E6.11092
G1 X123.447 Y131.126 E6.17070
G1 X123.007 Y131.736 E6.20831
G1 X122.247 Y132.656 E6.26797
G1 X121.737 Y133.206 E6.30547
G1 X120.867 Y134.026 E6.36524
G1 X119.317 Y135.206 E6.46264
G1 X118.637 Y135.636 E6.50286
G1 X117.587 Y136.206 E6.56260
G1 X116.917 Y136.516 E6.59951
G1 X115.797 Y136.956 E6.65967
G1 X115.107 Y137.186 E6.69603
G1 X113.947 Y137.486 E6.75594
G1 X113.197 Y137.626 E6.79408
G1 X112.007 Y137.776 E6.85405
G1 X111.257 Y137.826 E6.89163
G1 X88.067 Y137.826 E8.05106
G1 X87.317 Y137.776 E8.08864
G1 X86.127 Y137.626 E8.14861
G1 X85.377 Y137.486 E8.18675
G1 X84.217 Y137.186 E8.24666
G1 X83.527 Y136.956 E8.28302
G1 X82.407 Y136.516 E8.34318
G1 X81.737 Y136.206 E8.38009
G1 X80.687 Y135.636 E8.43983
G1 X80.007 Y135.206 E8.48005
G1 X78.457 Y134.026 E8.57745
G1 X77.587 Y133.206 E8.63722
G1 X77.077 Y132.656 E8.67472
G1 X76.317 Y131.736 E8.73438
G1 X75.877 Y131.126 E8.77199
G1 X75.237 Y130.116 E8.83177
G1 X74.877 Y129.446 E8.86980
G1 X74.087 Y127.666 E8.96716
G1 X73.717 Y126.526 E9.02709
G1 X73.537 Y125.836 E9.06274
G1 X73.307 Y124.666 E9.12235
G1 X73.207 Y123.856 E9.16316
G1 X73.127 Y122.216 E9.24525
G1 X73.877 Y76.086 E11.55191
G1 X73.967 Y75.386 E11.58720
G1 X74.187 Y74.206 E11.64721
G1 X74.377 Y73.456 E11.68589
G1 X74.747 Y72.316 E11.74582
G1 X75.027 Y71.606 E11.78397
G1 X75.537 Y70.526 E11.84369
G1 X75.897 Y69.876 E11.88084
G1 X76.537 Y68.866 E11.94062
G1 X77.007 Y68.226 E11.98032
G1 X77.688 Y67.412 E12.03340
G1 F600.000 E11.53340
G92 E0
G1 X107.750 Y117.718 F7800.000
G1 F600.000 E0.50000
G1 X108.349 Y117.388 F1200.000 E0.53417
G1 X108.985 Y117.137 E0.56835
G1 X109.647 Y116.967 E0.60253
G1 X110.325 Y116.881 E0.63670
G1 X111.008 Y116.881 E0.67088
G1 X111.687 Y116.967 E0.70505
G1 X112.349 Y117.137 E0.73923
G1 X112.984 Y117.388 E0.77341
G1 X113.583 Y117.718 E0.80758
G1 X114.136 Y118.120 E0.84176
G1 X114.635 Y118.587 E0.87593
G1 X115.070 Y119.114 E0.91011
G1 X115.437 Y119.691 E0.94429
G1 X115.728 Y120.310 E0.97846
G1 X115.939 Y120.960 E1.01264
G1 X116.067 Y121.631 E1.04681
G1 X116.110 Y122.314 E1.08099
G1 X116.067 Y122.996 E1.11516
G1 X115.939 Y123.667 E1.14934
G1 X115.728 Y124.317 E1.18351
G1 X115.437 Y124.936 E1.21769
G1 X115.070 Y125.513 E1.25187
G1 X114.635 Y126.040 E1.28604
G1 X114.136 Y126.508 E1.32022
G1 X113.583 Y126.909 E1.35440
G1 X112.984 Y127.239 E1.38857
G1 X112.349 Y127.490 E1.42274
G1 X111.687 Y127.660 E1.45692
G1 X111.008 Y127.746 E1.49109
G1 X110.325 Y127.746 E1.52528
G1 X109.647 Y127.660 E1.55945
G1 X108.985 Y127.490 E1.59363
G1 X108.349 Y127.239 E1.62780
G1 X107.750 Y126.909 E1.66198
G1 X107.197 Y126.508 E1.69615
G1 X106.699 Y126.040 E1.73033
G1 X106.263 Y125.513 E1.76451
G1 X105.897 Y124.936 E1.79868
G1 X105.606 Y124.317 E1.83286
G1 X105.395 Y123.667 E1.86703
G1 X105.266 Y122.996 E1.90121
G1 X105.223 Y122.314 E1.93538
G1 X105.266 Y121.631 E1.96956
G1 X105.395 Y120.960 E2.00373
G1 X105.606 Y120.310 E2.03791
G1 X105.897 Y119.691 E2.07209
G1 X106.263 Y119.114 E2.10626
G1 X106.699 Y118.587 E2.14044
G1 X107.197 Y118.120 E2.17462
G1 X107.638 Y117.799 E2.20189
G1 F600.000 E1.70189
G92 E0
G1 X105.555 Y114.259 F7800.000
G1 F600.000 E0.50000
G1 X106.605 Y113.682 F1200.000 E0.55989
G1 X107.719 Y113.241 E0.61978
G1 X108.879 Y112.943 E0.67968
G1 X110.068 Y112.793 E0.73957
G1 X111.266 Y112.793 E0.79946
G1 X112.454 Y112.943 E0.85936
G1 X113.614 Y113.241 E0.91925
G1 X114.728 Y113.682 E0.97914
G1 X115.778 Y114.259 E1.03904
G1 X116.747 Y114.964 E1.09893
G1 X117.620 Y115.784 E1.15882
G1 X118.384 Y116.707 E1.21871
G1 X119.026 Y117.718 E1.27861
G1 X119.536 Y118.802 E1.33850
G1 X119.906 Y119.941 E1.39839
G1 X120.130 Y121.118 E1.45828
G1 X120.206 Y122.314 E1.51818
G1 X120.130 Y123.509 E1.57807
G1 X119.906 Y124.686 E1.63796
G1 X119.536 Y125.825 E1.69785
G1 X119.026 Y126.909 E1.75775
G1 X118.384 Y127.921 E1.81764
G1 X117.620 Y128.844 E1.87753
G1 X116.747 Y129.664 E1.93743
G1 X115.778 Y130.368 E1.99732
G1 X114.728 Y130.945 E2.05721
G1 X113.614 Y131.386 E2.11710
G1 X112.454 Y131.684 E2.17700
G1 X111.266 Y131.834 E2.23689
G1 X110.068 Y131.834 E2.29678
G1 X108.879 Y131.684 E2.35667
G1 X107.719 Y131.386 E2.41657
G1 X106.605 Y130.945 E2.47646
G1 X105.555 Y130.368 E2.53635
G1 X104.586 Y129.664 E2.59624
G1 X103.713 Y128.844 E2.65614
G1 X102.949 Y127.921 E2.71603
G1 X102.307 Y126.909 E2.77592
G1 X101.797 Y125.825 E2.83582
G1 X101.427 Y124.686 E2.89571
G1 X101.203 Y123.509 E2.95560
G1 X101.128 Y122.314 E3.01549
G1 X101.203 Y121.118 E3.07539
G1 X101.427 Y119.941 E3.13528
G1 X101.797 Y118.802 E3.19517
G1 X102.307 Y117.718 E3.25506
G1 X102.949 Y116.707 E3.31496
G1 X103.713 Y115.784 E3.37485
G1 X104.586 Y114.964 E3.43474
G1 X105.444 Y114.341 E3.48774
G1 F600.000 E2.98774
G92 E0
G1 X109.016 Y105.278 F7800.000
G1 F600.000 E0.50000
G1 X108.417 Y104.949 F1200.000 E0.53417
G1 X107.864 Y104.547 E0.56835
G1 X107.365 Y104.079 E0.60253
G1 X106.930 Y103.552 E0.63670
G1 X106.563 Y102.975 E0.67088
G1 X106.272 Y102.357 E0.70506
G1 X106.061 Y101.707 E0.73923
G1 X105.933 Y101.035 E0.77341
G1 X105.890 Y100.353 E0.80758
G1 X105.933 Y99.671 E0.84176
G1 X106.061 Y98.999 E0.87593
G1 X106.272 Y98.349 E0.91011
G1 X106.563 Y97.731 E0.94428
G1 X106.930 Y97.154 E0.97846
G1 X107.365 Y96.627 E1.01264
G1 X107.864 Y96.159 E1.04681
G1 X108.417 Y95.757 E1.08099
G1 X109.016 Y95.428 E1.11516
G1 X109.651 Y95.176 E1.14934
G1 X110.313 Y95.006 E1.18352
G1 X110.992 Y94.921 E1.21769
G1 X111.675 Y94.921 E1.25187
G1 X112.353 Y95.006 E1.28604
G1 X113.015 Y95.176 E1.32022
G1 X113.651 Y95.428 E1.35440
G1 X114.250 Y95.757 E1.38857
G1 X114.803 Y96.159 E1.42274
G1 X115.301 Y96.627 E1.45692
G1 X115.737 Y97.154 E1.49110
G1 X116.103 Y97.731 E1.52528
G1 X116.394 Y98.349 E1.55945
G1 X116.605 Y98.999 E1.59363
G1 X116.734 Y99.671 E1.62780
G1 X116.777 Y100.353 E1.66198
G1 X116.734 Y101.035 E1.69615
G1 X116.605 Y101.707 E1.73033
G1 X116.394 Y102.357 E1.76450
G1 X116.103 Y102.975 E1.79868
G1 X115.737 Y103.552 E1.83285
G1 X115.301 Y104.079 E1.86703
G1 X114.803 Y104.547 E1.90121
G1 X114.250 Y104.949 E1.93539
G1 X113.651 Y105.278 E1.96956
G1 X113.015 Y105.530 E2.00373
G1 X112.353 Y105.700 E2.03791
G1 X111.675 Y105.785 E2.07208
G1 X110.992 Y105.785 E2.10627
G1 X110.313 Y105.700 E2.14044
G1 X109.651 Y105.530 E2.17462
G1 X109.144 Y105.329 E2.20189
G1 F600.000 E1.70189
G92 E0
G1 X107.272 Y108.984 F7800.000
G1 F600.000 E0.50000
G1 X106.222 Y108.407 F1200.000 E0.55989
G1 X105.253 Y107.703 E0.61978
G1 X104.380 Y106.883 E0.67968
G1 X103.616 Y105.960 E0.73957
G1 X102.974 Y104.949 E0.79946
G1 X102.464 Y103.865 E0.85936
G1 X102.094 Y102.725 E0.91925
G1 X101.870 Y101.549 E0.97914
G1 X101.794 Y100.353 E1.03903
G1 X101.870 Y99.158 E1.09893
G1 X102.094 Y97.981 E1.15882
G1 X102.464 Y96.841 E1.21871
G1 X102.974 Y95.758 E1.27860
G1 X103.616 Y94.746 E1.33850
G1 X104.380 Y93.823 E1.39839
G1 X105.253 Y93.003 E1.45828
G1 X106.222 Y92.299 E1.51817
G1 X107.272 Y91.722 E1.57807
G1 X108.386 Y91.281 E1.63796
G1 X109.546 Y90.983 E1.69785
G1 X110.734 Y90.833 E1.75775
G1 X111.932 Y90.833 E1.81764
G1 X113.121 Y90.983 E1.87753
G1 X114.281 Y91.281 E1.93743
G1 X115.395 Y91.722 E1.99732
G1 X116.445 Y92.299 E2.05721
G1 X117.414 Y93.003 E2.11710
G1 X118.287 Y93.823 E2.17700
G1 X119.051 Y94.746 E2.23689
G1 X119.693 Y95.758 E2.29678
G1 X120.203 Y96.841 E2.35667
G1 X120.573 Y97.981 E2.41657
G1 X120.797 Y99.158 E2.47646
G1 X120.872 Y100.353 E2.53635
G1 X120.797 Y101.549 E2.59624
G1 X120.573 Y102.725 E2.65614
G1 X120.203 Y103.865 E2.71603
G1 X119.693 Y104.949 E2.77592
G1 X119.051 Y105.960 E2.83581
G1 X118.287 Y106.883 E2.89571
G1 X117.414 Y107.703 E2.95560
G1 X116.445 Y108.407 E3.01549
G1 X115.395 Y108.984 E3.07539
G1 X114.281 Y109.425 E3.13528
G1 X113.121 Y109.723 E3.19517
G1 X111.932 Y109.873 E3.25506
G1 X110.734 Y109.873 E3.31496
G1 X109.546 Y109.723 E3.37485
G1 X108.386 Y109.425 E3.43474
G1 X107.400 Y109.035 E3.48774
G1 F600.000 E2.98774
G92 E0
G1 X94.103 Y102.975 F7800.000
G1 F600.000 E0.50000
G1 X93.737 Y103.552 F1200.000 E0.53418
G1 X93.301 Y104.079 E0.56835
G1 X92.803 Y104.547 E0.60253
G1 X92.250 Y104.949 E0.63670
G1 X91.651 Y105.278 E0.67088
G1 X91.015 Y105.530 E0.70506
G1 X90.353 Y105.700 E0.73923
G1 X89.675 Y105.785 E0.77341
G1 X88.992 Y105.785 E0.80758
G1 X88.313 Y105.700 E0.84176
G1 X87.651 Y105.530 E0.87593
G1 X87.016 Y105.278 E0.91011
G1 X86.417 Y104.949 E0.94429
G1 X85.864 Y104.547 E0.97846
G1 X85.365 Y104.079 E1.01264
G1 X84.930 Y103.552 E1.04681
G1 X84.563 Y102.975 E1.08099
G1 X84.272 Y102.357 E1.11516
G1 X84.061 Y101.707 E1.14934
G1 X83.933 Y101.035 E1.18352
G1 X83.890 Y100.353 E1.21769
G1 X83.933 Y99.671 E1.25187
G1 X84.061 Y98.999 E1.28604
G1 X84.272 Y98.349 E1.32022
G1 X84.563 Y97.731 E1.35440
G1 X84.930 Y97.154 E1.38857
G1 X85.365 Y96.627 E1.42275
G1 X85.864 Y96.159 E1.45692
G1 X86.417 Y95.757 E1.49110
G1 X87.016 Y95.428 E1.52527
G1 X87.651 Y95.176 E1.55945
G1 X88.313 Y95.006 E1.59363
G1 X88.992 Y94.921 E1.62780
G1 X89.675 Y94.921 E1.66198
G1 X90.353 Y95.006 E1.69615
G1 X91.015 Y95.176 E1.73033
G1 X91.651 Y95.428 E1.76450
G1 X92.250 Y95.757 E1.79868
G1 X92.803 Y96.159 E1.83286
G1 X93.301 Y96.627 E1.86703
G1 X93.737 Y97.154 E1.90121
G1 X94.103 Y97.731 E1.93538
G1 X94.394 Y98.349 E1.96956
G1 X94.605 Y98.999 E2.00374
G1 X94.734 Y99.671 E2.03791
G1 X94.777 Y100.353 E2.07209
G1 X94.734 Y101.035 E2.10626
G1 X94.605 Y101.707 E2.14044
G1 X94.394 Y102.357 E2.17461
G1 X94.162 Y102.850 E2.20189
G1 F600.000 E1.70189
G92 E0
G1 X97.693 Y104.949 F7800.000
G1 F600.000 E0.50000
G1 X97.051 Y105.960 F1200.000 E0.55989
G1 X96.287 Y106.883 E0.61979
G1 X95.414 Y107.703 E0.67968
G1 X94.445 Y108.407 E0.73957
G1 X93.395 Y108.984 E0.79946
G1 X92.281 Y109.425 E0.85936
G1 X91.121 Y109.723 E0.91925
G1 X89.932 Y109.873 E0.97914
G1 X88.734 Y109.873 E1.03903
G1 X87.546 Y109.723 E1.09893
G1 X86.386 Y109.425 E1.15882
G1 X85.272 Y108.984 E1.21871
G1 X84.222 Y108.407 E1.27860
G1 X83.253 Y107.703 E1.33850
G1 X82.380 Y106.883 E1.39839
G1 X81.616 Y105.960 E1.45828
G1 X80.974 Y104.949 E1.51818
G1 X80.464 Y103.865 E1.57807
G1 X80.094 Y102.725 E1.63796
G1 X79.869 Y101.549 E1.69785
G1 X79.794 Y100.353 E1.75775
G1 X79.869 Y99.158 E1.81764
G1 X80.094 Y97.981 E1.87753
G1 X80.464 Y96.841 E1.93743
G1 X80.974 Y95.758 E1.99732
G1 X81.616 Y94.746 E2.05721
G1 X82.380 Y93.823 E2.11710
G1 X83.253 Y93.003 E2.17700
G1 X84.222 Y92.299 E2.23689
G1 X85.272 Y91.722 E2.29678
G1 X86.386 Y91.281 E2.35667
G1 X87.546 Y90.983 E2.41657
G1 X88.734 Y90.833 E2.47646
G1 X89.932 Y90.833 E2.53635
G1 X91.121 Y90.983 E2.59624
G1 X92.281 Y91.281 E2.65614
G1 X93.395 Y91.722 E2.71603
G1 X94.445 Y92.299 E2.77592
G1 X95.414 Y93.003 E2.83582
G1 X96.287 Y93.823 E2.89571
G1 X97.051 Y94.746 E2.95560
G1 X97.693 Y95.758 E3.01549
G1 X98.203 Y96.841 E3.07539
G1 X98.573 Y97.981 E3.13528
G1 X98.797 Y99.158 E3.19517
G1 X98.872 Y100.353 E3.25506
G1 X98.797 Y101.549 E3.31496
G1 X98.573 Y102.725 E3.37485
G1 X98.203 Y103.865 E3.43474
G1 X97.751 Y104.824 E3.48774
G1 F600.000 E2.98774
G92 E0
G1 X90.984 Y117.388 F7800.000
G1 F600.000 E0.50000
G1 X91.583 Y117.718 F1200.000 E0.53418
G1 X92.136 Y118.120 E0.56835
G1 X92.635 Y118.587 E0.60253
G1 X93.070 Y119.114 E0.63670
G1 X93.437 Y119.691 E0.67088
G1 X93.728 Y120.310 E0.70506
G1 X93.939 Y120.960 E0.73923
G1 X94.067 Y121.631 E0.77341
G1 X94.110 Y122.314 E0.80758
G1 X94.067 Y122.996 E0.84176
G1 X93.939 Y123.667 E0.87593
G1 X93.728 Y124.317 E0.91011
G1 X93.437 Y124.936 E0.94429
G1 X93.070 Y125.513 E0.97846
G1 X92.635 Y126.040 E1.01264
G1 X92.136 Y126.508 E1.04681
G1 X91.583 Y126.909 E1.08099
G1 X90.984 Y127.239 E1.11516
G1 X90.349 Y127.490 E1.14934
G1 X89.687 Y127.660 E1.18352
G1 X89.008 Y127.746 E1.21769
G1 X88.325 Y127.746 E1.25187
G1 X87.647 Y127.660 E1.28604
G1 X86.985 Y127.490 E1.32022
G1 X86.349 Y127.239 E1.35440
G1 X85.750 Y126.909 E1.38857
G1 X85.197 Y126.508 E1.42275
G1 X84.699 Y126.040 E1.45692
G1 X84.263 Y125.513 E1.49110
G1 X83.897 Y124.936 E1.52527
G1 X83.606 Y124.317 E1.55945
G1 X83.395 Y123.667 E1.59363
G1 X83.266 Y122.996 E1.62780
G1 X83.223 Y122.314 E1.66198
G1 X83.266 Y121.631 E1.69615
G1 X83.395 Y120.960 E1.73033
G1 X83.606 Y120.310 E1.76451
G1 X83.897 Y119.691 E1.79868
G1 X84.263 Y119.114 E1.83286
G1 X84.699 Y118.587 E1.86703
G1 X85.197 Y118.120 E1.90121
G1 X85.750 Y117.718 E1.93538
G1 X86.349 Y117.388 E1.96956
G1 X86.985 Y117.137 E2.00374
G1 X87.647 Y116.967 E2.03791
G1 X88.325 Y116.881 E2.07209
G1 X89.008 Y116.881 E2.10626
G1 X89.687 Y116.967 E2.14044
G1 X90.349 Y117.137 E2.17462
G1 X90.856 Y117.338 E2.20189
G1 F600.000 E1.70189
G92 E0
G1 X92.728 Y113.682 F7800.000
G1 F600.000 E0.50000
G1 X93.778 Y114.259 F1200.000 E0.55989
G1 X94.747 Y114.964 E0.61979
G1 X95.620 Y115.784 E0.67968
G1 X96.384 Y116.707 E0.73957
G1 X97.026 Y117.718 E0.79946
G1 X97.536 Y118.802 E0.85936
G1 X97.906 Y119.941 E0.91925
G1 X98.131 Y121.118 E0.97914
G1 X98.206 Y122.314 E1.03903
G1 X98.131 Y123.509 E1.09893
G1 X97.906 Y124.686 E1.15882
G1 X97.536 Y125.825 E1.21871
G1 X97.026 Y126.909 E1.27861
G1 X96.384 Y127.921 E1.33850
G1 X95.620 Y128.844 E1.39839
G1 X94.747 Y129.664 E1.45828
G1 X93.778 Y130.368 E1.51818
G1 X92.728 Y130.945 E1.57807
G1 X91.614 Y131.386 E1.63796
G1 X90.454 Y131.684 E1.69785
G1 X89.266 Y131.834 E1.75775
G1 X88.068 Y131.834 E1.81764
G1 X86.879 Y131.684 E1.87753
G1 X85.719 Y131.386 E1.93743
G1 X84.605 Y130.945 E1.99732
G1 X83.555 Y130.368 E2.05721
G1 X82.586 Y129.664 E2.11710
G1 X81.713 Y128.844 E2.17700
G1 X80.949 Y127.921 E2.23689
G1 X80.307 Y126.909 E2.29678
G1 X79.797 Y125.825 E2.35667
G1 X79.427 Y124.686 E2.41657
G1 X79.203 Y123.509 E2.47646
G1 X79.128 Y122.314 E2.53635
G1 X79.203 Y121.118 E2.59624
G1 X79.427 Y119.941 E2.65614
G1 X79.797 Y118.802 E2.71603
G1 X80.307 Y117.718 E2.77592
G1 X80.949 Y116.707 E2.83582
G1 X81.713 Y115.784 E2.89571
G1 X82.586 Y114.964 E2.95560
G1 X83.555 Y114.259 E3.01549
G1 X84.605 Y113.682 E3.07539
G1 X85.719 Y113.241 E3.13528
G1 X86.879 Y112.943 E3.19517
G1 X88.068 Y112.793 E3.25506
G1 X89.266 Y112.793 E3.31496
G1 X90.454 Y112.943 E3.37485
