; generated by Slic3r 0.7.3-dev on 2012-05-10 at 04:20:43

; layer_height = 0.4
; perimeters = 1
; solid_layers = 3
; fill_density = 0.25
; nozzle_diameter = 0.75
; filament_diameter = 3
; extrusion_multiplier = 1
; perimeter_speed = 60
; infill_speed = 90
; travel_speed = 130
; extrusion_width_ratio = 2.3
; scale = 1
; single wall width = 0.92mm

M104 S230 ; set temperature
M92 E380
G92 X0 Y0 Z0  E0.0
G1 Z2.0 F150.0
G1 X-250.0 F2100.0
G1 X-249.0 F300.0
G1 X-251.0 F100.0
G92 X3.0
G1 Y-250.0 F2100.0
G1 Y-249.0 F300.0
G1 Y-251.0 F300.0
G92 Y10.0
G1 Y70.0 F2100.0
G1 Z-250.0 F150.0
G1 Z-249.0 F50.0
G1 Z-251.0 F50.0
G1 Y75.0 E2.0  F1000.0
G1 Y100.0 E2.3  F1000.0
G92 Z0.3
G92 E0.0
M106 S70
M107
M109 S230 ; wait for temperature to be reached
G90 ; use absolute coordinates
G21 ; set units to millimeters
G92 E0 ; reset extrusion distance
M82 ; use absolute distances for extrusion
M107
G1 Z0.400 F7800.000
G1 X52.026 Y60.733
G1 F600.000 E0.50000
G1 X52.476 Y60.473 F2880.000 E0.52598
G1 X52.716 Y60.353 E0.53940
G1 X53.196 Y60.153 E0.56540
G1 X53.956 Y59.933 E0.60496
G1 X54.466 Y59.843 E0.63085
G1 X54.736 Y59.813 E0.64443
G1 X55.256 Y59.793 E0.67045
G1 X145.246 Y59.813 E5.16967
G1 X145.766 Y59.883 E5.19590
G1 X146.276 Y59.993 E5.22198
G1 X146.776 Y60.153 E5.24823
G1 X147.266 Y60.353 E5.27469
G1 X147.726 Y60.593 E5.30063
G1 X148.376 Y61.033 E5.33988
G1 X148.586 Y61.193 E5.35308
G1 X151.786 Y64.373 E5.57863
G1 X152.126 Y64.773 E5.60488
G1 X152.276 Y64.983 E5.61778
G1 X152.556 Y65.423 E5.64385
G1 X152.906 Y66.113 E5.68254
G1 X153.156 Y66.853 E5.72159
G1 X153.266 Y67.363 E5.74767
G1 X153.336 Y67.873 E5.77341
G1 X153.676 Y131.423 E8.95076
G1 X153.606 Y131.943 E8.97699
G1 X153.556 Y132.203 E8.99023
G1 X153.336 Y132.963 E9.02979
G1 X153.136 Y133.443 E9.05578
G1 X152.756 Y134.133 E9.09517
G1 X152.606 Y134.353 E9.10848
G1 X152.116 Y134.963 E9.14760
G1 X149.096 Y137.973 E9.36078
G1 X148.676 Y138.323 E9.38811
G1 X147.996 Y138.763 E9.42861
G1 X147.506 Y139.013 E9.45611
G1 X146.746 Y139.293 E9.49660
G1 X146.216 Y139.423 E9.52389
G1 X145.676 Y139.503 E9.55118
G1 X96.146 Y140.203 E12.02777
G1 X54.736 Y140.183 E14.09814
G1 X54.216 Y140.113 E14.12438
G1 X53.956 Y140.063 E14.13762
G1 X53.196 Y139.843 E14.17717
G1 X52.716 Y139.643 E14.20317
G1 X52.026 Y139.263 E14.24255
G1 X51.806 Y139.113 E14.25587
G1 X51.196 Y138.623 E14.29499
G1 X48.186 Y135.603 E14.50817
G1 X48.006 Y135.393 E14.52199
G1 X47.686 Y134.963 E14.54879
G1 X47.396 Y134.503 E14.57598
G1 X47.146 Y134.013 E14.60348
G1 X46.866 Y133.253 E14.64398
G1 X46.736 Y132.723 E14.67126
G1 X46.656 Y132.183 E14.69855
G1 X46.636 Y68.073 E17.90385
G1 X46.656 Y67.803 E17.91739
G1 X46.736 Y67.273 E17.94419
G1 X46.866 Y66.743 E17.97147
G1 X47.046 Y66.233 E17.99851
G1 X47.266 Y65.733 E18.02582
G1 X47.536 Y65.263 E18.05292
G1 X48.006 Y64.603 E18.09343
G1 X48.186 Y64.393 E18.10726
G1 X51.196 Y61.373 E18.32044
G1 X51.806 Y60.883 E18.35956
G1 X51.912 Y60.810 E18.36597
G1 F600.000 E17.86597
G92 E0
G1 X126.292 Y91.103 F7800.000
G1 F600.000 E0.50000
G1 X128.933 Y88.464 F2880.000 E0.68663
G1 X144.734 Y88.464 E1.47663
G1 X147.372 Y91.103 E1.66319
G1 X147.372 Y106.903 E2.45319
G1 X144.734 Y109.542 E2.63975
G1 X128.933 Y109.542 E3.42975
G1 X126.292 Y106.903 E3.61639
G1 X126.292 Y91.241 E4.39947
G1 F600.000 E3.89947
G92 E0
G1 X122.372 Y91.103 F7800.000
G1 F600.000 E0.50000
G1 X122.372 Y106.903 F2880.000 E1.29000
G1 X119.734 Y109.542 E1.47656
G1 X103.933 Y109.542 E2.26655
G1 X101.294 Y106.903 E2.45312
G1 X101.294 Y91.103 E3.24311
G1 X103.933 Y88.464 E3.42967
G1 X119.734 Y88.464 E4.21967
G1 X122.275 Y91.005 E4.39933
G1 X121.779 Y92.641 F7800.000
G1 X118.195 Y89.057 F4320.000 E4.65318
G1 X116.987 Y89.057 F7800.000
G1 X121.779 Y93.849 F4320.000 E4.99259
G1 X121.780 Y95.057 F7800.000
G1 X115.779 Y89.057 F4320.000 E5.41754
G1 X114.571 Y89.057 F7800.000
G1 X121.779 Y96.266 F4320.000 E5.92805
G1 X121.779 Y97.473 F7800.000
G1 X113.363 Y89.057 F4320.000 E6.52411
G1 X112.155 Y89.057 F7800.000
G1 X121.779 Y98.681 F4320.000 E7.20572
G1 X121.779 Y99.889 F7800.000
G1 X110.947 Y89.057 F4320.000 E7.97288
G1 X109.739 Y89.057 F7800.000
G1 X121.779 Y101.097 F4320.000 E8.82560
G1 X121.780 Y102.305 F7800.000
G1 X108.532 Y89.057 F4320.000 E9.76387
G1 X107.323 Y89.057 F7800.000
G1 X121.779 Y103.513 F4320.000 E10.78769
G1 X121.779 Y104.721 F7800.000
G1 X106.115 Y89.057 F4320.000 E11.89707
G1 X104.907 Y89.057 F7800.000
G1 X121.779 Y105.929 F4320.000 E13.09199
G1 X121.616 Y106.974 F7800.000
G1 X103.863 Y89.220 F4320.000 E14.34933
G1 X103.259 Y89.824 F7800.000
G1 X121.012 Y107.577 F4320.000 E15.60667
G1 X120.408 Y108.181 F7800.000
G1 X102.655 Y90.428 F4320.000 E16.86401
G1 X102.050 Y91.033 F7800.000
G1 X119.804 Y108.786 F4320.000 E18.12134
G1 X118.759 Y108.949 F7800.000
G1 X101.887 Y92.077 F4320.000 E19.31627
G1 X101.887 Y93.285 F7800.000
G1 X117.551 Y108.949 F4320.000 E20.42565
G1 X116.343 Y108.949 F7800.000
G1 X101.887 Y94.493 F4320.000 E21.44947
G1 X101.888 Y95.701 F7800.000
G1 X115.136 Y108.949 F4320.000 E22.38774
G1 X113.928 Y108.949 F7800.000
G1 X101.888 Y96.909 F4320.000 E23.24045
G1 X101.887 Y98.117 F7800.000
G1 X112.719 Y108.949 F4320.000 E24.00762
G1 X111.511 Y108.949 F7800.000
G1 X101.887 Y99.325 F4320.000 E24.68923
G1 X101.887 Y100.533 F7800.000
G1 X110.303 Y108.949 F4320.000 E25.28529
G1 X109.096 Y108.949 F7800.000
G1 X101.887 Y101.741 F4320.000 E25.79580
G1 X101.888 Y102.949 F7800.000
G1 X107.888 Y108.949 F4320.000 E26.22075
G1 X106.680 Y108.949 F7800.000
G1 X101.888 Y104.156 F4320.000 E26.56015
G1 X101.887 Y105.365 F7800.000
G1 X105.471 Y108.949 F4320.000 E26.81400
G1 F600.000 E26.31400
G92 E0
G1 X126.885 Y105.364 F7800.000
G1 F600.000 E0.50000
G1 X130.470 Y108.949 F4320.000 E0.75389
G1 X131.678 Y108.949 F7800.000
G1 X126.885 Y104.156 F4320.000 E1.09334
G1 X126.885 Y102.949 F7800.000
G1 X132.886 Y108.949 F4320.000 E1.51836
G1 X134.094 Y108.949 F7800.000
G1 X126.885 Y101.741 F4320.000 E2.02894
G1 X126.886 Y100.532 F7800.000
G1 X135.302 Y108.949 F4320.000 E2.62508
G1 X136.510 Y108.949 F7800.000
G1 X126.885 Y99.324 F4320.000 E3.30679
G1 X126.885 Y98.116 F7800.000
G1 X137.718 Y108.949 F4320.000 E4.07406
G1 X138.926 Y108.949 F7800.000
G1 X126.885 Y96.908 F4320.000 E4.92689
G1 X126.886 Y95.700 F7800.000
G1 X140.135 Y108.949 F4320.000 E5.86529
G1 X141.342 Y108.949 F7800.000
G1 X126.885 Y94.492 F4320.000 E6.88925
G1 X126.885 Y93.284 F7800.000
G1 X142.550 Y108.949 F4320.000 E7.99876
G1 X143.758 Y108.949 F7800.000
G1 X126.885 Y92.076 F4320.000 E9.19382
G1 X127.049 Y91.032 F7800.000
G1 X144.803 Y108.786 F4320.000 E10.45130
G1 X145.408 Y108.182 F7800.000
G1 X127.654 Y90.428 F4320.000 E11.70876
G1 X128.258 Y89.824 F7800.000
G1 X146.011 Y107.578 F4320.000 E12.96620
G1 X146.615 Y106.974 F7800.000
G1 X128.862 Y89.221 F4320.000 E14.22364
G1 X129.906 Y89.057 F7800.000
G1 X146.779 Y105.930 F4320.000 E15.41872
G1 X146.779 Y104.722 F7800.000
G1 X131.114 Y89.057 F4320.000 E16.52821
G1 X132.323 Y89.057 F7800.000
G1 X146.780 Y103.513 F4320.000 E17.55215
G1 X146.779 Y102.306 F7800.000
G1 X133.531 Y89.057 F4320.000 E18.49053
G1 X134.739 Y89.057 F7800.000
G1 X146.779 Y101.098 F4320.000 E19.34336
G1 X146.779 Y99.890 F7800.000
G1 X135.947 Y89.057 F4320.000 E20.11061
G1 X137.155 Y89.057 F7800.000
G1 X146.780 Y98.681 F4320.000 E20.79230
G1 X146.779 Y97.473 F7800.000
G1 X138.363 Y89.057 F4320.000 E21.38842
G1 X139.571 Y89.057 F7800.000
G1 X146.779 Y96.265 F4320.000 E21.89899
G1 X146.779 Y95.058 F7800.000
G1 X140.779 Y89.057 F4320.000 E22.32399
G1 X141.987 Y89.057 F7800.000
G1 X146.779 Y93.850 F4320.000 E22.66343
G1 X146.780 Y92.641 F7800.000
G1 X143.195 Y89.057 F4320.000 E22.91730
G1 F600.000 E22.41730
G92 E0
G1 X144.734 Y65.795 F7800.000
G1 F600.000 E0.50000
G1 X147.372 Y68.434 F2880.000 E0.68656
G1 X147.372 Y84.235 E1.47656
G1 X144.734 Y86.873 E1.66312
G1 X128.933 Y86.873 E2.45312
G1 X126.292 Y84.235 E2.63975
G1 X126.292 Y68.434 E3.42974
G1 X128.933 Y65.795 E3.61637
G1 X144.596 Y65.795 E4.39947
G1 F600.000 E3.89947
G92 E0
G1 X122.372 Y68.434 F7800.000
G1 F600.000 E0.50000
G1 X122.372 Y84.235 F2880.000 E1.29000
G1 X119.734 Y86.873 E1.47656
G1 X103.933 Y86.873 E2.26655
G1 X101.294 Y84.235 E2.45312
G1 X101.294 Y68.434 E3.24311
G1 X103.933 Y65.795 E3.42967
G1 X119.734 Y65.795 E4.21967
G1 X122.275 Y68.336 E4.39933
G1 X121.779 Y69.973 F7800.000
G1 X118.195 Y66.388 F4320.000 E4.65318
G1 X116.987 Y66.388 F7800.000
G1 X121.779 Y71.180 F4320.000 E4.99259
G1 X121.780 Y72.388 F7800.000
G1 X115.779 Y66.388 F4320.000 E5.41754
G1 X114.571 Y66.389 F7800.000
G1 X121.779 Y73.597 F4320.000 E5.92805
G1 X121.779 Y74.805 F7800.000
G1 X113.363 Y66.389 F4320.000 E6.52411
G1 X112.155 Y66.388 F7800.000
G1 X121.779 Y76.013 F4320.000 E7.20572
G1 X121.779 Y77.220 F7800.000
G1 X110.947 Y66.388 F4320.000 E7.97288
G1 X109.739 Y66.388 F7800.000
G1 X121.779 Y78.428 F4320.000 E8.82560
G1 X121.780 Y79.636 F7800.000
G1 X108.532 Y66.388 F4320.000 E9.76387
G1 X107.323 Y66.389 F7800.000
G1 X121.779 Y80.845 F4320.000 E10.78769
G1 X121.779 Y82.053 F7800.000
G1 X106.115 Y66.389 F4320.000 E11.89707
G1 X104.907 Y66.388 F7800.000
G1 X121.779 Y83.260 F4320.000 E13.09199
G1 X121.616 Y84.305 F7800.000
G1 X103.863 Y66.552 F4320.000 E14.34933
G1 X103.259 Y67.156 F7800.000
G1 X121.012 Y84.909 F4320.000 E15.60667
G1 X120.408 Y85.513 F7800.000
G1 X102.655 Y67.759 F4320.000 E16.86401
G1 X102.050 Y68.364 F7800.000
G1 X119.804 Y86.117 F4320.000 E18.12134
G1 X118.759 Y86.280 F7800.000
G1 X101.887 Y69.408 F4320.000 E19.31627
G1 X101.887 Y70.616 F7800.000
G1 X117.551 Y86.280 F4320.000 E20.42565
G1 X116.343 Y86.280 F7800.000
G1 X101.887 Y71.824 F4320.000 E21.44947
G1 X101.888 Y73.032 F7800.000
G1 X115.136 Y86.280 F4320.000 E22.38774
G1 X113.928 Y86.280 F7800.000
G1 X101.888 Y74.240 F4320.000 E23.24045
G1 X101.887 Y75.448 F7800.000
G1 X112.719 Y86.281 F4320.000 E24.00762
G1 X111.511 Y86.280 F7800.000
G1 X101.887 Y76.656 F4320.000 E24.68923
G1 X101.887 Y77.864 F7800.000
G1 X110.303 Y86.280 F4320.000 E25.28529
G1 X109.096 Y86.280 F7800.000
G1 X101.887 Y79.072 F4320.000 E25.79580
G1 X101.888 Y80.280 F7800.000
G1 X107.888 Y86.280 F4320.000 E26.22075
G1 X106.680 Y86.280 F7800.000
G1 X101.888 Y81.488 F4320.000 E26.56015
G1 X101.887 Y82.696 F7800.000
G1 X105.471 Y86.281 F4320.000 E26.81400
G1 F600.000 E26.31400
G92 E0
G1 X126.885 Y82.696 F7800.000
G1 F600.000 E0.50000
G1 X130.470 Y86.280 F4320.000 E0.75389
G1 X131.678 Y86.280 F7800.000
G1 X126.885 Y81.488 F4320.000 E1.09334
G1 X126.885 Y80.280 F7800.000
G1 X132.886 Y86.280 F4320.000 E1.51836
G1 X134.094 Y86.281 F7800.000
G1 X126.885 Y79.072 F4320.000 E2.02894
G1 X126.886 Y77.863 F7800.000
G1 X135.302 Y86.280 F4320.000 E2.62508
G1 X136.510 Y86.280 F7800.000
G1 X126.885 Y76.655 F4320.000 E3.30679
G1 X126.885 Y75.448 F7800.000
G1 X137.718 Y86.280 F4320.000 E4.07406
G1 X138.926 Y86.281 F7800.000
G1 X126.885 Y74.240 F4320.000 E4.92689
G1 X126.886 Y73.031 F7800.000
G1 X140.135 Y86.280 F4320.000 E5.86529
G1 X141.342 Y86.280 F7800.000
G1 X126.885 Y71.823 F4320.000 E6.88925
G1 X126.885 Y70.615 F7800.000
G1 X142.550 Y86.280 F4320.000 E7.99876
G1 X143.758 Y86.280 F7800.000
G1 X126.885 Y69.407 F4320.000 E9.19382
G1 X127.049 Y68.364 F7800.000
G1 X144.803 Y86.118 F4320.000 E10.45130
G1 X145.408 Y85.513 F7800.000
G1 X127.654 Y67.759 F4320.000 E11.70876
G1 X128.258 Y67.156 F7800.000
G1 X146.011 Y84.909 F4320.000 E12.96620
G1 X146.615 Y84.305 F7800.000
G1 X128.862 Y66.552 F4320.000 E14.22364
G1 X129.906 Y66.389 F7800.000
G1 X146.779 Y83.262 F4320.000 E15.41872
G1 X146.779 Y82.053 F7800.000
G1 X131.114 Y66.389 F4320.000 E16.52821
G1 X132.323 Y66.388 F7800.000
G1 X146.780 Y80.845 F4320.000 E17.55215
G1 X146.779 Y79.637 F7800.000
G1 X133.531 Y66.388 F4320.000 E18.49053
G1 X134.739 Y66.388 F7800.000
G1 X146.779 Y78.429 F4320.000 E19.34336
G1 X146.779 Y77.221 F7800.000
G1 X135.947 Y66.389 F4320.000 E20.11061
G1 X137.155 Y66.388 F7800.000
G1 X146.780 Y76.013 F4320.000 E20.79230
G1 X146.779 Y74.805 F7800.000
G1 X138.363 Y66.388 F4320.000 E21.38842
G1 X139.571 Y66.388 F7800.000
G1 X146.779 Y73.597 F4320.000 E21.89899
G1 X146.779 Y72.389 F7800.000
G1 X140.779 Y66.388 F4320.000 E22.32399
G1 X141.987 Y66.389 F7800.000
G1 X146.779 Y71.181 F4320.000 E22.66343
G1 X146.780 Y69.972 F7800.000
G1 X143.195 Y66.388 F4320.000 E22.91730
G1 F600.000 E22.41730
G92 E0
G1 X96.067 Y65.799 F7800.000
G1 F600.000 E0.50000
G1 X98.706 Y68.438 F2880.000 E0.68656
G1 X98.706 Y84.239 E1.47656
G1 X96.067 Y86.877 E1.66312
G1 X80.266 Y86.877 E2.45312
G1 X77.626 Y84.239 E2.63975
G1 X77.626 Y68.438 E3.42974
G1 X80.266 Y65.799 E3.61637
G1 X95.929 Y65.799 E4.39947
G1 F600.000 E3.89947
G92 E0
G1 X73.706 Y68.438 F7800.000
G1 F600.000 E0.50000
G1 X73.706 Y84.239 F2880.000 E1.29000
G1 X71.067 Y86.877 E1.47656
G1 X55.266 Y86.877 E2.26655
G1 X52.628 Y84.239 E2.45312
G1 X52.628 Y68.438 E3.24311
G1 X55.266 Y65.799 E3.42967
G1 X71.067 Y65.799 E4.21967
G1 X73.608 Y68.340 E4.39933
G1 X73.113 Y69.977 F7800.000
G1 X69.528 Y66.392 F4320.000 E4.65318
G1 X68.321 Y66.392 F7800.000
G1 X73.113 Y71.184 F4320.000 E4.99259
G1 X73.113 Y72.392 F7800.000
G1 X67.113 Y66.392 F4320.000 E5.41754
G1 X65.904 Y66.393 F7800.000
G1 X73.112 Y73.601 F4320.000 E5.92805
G1 X73.112 Y74.809 F7800.000
G1 X64.696 Y66.393 F4320.000 E6.52411
G1 X63.488 Y66.392 F7800.000
G1 X73.113 Y76.017 F4320.000 E7.20572
G1 X73.113 Y77.224 F7800.000
G1 X62.281 Y66.392 F4320.000 E7.97288
G1 X61.073 Y66.392 F7800.000
G1 X73.113 Y78.432 F4320.000 E8.82560
G1 X73.113 Y79.640 F7800.000
G1 X59.865 Y66.392 F4320.000 E9.76387
G1 X58.656 Y66.393 F7800.000
G1 X73.112 Y80.849 F4320.000 E10.78769
G1 X73.113 Y82.057 F7800.000
G1 X57.448 Y66.393 F4320.000 E11.89707
G1 X56.241 Y66.392 F7800.000
G1 X73.113 Y83.264 F4320.000 E13.09199
G1 X72.949 Y84.309 F7800.000
G1 X55.196 Y66.556 F4320.000 E14.34933
G1 X54.592 Y67.160 F7800.000
G1 X72.345 Y84.913 F4320.000 E15.60667
G1 X71.742 Y85.517 F7800.000
G1 X53.988 Y67.763 F4320.000 E16.86401
G1 X53.384 Y68.368 F7800.000
G1 X71.137 Y86.121 F4320.000 E18.12134
G1 X70.093 Y86.284 F7800.000
G1 X53.220 Y69.412 F4320.000 E19.31627
G1 X53.221 Y70.620 F7800.000
G1 X68.885 Y86.284 F4320.000 E20.42565
G1 X67.677 Y86.284 F7800.000
G1 X53.221 Y71.828 F4320.000 E21.44947
G1 X53.221 Y73.036 F7800.000
G1 X66.469 Y86.284 F4320.000 E22.38774
G1 X65.261 Y86.284 F7800.000
G1 X53.221 Y74.244 F4320.000 E23.24045
G1 X53.220 Y75.452 F7800.000
G1 X64.053 Y86.285 F4320.000 E24.00762
G1 X62.845 Y86.284 F7800.000
G1 X53.221 Y76.660 F4320.000 E24.68923
G1 X53.221 Y77.868 F7800.000
G1 X61.637 Y86.284 F4320.000 E25.28529
G1 X60.429 Y86.284 F7800.000
G1 X53.221 Y79.076 F4320.000 E25.79580
G1 X53.221 Y80.284 F7800.000
G1 X59.221 Y86.284 F4320.000 E26.22075
G1 X58.013 Y86.284 F7800.000
G1 X53.221 Y81.492 F4320.000 E26.56015
G1 X53.220 Y82.700 F7800.000
G1 X56.805 Y86.285 F4320.000 E26.81400
G1 F600.000 E26.31400
G92 E0
G1 X78.219 Y82.700 F7800.000
G1 F600.000 E0.50000
G1 X81.803 Y86.284 F4320.000 E0.75389
G1 X83.011 Y86.284 F7800.000
G1 X78.219 Y81.492 F4320.000 E1.09334
G1 X78.218 Y80.284 F7800.000
G1 X84.219 Y86.284 F4320.000 E1.51836
G1 X85.427 Y86.285 F7800.000
G1 X78.218 Y79.076 F4320.000 E2.02894
G1 X78.219 Y77.867 F7800.000
G1 X86.636 Y86.284 F4320.000 E2.62508
G1 X87.844 Y86.284 F7800.000
G1 X78.219 Y76.659 F4320.000 E3.30679
G1 X78.219 Y75.452 F7800.000
G1 X89.051 Y86.284 F4320.000 E4.07406
G1 X90.259 Y86.285 F7800.000
G1 X78.218 Y74.244 F4320.000 E4.92689
G1 X78.219 Y73.035 F7800.000
G1 X91.468 Y86.284 F4320.000 E5.86529
G1 X92.676 Y86.284 F7800.000
G1 X78.219 Y71.827 F4320.000 E6.88925
G1 X78.219 Y70.619 F7800.000
G1 X93.883 Y86.284 F4320.000 E7.99876
G1 X95.091 Y86.284 F7800.000
G1 X78.219 Y69.411 F4320.000 E9.19382
G1 X78.382 Y68.368 F7800.000
G1 X96.136 Y86.122 F4320.000 E10.45130
G1 X96.741 Y85.517 F7800.000
G1 X78.987 Y67.763 F4320.000 E11.70876
G1 X79.591 Y67.160 F7800.000
G1 X97.345 Y84.913 F4320.000 E12.96620
G1 X97.949 Y84.309 F7800.000
G1 X80.195 Y66.556 F4320.000 E14.22364
G1 X81.240 Y66.393 F7800.000
G1 X98.113 Y83.265 F4320.000 E15.41872
G1 X98.112 Y82.057 F7800.000
G1 X82.448 Y66.393 F4320.000 E16.52821
G1 X83.656 Y66.392 F7800.000
