; generated by Slic3r 0.7.3-dev on 2012-05-07 at 05:59:35

; layer_height = 0.4
; perimeters = 2
; solid_layers = 3
; fill_density = 0.25
; nozzle_diameter = 0.75
; filament_diameter = 3
; extrusion_multiplier = 1
; perimeter_speed = 30
; infill_speed = 30
; travel_speed = 130
; extrusion_width_ratio = 2.3
; scale = 1
; single wall width = 0.92mm

M104 S230 ; set temperature
M92 E380
G92 X0 Y0 Z0  E0.0
G1 Z2.0 F150.0
G1 X-250.0 F2100.0
G1 X-249.0 F300.0
G1 X-251.0 F100.0
G92 X3.0
G1 Y-250.0 F2100.0
G1 Y-249.0 F300.0
G1 Y-251.0 F300.0
G92 Y10.0
G1 Y70.0 F2100.0
G1 Z-250.0 F150.0
G1 Z-249.0 F50.0
G1 Z-251.0 F50.0
G1 Y75.0 E2.0  F1000.0
G1 Y100.0 E2.3  F1000.0
G92 Z0.3
G92 E0.0
M106 S70
M107
M109 S230 ; wait for temperature to be reached
G90 ; use absolute coordinates
G21 ; set units to millimeters
G92 E0 ; reset extrusion distance
M82 ; use absolute distances for extrusion
G1 Z0.400 F7800.000
G1 X72.721 Y87.851
G1 F600.000 E0.50000
G1 X75.731 Y84.861 F1440.000 E0.71212
G1 X76.371 Y84.401 E0.75153
G1 X76.591 Y84.261 E0.76456
G1 X77.051 Y84.021 E0.79050
G1 X77.541 Y83.821 E0.81696
G1 X78.041 Y83.661 E0.84321
G1 X78.551 Y83.551 E0.86930
G1 X79.071 Y83.481 E0.89553
G1 X79.591 Y83.461 E0.92155
G1 X120.911 Y83.481 E2.98742
G1 X121.431 Y83.551 E3.01365
G1 X121.941 Y83.661 E3.03974
G1 X122.681 Y83.911 E3.07879
G1 X123.151 Y84.131 E3.10473
G1 X123.611 Y84.401 E3.13140
G1 X124.041 Y84.691 E3.15733
G1 X124.441 Y85.031 E3.18358
G1 X127.451 Y88.031 E3.39605
G1 X127.941 Y88.641 E3.43517
G1 X128.091 Y88.861 E3.44848
G1 X128.351 Y89.311 E3.47447
G1 X128.471 Y89.551 E3.48788
G1 X128.671 Y90.031 E3.51388
G1 X128.891 Y90.791 E3.55344
G1 X128.981 Y91.301 E3.57933
G1 X129.011 Y91.571 E3.59291
G1 X129.011 Y108.411 E4.43486
G1 X128.941 Y108.931 E4.46109
G1 X128.831 Y109.441 E4.48718
G1 X128.671 Y109.941 E4.51343
G1 X128.471 Y110.431 E4.53989
G1 X128.231 Y110.891 E4.56583
G1 X127.791 Y111.541 E4.60507
G1 X127.631 Y111.751 E4.61827
G1 X124.251 Y115.131 E4.85726
G1 X123.611 Y115.591 E4.89666
G1 X123.391 Y115.731 E4.90970
G1 X122.931 Y115.971 E4.93564
G1 X122.441 Y116.171 E4.96210
G1 X121.941 Y116.331 E4.98835
G1 X121.431 Y116.441 E5.01443
G1 X120.911 Y116.511 E5.04067
G1 X120.391 Y116.531 E5.06668
G1 X79.071 Y116.511 E7.13255
G1 X78.551 Y116.441 E7.15879
G1 X78.291 Y116.391 E7.17203
G1 X77.531 Y116.171 E7.21158
G1 X77.051 Y115.971 E7.23758
G1 X76.361 Y115.591 E7.27696
G1 X76.141 Y115.441 E7.29028
G1 X75.531 Y114.951 E7.32940
G1 X72.531 Y111.941 E7.54187
G1 X72.191 Y111.541 E7.56812
G1 X71.761 Y110.881 E7.60750
G1 X71.631 Y110.651 E7.62071
G1 X71.411 Y110.181 E7.64665
G1 X71.161 Y109.441 E7.68571
G1 X71.051 Y108.931 E7.71179
G1 X70.981 Y108.411 E7.73802
G1 X70.981 Y91.571 E8.57997
G1 X71.051 Y91.051 E8.60620
G1 X71.161 Y90.541 E8.63229
G1 X71.321 Y90.041 E8.65854
G1 X71.521 Y89.551 E8.68500
G1 X71.761 Y89.091 E8.71094
G1 X72.201 Y88.441 E8.75018
G1 X72.361 Y88.231 E8.76338
G1 X72.626 Y87.951 E8.78265
G1 F600.000 E8.28265
G92 E0
G1 X102.812 Y92.453 F7800.000
G1 F600.000 E0.50000
G1 X104.953 Y90.314 F1440.000 E0.65129
G1 X120.047 Y90.314 E1.40596
G1 X122.186 Y92.453 E1.55718
G1 X122.186 Y107.547 E2.31184
G1 X120.047 Y109.686 E2.46306
G1 X104.953 Y109.686 E3.21773
G1 X102.812 Y107.547 E3.36902
G1 X102.812 Y92.591 E4.11675
G1 X101.959 Y92.100 F7800.000
G1 X104.599 Y89.461 F1440.000 E4.30338
G1 X120.400 Y89.461 E5.09339
G1 X123.039 Y92.100 E5.27995
G1 X123.039 Y107.900 E6.06994
G1 X120.400 Y110.539 E6.25650
G1 X104.599 Y110.539 E7.04651
G1 X101.959 Y107.900 E7.23314
G1 X101.959 Y92.238 E8.01623
G1 F600.000 E7.51623
G92 E0
G1 X97.186 Y92.453 F7800.000
G1 F600.000 E0.50000
G1 X97.186 Y107.547 F1440.000 E1.25466
G1 X95.047 Y109.686 E1.40588
G1 X79.953 Y109.686 E2.16053
G1 X77.814 Y107.547 E2.31176
G1 X77.814 Y92.453 E3.06641
G1 X79.953 Y90.314 E3.21763
G1 X95.047 Y90.314 E3.97229
G1 X97.088 Y92.355 E4.11661
G1 X98.039 Y92.100 F7800.000
G1 X98.039 Y107.900 F1440.000 E4.90661
G1 X95.400 Y110.539 E5.09317
G1 X79.600 Y110.539 E5.88317
G1 X76.961 Y107.900 E6.06973
G1 X76.961 Y92.100 E6.85972
G1 X79.600 Y89.461 E7.04628
G1 X95.400 Y89.461 E7.83628
G1 X97.941 Y92.002 E8.01594
G1 X96.593 Y93.992 F7800.000
G1 X93.508 Y90.907 F1920.000 E8.23443
G1 X92.300 Y90.907 F7800.000
G1 X96.593 Y95.200 F1920.000 E8.53848
G1 X96.592 Y96.408 F7800.000
G1 X91.092 Y90.908 F1920.000 E8.92811
G1 X89.884 Y90.907 F7800.000
G1 X96.593 Y97.616 F1920.000 E9.40330
G1 X96.593 Y98.824 F7800.000
G1 X88.676 Y90.907 F1920.000 E9.96407
G1 X87.468 Y90.907 F7800.000
G1 X96.593 Y100.032 F1920.000 E10.61040
G1 X96.593 Y101.240 F7800.000
G1 X86.260 Y90.907 F1920.000 E11.34230
G1 X85.052 Y90.907 F7800.000
G1 X96.593 Y102.448 F1920.000 E12.15978
G1 X96.593 Y103.656 F7800.000
G1 X83.844 Y90.907 F1920.000 E13.06282
G1 X82.636 Y90.907 F7800.000
G1 X96.593 Y104.865 F1920.000 E14.05143
G1 X96.593 Y106.073 F7800.000
G1 X81.427 Y90.907 F1920.000 E15.12562
G1 X80.219 Y90.907 F7800.000
G1 X96.593 Y107.281 F1920.000 E16.28537
G1 X96.075 Y107.971 F7800.000
G1 X79.529 Y91.425 F1920.000 E17.45739
G1 X78.925 Y92.029 F7800.000
G1 X95.471 Y108.575 F1920.000 E18.62941
G1 X94.781 Y109.093 F7800.000
G1 X78.407 Y92.719 F1920.000 E19.78916
G1 X78.407 Y93.927 F7800.000
G1 X93.573 Y109.093 F1920.000 E20.86335
G1 X92.365 Y109.093 F7800.000
G1 X78.407 Y95.136 F1920.000 E21.85196
G1 X78.407 Y96.344 F7800.000
G1 X91.156 Y109.093 F1920.000 E22.75500
G1 X89.948 Y109.093 F7800.000
G1 X78.407 Y97.552 F1920.000 E23.57248
G1 X78.407 Y98.760 F7800.000
G1 X88.740 Y109.093 F1920.000 E24.30438
G1 X87.532 Y109.093 F7800.000
G1 X78.407 Y99.968 F1920.000 E24.95071
G1 X78.407 Y101.176 F7800.000
G1 X86.324 Y109.093 F1920.000 E25.51147
G1 X85.116 Y109.093 F7800.000
G1 X78.407 Y102.384 F1920.000 E25.98667
G1 X78.407 Y103.592 F7800.000
G1 X83.908 Y109.093 F1920.000 E26.37629
G1 X82.700 Y109.093 F7800.000
G1 X78.407 Y104.800 F1920.000 E26.68035
G1 X78.407 Y106.008 F7800.000
G1 X81.492 Y109.093 F1920.000 E26.89884
G1 F600.000 E26.39884
G92 E0
G1 X103.405 Y106.007 F7800.000
G1 F600.000 E0.50000
G1 X106.491 Y109.092 F1920.000 E0.71853
G1 X107.698 Y109.093 F7800.000
G1 X103.405 Y104.800 F1920.000 E1.02265
G1 X103.405 Y103.592 F7800.000
G1 X108.906 Y109.093 F1920.000 E1.41234
G1 X110.114 Y109.093 F7800.000
G1 X103.405 Y102.384 F1920.000 E1.88762
G1 X103.405 Y101.175 F7800.000
G1 X111.323 Y109.093 F1920.000 E2.44847
G1 X112.531 Y109.093 F7800.000
G1 X103.405 Y99.967 F1920.000 E3.09491
G1 X103.405 Y98.759 F7800.000
G1 X113.739 Y109.093 F1920.000 E3.82692
G1 X114.948 Y109.092 F7800.000
G1 X103.406 Y97.550 F1920.000 E4.64452
G1 X103.405 Y96.343 F7800.000
G1 X116.155 Y109.093 F1920.000 E5.54770
G1 X117.363 Y109.093 F7800.000
G1 X103.405 Y95.135 F1920.000 E6.53645
G1 X103.405 Y93.927 F7800.000
G1 X118.571 Y109.093 F1920.000 E7.61079
G1 X119.780 Y109.093 F7800.000
G1 X103.405 Y92.718 F1920.000 E8.77070
G1 X103.924 Y92.028 F7800.000
G1 X120.471 Y108.576 F1920.000 E9.94286
G1 X121.075 Y107.972 F7800.000
G1 X104.528 Y91.425 F1920.000 E11.11499
G1 X105.219 Y90.907 F7800.000
G1 X121.593 Y107.281 F1920.000 E12.27488
G1 X121.593 Y106.073 F7800.000
G1 X106.427 Y90.907 F1920.000 E13.34919
G1 X107.635 Y90.907 F7800.000
G1 X121.593 Y104.865 F1920.000 E14.33792
G1 X121.592 Y103.657 F7800.000
G1 X108.843 Y90.908 F1920.000 E15.24107
G1 X110.051 Y90.907 F7800.000
G1 X121.593 Y102.449 F1920.000 E16.05863
G1 X121.593 Y101.241 F7800.000
G1 X111.259 Y90.907 F1920.000 E16.79062
G1 X112.467 Y90.907 F7800.000
G1 X121.593 Y100.033 F1920.000 E17.43703
G1 X121.592 Y98.825 F7800.000
G1 X113.675 Y90.908 F1920.000 E17.99786
G1 X114.884 Y90.907 F7800.000
G1 X121.593 Y97.616 F1920.000 E18.47310
G1 X121.593 Y96.408 F7800.000
G1 X116.092 Y90.907 F1920.000 E18.86277
G1 X117.300 Y90.908 F7800.000
G1 X121.592 Y95.200 F1920.000 E19.16685
G1 X121.593 Y93.992 F7800.000
G1 X118.508 Y90.907 F1920.000 E19.38536
G1 F600.000 E18.88536
G92 E0
G1 Z0.800 F7800.000
G1 X120.047 Y90.314
G1 F600.000 E0.50000
G1 X122.186 Y92.453 F1800.000 E0.65122
G1 X122.186 Y107.547 E1.40588
G1 X120.047 Y109.686 E1.55710
G1 X104.953 Y109.686 E2.31177
G1 X102.812 Y107.547 E2.46306
G1 X102.812 Y92.453 E3.21769
G1 X104.953 Y90.314 E3.36898
G1 X119.909 Y90.314 E4.11675
G1 X120.400 Y89.461 F7800.000
G1 X123.039 Y92.100 F1800.000 E4.30331
G1 X123.039 Y107.900 E5.09331
G1 X120.400 Y110.539 E5.27987
G1 X104.599 Y110.539 E6.06987
G1 X101.959 Y107.900 E6.25650
G1 X101.959 Y92.100 E7.04649
G1 X104.599 Y89.461 E7.23312
G1 X120.262 Y89.461 E8.01623
G1 F600.000 E7.51623
G92 E0
G1 X97.186 Y92.453 F7800.000
G1 F600.000 E0.50000
G1 X97.186 Y107.547 F1800.000 E1.25466
G1 X95.047 Y109.686 E1.40588
G1 X79.953 Y109.686 E2.16053
G1 X77.814 Y107.547 E2.31176
G1 X77.814 Y92.453 E3.06641
G1 X79.953 Y90.314 E3.21763
G1 X95.047 Y90.314 E3.97229
G1 X97.088 Y92.355 E4.11661
G1 X98.039 Y92.100 F7800.000
G1 X98.039 Y107.900 F1800.000 E4.90661
G1 X95.400 Y110.539 E5.09317
G1 X79.600 Y110.539 E5.88317
G1 X76.961 Y107.900 E6.06973
G1 X76.961 Y92.100 E6.85972
G1 X79.600 Y89.461 E7.04628
G1 X95.400 Y89.461 E7.83628
G1 X97.941 Y92.002 E8.01594
G1 X96.593 Y92.719 F7800.000
G1 X80.219 Y109.093 F2400.000 E9.17571
G1 X79.529 Y108.575 F7800.000
G1 X96.075 Y92.029 F2400.000 E10.34772
G1 X95.471 Y91.425 F7800.000
G1 X78.925 Y107.972 F2400.000 E11.51973
G1 X78.407 Y107.280 F7800.000
G1 X94.781 Y90.907 F2400.000 E12.67949
G1 X93.573 Y90.907 F7800.000
G1 X78.407 Y106.072 F2400.000 E13.75370
G1 X78.407 Y104.865 F7800.000
G1 X92.364 Y90.908 F2400.000 E14.74230
G1 X91.157 Y90.908 F7800.000
G1 X78.408 Y103.657 F2400.000 E15.64534
G1 X78.407 Y102.448 F7800.000
G1 X89.948 Y90.907 F2400.000 E16.46282
G1 X88.740 Y90.907 F7800.000
G1 X78.407 Y101.240 F2400.000 E17.19475
G1 X78.407 Y100.032 F7800.000
G1 X87.532 Y90.908 F2400.000 E17.84106
G1 X86.324 Y90.907 F7800.000
G1 X78.407 Y98.824 F2400.000 E18.40183
G1 X78.407 Y97.616 F7800.000
G1 X85.116 Y90.907 F2400.000 E18.87702
G1 X83.908 Y90.907 F7800.000
G1 X78.407 Y96.408 F2400.000 E19.26665
G1 X78.407 Y95.200 F7800.000
G1 X82.700 Y90.907 F2400.000 E19.57070
G1 X81.492 Y90.907 F7800.000
G1 X78.407 Y93.992 F2400.000 E19.78919
G1 F600.000 E19.28919
G92 E0
G1 X81.427 Y109.093 F7800.000
G1 F600.000 E0.50000
G1 X96.593 Y93.927 F2400.000 E1.57421
G1 X96.593 Y95.136 F7800.000
G1 X82.636 Y109.093 F2400.000 E2.56281
G1 X83.844 Y109.093 F7800.000
G1 X96.593 Y96.344 F2400.000 E3.46585
G1 X96.593 Y97.551 F7800.000
G1 X85.052 Y109.093 F2400.000 E4.28333
G1 X86.260 Y109.093 F7800.000
G1 X96.593 Y98.759 F2400.000 E5.01526
G1 X96.593 Y99.968 F7800.000
G1 X87.468 Y109.093 F2400.000 E5.66158
G1 X88.676 Y109.093 F7800.000
G1 X96.593 Y101.176 F2400.000 E6.22234
G1 X96.593 Y102.384 F7800.000
G1 X89.884 Y109.093 F2400.000 E6.69753
G1 X91.092 Y109.093 F7800.000
G1 X96.593 Y103.592 F2400.000 E7.08716
G1 X96.592 Y104.800 F7800.000
G1 X92.300 Y109.092 F2400.000 E7.39122
G1 X93.508 Y109.093 F7800.000
G1 X96.593 Y106.008 F2400.000 E7.60970
G1 X103.405 Y106.074 F7800.000
G1 X118.572 Y90.907 F2400.000 E8.68406
G1 X119.780 Y90.907 F7800.000
G1 X103.405 Y107.281 F2400.000 E9.84398
G1 X103.924 Y107.971 F7800.000
G1 X120.471 Y91.424 F2400.000 E11.01611
G1 X121.075 Y92.028 F7800.000
G1 X104.528 Y108.575 F2400.000 E12.18825
G1 X105.218 Y109.093 F7800.000
G1 X121.593 Y92.718 F2400.000 E13.34816
G1 X121.593 Y93.927 F7800.000
G1 X106.427 Y109.093 F2400.000 E14.42248
G1 X107.635 Y109.093 F7800.000
G1 X121.593 Y95.135 F2400.000 E15.41119
G1 X121.593 Y96.343 F7800.000
G1 X108.843 Y109.093 F2400.000 E16.31434
G1 X110.051 Y109.092 F7800.000
G1 X121.593 Y97.551 F2400.000 E17.13190
G1 X121.593 Y98.759 F7800.000
G1 X111.260 Y109.093 F2400.000 E17.86390
G1 X112.467 Y109.093 F7800.000
G1 X121.593 Y99.968 F2400.000 E18.51030
G1 X121.593 Y101.175 F7800.000
G1 X113.675 Y109.093 F2400.000 E19.07115
G1 X114.884 Y109.092 F7800.000
G1 X121.593 Y102.383 F2400.000 E19.54640
G1 X121.593 Y103.592 F7800.000
G1 X116.092 Y109.093 F2400.000 E19.93604
G1 X117.300 Y109.093 F7800.000
G1 X121.593 Y104.800 F2400.000 E20.24013
G1 X121.593 Y106.008 F7800.000
G1 X118.508 Y109.092 F2400.000 E20.45862
G1 F600.000 E19.95862
G92 E0
G1 X103.405 Y104.866 F7800.000
G1 F600.000 E0.50000
G1 X117.363 Y90.908 F2400.000 E1.48876
G1 X116.156 Y90.908 F7800.000
G1 X103.406 Y103.657 F2400.000 E2.39192
G1 X103.405 Y102.449 F7800.000
G1 X114.947 Y90.907 F2400.000 E3.20952
G1 X113.739 Y90.908 F7800.000
G1 X103.405 Y101.241 F2400.000 E3.94153
G1 X103.405 Y100.033 F7800.000
G1 X112.531 Y90.908 F2400.000 E4.58798
G1 X111.323 Y90.907 F7800.000
G1 X103.405 Y98.824 F2400.000 E5.14883
G1 X103.405 Y97.617 F7800.000
G1 X110.115 Y90.907 F2400.000 E5.62412
G1 X108.906 Y90.908 F7800.000
G1 X103.405 Y96.409 F2400.000 E6.01382
G1 X103.406 Y95.200 F7800.000
G1 X107.699 Y90.908 F2400.000 E6.31791
G1 X106.490 Y90.907 F7800.000
G1 X103.405 Y93.992 F2400.000 E6.53645
G1 F600.000 E6.03645
G92 E0
G1 Z1.200 F7800.000
G1 X102.812 Y92.453
G1 F600.000 E0.50000
G1 X104.953 Y90.314 F1800.000 E0.65129
G1 X120.047 Y90.314 E1.40596
G1 X122.186 Y92.453 E1.55718
G1 X122.186 Y107.547 E2.31184
G1 X120.047 Y109.686 E2.46306
G1 X104.953 Y109.686 E3.21773
G1 X102.812 Y107.547 E3.36902
G1 X102.812 Y92.591 E4.11675
G1 X101.959 Y92.100 F7800.000
G1 X104.599 Y89.461 F1800.000 E4.30338
G1 X120.400 Y89.461 E5.09339
G1 X123.039 Y92.100 E5.27995
G1 X123.039 Y107.900 E6.06994
G1 X120.400 Y110.539 E6.25650
G1 X104.599 Y110.539 E7.04651
G1 X101.959 Y107.900 E7.23314
G1 X101.959 Y92.238 E8.01623
G1 F600.000 E7.51623
G92 E0
G1 X97.186 Y92.453 F7800.000
G1 F600.000 E0.50000
G1 X97.186 Y107.547 F1800.000 E1.25466
G1 X95.047 Y109.686 E1.40588
G1 X79.953 Y109.686 E2.16053
G1 X77.814 Y107.547 E2.31176
G1 X77.814 Y92.453 E3.06641
G1 X79.953 Y90.314 E3.21763
G1 X95.047 Y90.314 E3.97229
G1 X97.088 Y92.355 E4.11661
G1 X98.039 Y92.100 F7800.000
G1 X98.039 Y107.900 F1800.000 E4.90661
G1 X95.400 Y110.539 E5.09317
G1 X79.600 Y110.539 E5.88317
G1 X76.961 Y107.900 E6.06973
G1 X76.961 Y92.100 E6.85972
G1 X79.600 Y89.461 E7.04628
G1 X95.400 Y89.461 E7.83628
G1 X97.941 Y92.002 E8.01594
G1 X96.593 Y93.992 F7800.000
G1 X93.508 Y90.907 F2400.000 E8.23443
G1 X92.300 Y90.907 F7800.000
G1 X96.593 Y95.200 F2400.000 E8.53848
G1 X96.592 Y96.408 F7800.000
G1 X91.092 Y90.908 F2400.000 E8.92811
G1 X89.884 Y90.907 F7800.000
G1 X96.593 Y97.616 F2400.000 E9.40330
G1 X96.593 Y98.824 F7800.000
G1 X88.676 Y90.907 F2400.000 E9.96407
G1 X87.468 Y90.907 F7800.000
G1 X96.593 Y100.032 F2400.000 E10.61040
G1 X96.593 Y101.240 F7800.000
G1 X86.260 Y90.907 F2400.000 E11.34230
G1 X85.052 Y90.907 F7800.000
G1 X96.593 Y102.448 F2400.000 E12.15978
G1 X96.593 Y103.656 F7800.000
G1 X83.844 Y90.907 F2400.000 E13.06282
G1 X82.636 Y90.907 F7800.000
G1 X96.593 Y104.865 F2400.000 E14.05143
G1 X96.593 Y106.073 F7800.000
G1 X81.427 Y90.907 F2400.000 E15.12562
G1 X80.219 Y90.907 F7800.000
G1 X96.593 Y107.281 F2400.000 E16.28537
G1 X96.075 Y107.971 F7800.000
G1 X79.529 Y91.425 F2400.000 E17.45739
G1 X78.925 Y92.029 F7800.000
G1 X95.471 Y108.575 F2400.000 E18.62941
G1 X94.781 Y109.093 F7800.000
G1 X78.407 Y92.719 F2400.000 E19.78916
G1 X78.407 Y93.927 F7800.000
G1 X93.573 Y109.093 F2400.000 E20.86335
G1 X92.365 Y109.093 F7800.000
G1 X78.407 Y95.136 F2400.000 E21.85196
G1 X78.407 Y96.344 F7800.000
G1 X91.156 Y109.093 F2400.000 E22.75500
G1 X89.948 Y109.093 F7800.000
G1 X78.407 Y97.552 F2400.000 E23.57248
G1 X78.407 Y98.760 F7800.000
G1 X88.740 Y109.093 F2400.000 E24.30438
G1 X87.532 Y109.093 F7800.000
G1 X78.407 Y99.968 F2400.000 E24.95071
G1 X78.407 Y101.176 F7800.000
G1 X86.324 Y109.093 F2400.000 E25.51147
G1 X85.116 Y109.093 F7800.000
G1 X78.407 Y102.384 F2400.000 E25.98667
G1 X78.407 Y103.592 F7800.000
G1 X83.908 Y109.093 F2400.000 E26.37629
G1 X82.700 Y109.093 F7800.000
G1 X78.407 Y104.800 F2400.000 E26.68035
G1 X78.407 Y106.008 F7800.000
G1 X81.492 Y109.093 F2400.000 E26.89884
G1 F600.000 E26.39884
G92 E0
G1 X103.405 Y106.007 F7800.000
G1 F600.000 E0.50000
G1 X106.491 Y109.092 F2400.000 E0.71853
G1 X107.698 Y109.093 F7800.000
G1 X103.405 Y104.800 F2400.000 E1.02265
G1 X103.405 Y103.592 F7800.000
G1 X108.906 Y109.093 F2400.000 E1.41234
G1 X110.114 Y109.093 F7800.000
