; generated by Slic3r 0.7.3-dev on 2012-05-10 at 18:07:12

; layer_height = 0.4
; perimeters = 1
; solid_layers = 3
; fill_density = 0.25
; nozzle_diameter = 0.75
; filament_diameter = 3
; extrusion_multiplier = 1
; perimeter_speed = 60
; infill_speed = 95
; travel_speed = 130
; extrusion_width_ratio = 2.3
; scale = 1
; single wall width = 0.92mm

M104 S230 ; set temperature
M92 E380
G92 X0 Y0 Z0  E0.0
G1 Z2.0 F150.0
G1 X-250.0 F2100.0
G1 X-249.0 F300.0
G1 X-251.0 F100.0
G92 X3.0
G1 Y-250.0 F2100.0
G1 Y-249.0 F300.0
G1 Y-251.0 F300.0
G92 Y10.0
G1 Y70.0 F2100.0
G1 Z-250.0 F150.0
G1 Z-249.0 F50.0
G1 Z-251.0 F50.0
G1 Y75.0 E2.0  F1000.0
G1 Y100.0 E2.3  F1000.0
G92 Z0.3
G92 E0.0
M106 S70
M107
M109 S230 ; wait for temperature to be reached
G90 ; use absolute coordinates
G21 ; set units to millimeters
G92 E0 ; reset extrusion distance
M82 ; use absolute distances for extrusion
M107
G1 Z0.400 F7800.000
G1 X58.130 Y77.977
G1 F600.000 E0.50000
G1 X58.310 Y77.797 F2880.000 E0.51273
G1 X58.690 Y77.457 E0.53822
G1 X59.310 Y77.017 E0.57623
G1 X59.530 Y76.887 E0.58901
G1 X59.990 Y76.657 E0.61472
G1 X60.460 Y76.467 E0.64007
G1 X60.950 Y76.317 E0.66569
G1 X61.200 Y76.257 E0.67854
G1 X61.950 Y76.147 E0.71644
G1 X62.460 Y76.127 E0.74196
G1 X117.020 Y77.807 E3.47108
G1 X117.590 Y77.877 E3.49979
G1 X118.430 Y78.087 E3.54308
G1 X118.960 Y78.297 E3.57159
G1 X140.450 Y89.037 E4.77273
G1 X140.890 Y89.307 E4.79854
G1 X141.300 Y89.607 E4.82394
G1 X141.680 Y89.947 E4.84943
G1 X142.040 Y90.317 E4.87524
G1 X142.360 Y90.707 E4.90046
G1 X142.770 Y91.357 E4.93889
G1 X142.890 Y91.577 E4.95141
G1 X143.200 Y92.287 E4.99015
G1 X143.350 Y92.767 E5.01529
G1 X143.490 Y93.527 E5.05393
G1 X143.520 Y93.777 E5.06652
G1 X143.520 Y107.877 E5.77147
G1 X143.450 Y108.387 E5.79721
G1 X143.350 Y108.887 E5.82270
G1 X143.200 Y109.367 E5.84785
G1 X142.890 Y110.077 E5.88658
G1 X142.500 Y110.737 E5.92491
G1 X142.360 Y110.947 E5.93753
G1 X142.040 Y111.337 E5.96275
G1 X141.680 Y111.707 E5.98856
G1 X141.300 Y112.047 E6.01405
G1 X140.890 Y112.347 E6.03945
G1 X140.450 Y112.617 E6.06526
G1 X118.970 Y123.357 E7.26596
G1 X118.450 Y123.557 E7.29381
G1 X117.920 Y123.707 E7.32135
G1 X117.650 Y123.767 E7.33518
G1 X117.100 Y123.837 E7.36290
G1 X116.540 Y123.867 E7.39094
G1 X88.080 Y123.857 E8.81385
G1 X61.820 Y122.177 E10.12945
G1 X61.310 Y122.097 E10.15526
G1 X60.810 Y121.977 E10.18097
G1 X60.080 Y121.717 E10.21971
G1 X59.610 Y121.487 E10.24588
G1 X59.170 Y121.227 E10.27143
G1 X58.750 Y120.927 E10.29723
G1 X58.170 Y120.407 E10.33618
G1 X57.670 Y119.817 E10.37485
G1 X57.380 Y119.397 E10.40036
G1 X57.120 Y118.947 E10.42635
G1 X56.900 Y118.477 E10.45229
G1 X56.730 Y117.987 E10.47822
G1 X56.600 Y117.487 E10.50405
G1 X56.510 Y116.977 E10.52995
G1 X56.480 Y116.727 E10.54253
G1 X56.480 Y81.617 E12.29793
G1 X56.590 Y80.867 E12.33582
G1 X56.720 Y80.367 E12.36165
G1 X56.890 Y79.887 E12.38711
G1 X57.100 Y79.427 E12.41239
G1 X57.220 Y79.197 E12.42536
G1 X57.350 Y78.977 E12.43814
G1 X57.790 Y78.357 E12.47615
G1 X58.038 Y78.080 E12.49475
G1 F600.000 E11.99475
G92 E0
G1 X88.460 Y83.793 F7800.000
G1 F600.000 E0.50000
G1 X90.540 Y83.793 F2880.000 E0.60399
G1 X90.540 Y94.293 E1.12896
G1 X111.540 Y94.293 E2.17890
G1 X111.540 Y107.373 E2.83285
G1 X105.460 Y107.373 E3.13684
G1 X105.460 Y106.293 E3.19083
G1 X106.960 Y106.293 E3.26583
G1 X106.960 Y96.373 E3.76180
G1 X103.540 Y96.373 E3.93279
G1 X103.540 Y107.373 E4.48275
G1 X90.540 Y107.373 E5.13271
G1 X90.540 Y117.873 E5.65768
G1 X88.460 Y117.873 E5.76167
G1 X88.460 Y83.931 E7.45866
G1 F600.000 E6.95866
G92 E0
G1 X114.460 Y83.793 F7800.000
G1 F600.000 E0.50000
G1 X116.540 Y83.793 F2880.000 E0.60399
G1 X116.540 Y94.293 E1.12896
G1 X137.540 Y94.293 E2.17890
G1 X137.540 Y107.373 E2.83285
G1 X131.460 Y107.373 E3.13684
G1 X131.460 Y106.293 E3.19083
G1 X132.960 Y106.293 E3.26583
G1 X132.960 Y96.373 E3.76180
G1 X129.540 Y96.373 E3.93279
G1 X129.540 Y107.373 E4.48275
G1 X116.540 Y107.373 E5.13271
G1 X116.540 Y117.873 E5.65768
G1 X114.460 Y117.873 E5.76167
G1 X114.460 Y83.931 E7.45866
G1 F600.000 E6.95866
G92 E0
G1 X85.540 Y92.627 F7800.000
G1 F600.000 E0.50000
G1 X85.540 Y105.707 F2880.000 E1.15396
G1 X79.460 Y105.707 E1.45794
G1 X79.460 Y104.627 E1.51194
G1 X80.960 Y104.627 E1.58693
G1 X80.960 Y94.707 E2.08290
G1 X77.540 Y94.707 E2.25389
G1 X77.540 Y105.707 E2.80386
G1 X64.540 Y105.707 E3.45382
G1 X64.540 Y116.207 E3.97878
G1 X62.460 Y116.207 E4.08278
G1 X62.460 Y82.127 E5.78667
G1 X64.540 Y82.127 E5.89066
G1 X64.540 Y92.627 E6.41563
G1 X85.402 Y92.627 E7.45866
G1 F600.000 E6.95866
G92 E0
G1 X115.053 Y92.689 F7800.000
G1 F600.000 E0.50000
G1 X115.947 Y93.583 F4560.000 E0.56455
G1 X115.053 Y93.913 F7800.000
G1 X115.947 Y94.807 F4560.000 E0.62910
G1 X116.027 Y94.886 F7800.000
G1 X127.921 Y106.780 F4560.000 E1.48793
G1 X128.947 Y106.583 F7800.000
G1 X117.250 Y94.886 F4560.000 E2.33250
G1 X118.474 Y94.886 F7800.000
G1 X128.947 Y105.360 F4560.000 E3.08873
G1 X128.947 Y104.137 F7800.000
G1 X119.697 Y94.887 F4560.000 E3.75664
G1 X120.920 Y94.887 F7800.000
G1 X128.947 Y102.913 F4560.000 E4.33620
G1 X128.947 Y101.689 F7800.000
G1 X122.144 Y94.886 F4560.000 E4.82737
G1 X123.368 Y94.886 F7800.000
G1 X128.947 Y100.465 F4560.000 E5.23021
G1 X128.947 Y99.242 F7800.000
G1 X124.591 Y94.886 F4560.000 E5.54471
G1 X125.815 Y94.886 F7800.000
G1 X128.947 Y98.019 F4560.000 E5.77087
G1 X128.947 Y96.795 F7800.000
G1 X127.038 Y94.887 F4560.000 E5.90867
G1 X128.262 Y94.887 F7800.000
G1 X129.156 Y95.781 F4560.000 E5.97321
G1 X129.486 Y94.886 F7800.000
G1 X130.380 Y95.780 F4560.000 E6.03775
G1 X130.709 Y94.886 F7800.000
G1 X131.603 Y95.780 F4560.000 E6.10228
G1 X131.932 Y94.886 F7800.000
G1 X132.826 Y95.780 F4560.000 E6.16682
G1 X133.553 Y95.284 F7800.000
G1 X136.947 Y98.678 F4560.000 E6.41189
G1 X136.947 Y99.901 F7800.000
G1 X133.553 Y96.507 F4560.000 E6.65696
G1 X134.050 Y95.781 F7800.000
G1 X133.156 Y94.886 F4560.000 E6.72155
G1 X134.380 Y94.887 F7800.000
G1 X136.947 Y97.454 F4560.000 E6.90694
G1 X136.946 Y96.230 F7800.000
G1 X135.603 Y94.887 F4560.000 E7.00395
G1 X133.553 Y97.730 F7800.000
G1 X136.947 Y101.124 F4560.000 E7.24902
G1 X136.947 Y102.348 F7800.000
G1 X133.553 Y98.953 F4560.000 E7.49409
G1 X133.553 Y100.178 F7800.000
G1 X136.946 Y103.572 F4560.000 E7.73912
G1 X136.947 Y104.796 F7800.000
G1 X133.553 Y101.401 F4560.000 E7.98419
G1 X133.553 Y102.625 F7800.000
G1 X136.947 Y106.019 F4560.000 E8.22926
G1 X136.485 Y106.780 F7800.000
G1 X133.553 Y103.848 F4560.000 E8.44100
G1 X133.553 Y105.071 F7800.000
G1 X135.262 Y106.780 F4560.000 E8.56440
G1 X126.697 Y106.780 F7800.000
G1 X115.053 Y95.136 F4560.000 E9.40513
G1 X115.053 Y96.360 F7800.000
G1 X125.473 Y106.780 F4560.000 E10.15753
G1 X124.250 Y106.780 F7800.000
G1 X115.053 Y97.584 F4560.000 E10.82159
G1 X115.053 Y98.807 F7800.000
G1 X123.026 Y106.780 F4560.000 E11.39731
G1 X121.803 Y106.780 F7800.000
G1 X115.053 Y100.030 F4560.000 E11.88470
G1 X115.053 Y101.254 F7800.000
G1 X120.580 Y106.780 F4560.000 E12.28375
G1 X119.356 Y106.780 F7800.000
G1 X115.053 Y102.477 F4560.000 E12.59441
G1 X115.053 Y103.701 F7800.000
G1 X118.132 Y106.780 F4560.000 E12.81673
G1 X116.908 Y106.780 F7800.000
G1 X115.053 Y104.925 F4560.000 E12.95072
G1 X115.053 Y106.148 F7800.000
G1 X115.947 Y107.042 F4560.000 E13.01526
G1 X115.053 Y107.372 F7800.000
G1 X115.947 Y108.265 F4560.000 E13.07980
G1 X115.053 Y108.595 F7800.000
G1 X115.947 Y109.489 F4560.000 E13.14439
G1 X115.053 Y109.818 F7800.000
G1 X115.947 Y110.713 F4560.000 E13.20897
G1 X115.053 Y111.043 F7800.000
G1 X115.947 Y111.937 F4560.000 E13.27351
G1 X115.053 Y112.266 F7800.000
G1 X115.947 Y113.160 F4560.000 E13.33804
G1 X115.053 Y113.489 F7800.000
G1 X115.947 Y114.383 F4560.000 E13.40258
G1 X115.053 Y114.713 F7800.000
G1 X115.947 Y115.607 F4560.000 E13.46712
G1 X115.053 Y115.936 F7800.000
G1 X115.947 Y116.831 F4560.000 E13.53170
G1 F600.000 E13.03170
G92 E0
G1 X115.947 Y92.360 F7800.000
G1 F600.000 E0.50000
G1 X115.053 Y91.466 F4560.000 E0.56455
G1 X115.947 Y91.136 F7800.000
G1 X115.053 Y90.242 F4560.000 E0.62910
G1 X115.947 Y89.913 F7800.000
G1 X115.053 Y89.019 F4560.000 E0.69365
G1 X115.947 Y88.689 F7800.000
G1 X115.053 Y87.795 F4560.000 E0.75820
G1 X115.947 Y87.465 F7800.000
G1 X115.053 Y86.571 F4560.000 E0.82275
G1 X115.947 Y86.242 F7800.000
G1 X115.053 Y85.348 F4560.000 E0.88730
G1 X115.947 Y85.019 F7800.000
G1 X115.315 Y84.386 F4560.000 E0.93295
G1 F600.000 E0.43295
G92 E0
G1 X109.603 Y94.886 F7800.000
G1 F600.000 E0.50000
G1 X110.947 Y96.230 F4560.000 E0.59704
G1 X110.947 Y97.453 F7800.000
G1 X108.380 Y94.886 F4560.000 E0.78243
G1 X107.553 Y95.284 F7800.000
G1 X110.947 Y98.678 F4560.000 E1.02749
G1 X110.947 Y99.901 F7800.000
G1 X107.553 Y96.507 F4560.000 E1.27256
G1 X108.050 Y95.781 F7800.000
G1 X107.156 Y94.887 F4560.000 E1.33711
G1 X106.826 Y95.780 F7800.000
G1 X105.932 Y94.886 F4560.000 E1.40166
G1 X105.603 Y95.780 F7800.000
G1 X104.709 Y94.886 F4560.000 E1.46621
G1 X104.379 Y95.780 F7800.000
G1 X103.485 Y94.886 F4560.000 E1.53076
G1 X103.156 Y95.780 F7800.000
G1 X102.262 Y94.886 F4560.000 E1.59531
G1 X101.039 Y94.886 F7800.000
G1 X102.947 Y96.795 F4560.000 E1.73313
G1 X102.947 Y98.019 F7800.000
G1 X99.815 Y94.887 F4560.000 E1.95929
G1 X98.591 Y94.886 F7800.000
G1 X102.947 Y99.242 F4560.000 E2.27380
G1 X102.947 Y100.466 F7800.000
G1 X97.368 Y94.886 F4560.000 E2.67665
G1 X96.144 Y94.886 F7800.000
G1 X102.947 Y101.689 F4560.000 E3.16785
G1 X102.947 Y102.912 F7800.000
G1 X94.921 Y94.886 F4560.000 E3.74740
G1 X93.697 Y94.886 F7800.000
G1 X102.947 Y104.136 F4560.000 E4.41529
G1 X102.947 Y105.360 F7800.000
G1 X92.473 Y94.887 F4560.000 E5.17152
G1 X91.250 Y94.886 F7800.000
G1 X102.947 Y106.583 F4560.000 E6.01611
G1 X101.921 Y106.780 F7800.000
G1 X90.026 Y94.886 F4560.000 E6.87492
G1 X89.947 Y94.807 F7800.000
G1 X89.053 Y93.913 F4560.000 E6.93947
G1 X89.947 Y93.583 F7800.000
G1 X89.053 Y92.689 F4560.000 E7.00402
G1 X89.947 Y92.360 F7800.000
G1 X89.053 Y91.466 F4560.000 E7.06857
G1 X89.947 Y91.136 F7800.000
G1 X89.053 Y90.242 F4560.000 E7.13312
G1 X89.947 Y89.912 F7800.000
G1 X89.053 Y89.018 F4560.000 E7.19767
G1 X89.947 Y88.689 F7800.000
G1 X89.053 Y87.795 F4560.000 E7.26222
G1 X89.947 Y87.466 F7800.000
G1 X89.053 Y86.572 F4560.000 E7.32677
G1 X89.947 Y86.242 F7800.000
G1 X89.053 Y85.348 F4560.000 E7.39132
G1 X89.947 Y85.019 F7800.000
G1 X89.315 Y84.387 F4560.000 E7.43696
G1 F600.000 E6.93696
G92 E0
G1 X89.053 Y95.136 F7800.000
G1 F600.000 E0.50000
G1 X100.697 Y106.780 F4560.000 E1.34076
G1 X99.474 Y106.780 F7800.000
G1 X89.053 Y96.360 F4560.000 E2.09318
G1 X89.053 Y97.583 F7800.000
G1 X98.250 Y106.780 F4560.000 E2.75724
G1 X97.026 Y106.781 F7800.000
G1 X89.053 Y98.807 F4560.000 E3.33296
G1 X89.053 Y100.031 F7800.000
G1 X95.803 Y106.781 F4560.000 E3.82034
G1 X94.579 Y106.780 F7800.000
G1 X89.053 Y101.254 F4560.000 E4.21937
G1 X89.053 Y102.477 F7800.000
G1 X93.356 Y106.780 F4560.000 E4.53006
G1 X92.133 Y106.780 F7800.000
G1 X89.053 Y103.701 F4560.000 E4.75240
G1 X89.053 Y104.924 F7800.000
G1 X90.909 Y106.780 F4560.000 E4.88640
G1 X89.947 Y107.042 F7800.000
G1 X89.053 Y106.148 F4560.000 E4.95095
G1 X89.053 Y107.372 F7800.000
G1 X89.947 Y108.266 F4560.000 E5.01550
G1 X89.053 Y108.595 F7800.000
G1 X89.947 Y109.489 F4560.000 E5.08005
G1 X89.053 Y109.819 F7800.000
G1 X89.947 Y110.713 F4560.000 E5.14460
G1 X89.053 Y111.042 F7800.000
G1 X89.947 Y111.936 F4560.000 E5.20915
G1 X89.053 Y112.265 F7800.000
G1 X89.947 Y113.159 F4560.000 E5.27369
G1 X89.053 Y113.490 F7800.000
G1 X89.947 Y114.384 F4560.000 E5.33825
G1 X89.053 Y114.713 F7800.000
G1 X89.947 Y115.607 F4560.000 E5.40280
G1 X89.053 Y115.936 F7800.000
G1 X89.947 Y116.830 F4560.000 E5.46734
G1 F600.000 E4.96734
G92 E0
G1 X107.553 Y105.072 F7800.000
G1 F600.000 E0.50000
G1 X109.262 Y106.780 F4560.000 E0.62338
G1 X110.485 Y106.781 F7800.000
G1 X107.553 Y103.848 F4560.000 E0.83511
G1 X107.553 Y102.625 F7800.000
G1 X110.947 Y106.019 F4560.000 E1.08017
G1 X110.947 Y104.795 F7800.000
G1 X107.553 Y101.401 F4560.000 E1.32523
G1 X107.553 Y100.177 F7800.000
G1 X110.947 Y103.571 F4560.000 E1.57030
G1 X110.947 Y102.348 F7800.000
G1 X107.553 Y98.954 F4560.000 E1.81536
G1 X107.553 Y97.730 F7800.000
G1 X110.947 Y101.124 F4560.000 E2.06043
G1 F600.000 E1.56043
G92 E0
G1 X84.947 Y100.681 F7800.000
G1 F600.000 E0.50000
G1 X81.553 Y97.287 F4560.000 E0.74506
G1 X81.553 Y96.064 F7800.000
G1 X84.947 Y99.458 F4560.000 E0.99013
G1 X84.947 Y98.234 F7800.000
G1 X81.553 Y94.840 F4560.000 E1.23519
G1 X82.050 Y94.114 F7800.000
G1 X81.156 Y93.220 F4560.000 E1.29974
G1 X81.553 Y93.617 F7800.000
G1 X84.947 Y97.011 F4560.000 E1.54480
G1 X84.947 Y95.787 F7800.000
G1 X82.379 Y93.220 F4560.000 E1.73019
G1 X83.603 Y93.220 F7800.000
G1 X84.947 Y94.564 F4560.000 E1.82723
G1 X80.826 Y94.114 F7800.000
G1 X79.932 Y93.220 F4560.000 E1.89178
G1 X79.603 Y94.113 F7800.000
G1 X78.709 Y93.220 F4560.000 E1.95633
G1 X78.380 Y94.113 F7800.000
G1 X77.486 Y93.219 F4560.000 E2.02088
G1 X77.156 Y94.114 F7800.000
G1 X76.262 Y93.220 F4560.000 E2.08543
G1 X75.038 Y93.220 F7800.000
G1 X76.947 Y95.129 F4560.000 E2.22324
G1 X76.947 Y96.352 F7800.000
G1 X73.815 Y93.220 F4560.000 E2.44940
G1 X72.591 Y93.220 F7800.000
G1 X76.947 Y97.575 F4560.000 E2.76391
G1 X76.947 Y98.799 F7800.000
G1 X71.368 Y93.220 F4560.000 E3.16676
G1 X70.144 Y93.219 F7800.000
G1 X76.947 Y100.022 F4560.000 E3.65796
G1 X76.947 Y101.246 F7800.000
G1 X68.920 Y93.220 F4560.000 E4.23751
G1 X67.697 Y93.220 F7800.000
G1 X76.947 Y102.470 F4560.000 E4.90540
G1 X76.947 Y103.693 F7800.000
G1 X66.474 Y93.220 F4560.000 E5.66163
G1 X65.250 Y93.220 F7800.000
G1 X76.947 Y104.917 F4560.000 E6.50621
G1 X75.921 Y105.114 F7800.000
G1 X64.027 Y93.220 F4560.000 E7.36502
G1 X63.947 Y93.140 F7800.000
G1 X63.053 Y92.246 F4560.000 E7.42957
G1 X63.947 Y91.917 F7800.000
G1 X63.053 Y91.023 F4560.000 E7.49412
G1 X63.947 Y90.693 F7800.000
G1 X63.053 Y89.799 F4560.000 E7.55867
G1 X63.947 Y89.470 F7800.000
G1 X63.053 Y88.576 F4560.000 E7.62322
G1 X63.947 Y88.246 F7800.000
G1 X63.053 Y87.352 F4560.000 E7.68777
G1 X63.947 Y87.022 F7800.000
G1 X63.053 Y86.128 F4560.000 E7.75232
G1 X63.947 Y85.799 F7800.000
G1 X63.053 Y84.905 F4560.000 E7.81687
G1 X63.947 Y84.575 F7800.000
G1 X63.053 Y83.681 F4560.000 E7.88142
G1 X63.947 Y83.352 F7800.000
G1 X63.315 Y82.720 F4560.000 E7.92706
G1 F600.000 E7.42706
G92 E0
G1 X63.053 Y93.469 F7800.000
G1 F600.000 E0.50000
G1 X74.697 Y105.113 F4560.000 E1.34076
G1 X73.473 Y105.114 F7800.000
G1 X63.053 Y94.694 F4560.000 E2.09318
G1 X63.053 Y95.917 F7800.000
G1 X72.250 Y105.114 F4560.000 E2.75724
G1 X71.026 Y105.114 F7800.000
G1 X63.053 Y97.140 F4560.000 E3.33296
G1 X63.053 Y98.364 F7800.000
G1 X69.803 Y105.114 F4560.000 E3.82034
G1 X68.580 Y105.114 F7800.000
G1 X63.053 Y99.587 F4560.000 E4.21937
G1 X63.053 Y100.811 F7800.000
G1 X67.356 Y105.113 F4560.000 E4.53006
G1 X66.132 Y105.114 F7800.000
G1 X63.053 Y102.035 F4560.000 E4.75240
G1 X63.053 Y103.258 F7800.000
G1 X64.909 Y105.114 F4560.000 E4.88640
G1 X63.947 Y105.375 F7800.000
G1 X63.053 Y104.481 F4560.000 E4.95095
G1 X63.053 Y105.705 F7800.000
G1 X63.947 Y106.599 F4560.000 E5.01550
G1 X63.053 Y106.928 F7800.000
G1 X63.947 Y107.822 F4560.000 E5.08005
G1 X63.053 Y108.152 F7800.000
G1 X63.947 Y109.046 F4560.000 E5.14459
G1 X63.053 Y109.376 F7800.000
G1 X63.947 Y110.270 F4560.000 E5.20914
G1 X63.053 Y110.599 F7800.000
G1 X63.947 Y111.493 F4560.000 E5.27369
G1 X63.053 Y111.823 F7800.000
G1 X63.947 Y112.717 F4560.000 E5.33824
G1 X63.053 Y113.046 F7800.000
G1 X63.947 Y113.940 F4560.000 E5.40279
G1 X63.053 Y114.270 F7800.000
G1 X63.947 Y115.163 F4560.000 E5.46733
G1 F600.000 E4.96733
G92 E0
G1 X81.553 Y103.405 F7800.000
G1 F600.000 E0.50000
G1 X83.262 Y105.114 F4560.000 E0.62338
G1 X84.485 Y105.114 F7800.000
G1 X81.553 Y102.181 F4560.000 E0.83510
G1 X81.553 Y100.958 F7800.000
G1 X84.947 Y104.352 F4560.000 E1.08016
G1 X84.947 Y103.129 F7800.000
G1 X81.553 Y99.735 F4560.000 E1.32523
G1 X81.553 Y98.511 F7800.000
G1 X84.947 Y101.905 F4560.000 E1.57029
M106 S80
G1 F600.000 E1.07029
G92 E0
G1 Z0.800 F7800.000
G1 X90.540 Y107.373
G1 F600.000 E0.50000
G1 X90.540 Y117.873 F3600.000 E1.02497
