; generated by Slic3r 0.7.2b on 2012-05-12 at 10:16:04

; layer_height = 0.4
; perimeters = 2
; solid_layers = 3
; fill_density = 0.25
; nozzle_diameter = 0.75
; filament_diameter = 3
; extrusion_multiplier = 1
; perimeter_speed = 60
; infill_speed = 95
; travel_speed = 130
; extrusion_width_ratio = 2.3
; scale = 1
; single wall width = 0.92mm

M104 S230 ; set temperature
M92 E380
G92 X0 Y0 Z0  E0.0
G1 Z2.0 F150.0
G1 X-250.0 F2100.0
G1 X-249.0 F300.0
G1 X-251.0 F100.0
G92 X3.0
G1 Y-250.0 F2100.0
G1 Y-249.0 F300.0
G1 Y-251.0 F300.0
G92 Y10.0
G1 Y70.0 F2100.0
G1 Z-250.0 F150.0
G1 Z-249.0 F50.0
G1 Z-251.0 F50.0
G1 Y75.0 E2.0  F1000.0
G1 Y100.0 E2.3  F1000.0
G92 Z0.3
G92 E0.0
M106 S70
M107
M109 S230 ; wait for temperature to be reached
G90 ; use absolute coordinates
G21 ; set units to millimeters
G92 E0 ; reset extrusion distance
M82 ; use absolute distances for extrusion
M107
G1 Z0.400 F7800.000
G1 X69.130 Y78.810
G1 F600.000 E0.50000
G1 X69.310 Y78.630 F2880.000 E0.51273
G1 X69.690 Y78.290 E0.53822
G1 X70.310 Y77.850 E0.57623
G1 X70.530 Y77.720 E0.58901
G1 X70.990 Y77.490 E0.61472
G1 X71.460 Y77.300 E0.64007
G1 X71.950 Y77.150 E0.66569
G1 X72.200 Y77.090 E0.67854
G1 X72.950 Y76.980 E0.71644
G1 X73.460 Y76.960 E0.74196
G1 X105.820 Y76.970 E2.35986
G1 X106.650 Y77.060 E2.40160
G1 X107.190 Y77.190 E2.42937
G1 X107.450 Y77.270 E2.44297
G1 X107.970 Y77.470 E2.47082
G1 X129.450 Y88.210 E3.67152
G1 X129.890 Y88.480 E3.69733
G1 X130.300 Y88.780 E3.72273
G1 X130.680 Y89.120 E3.74822
G1 X131.040 Y89.490 E3.77403
G1 X131.360 Y89.880 E3.79925
G1 X131.770 Y90.530 E3.83768
G1 X131.890 Y90.750 E3.85021
G1 X132.200 Y91.460 E3.88894
G1 X132.350 Y91.940 E3.91408
G1 X132.490 Y92.700 E3.95272
G1 X132.520 Y92.950 E3.96531
G1 X132.520 Y107.050 E4.67026
G1 X132.450 Y107.560 E4.69600
G1 X132.350 Y108.060 E4.72149
G1 X132.200 Y108.540 E4.74664
G1 X131.890 Y109.250 E4.78537
G1 X131.500 Y109.910 E4.82370
G1 X131.360 Y110.120 E4.83632
G1 X131.040 Y110.510 E4.86154
G1 X130.680 Y110.880 E4.88735
G1 X130.300 Y111.220 E4.91284
G1 X129.890 Y111.520 E4.93825
G1 X129.450 Y111.790 E4.96406
G1 X107.970 Y122.530 E6.16475
G1 X107.450 Y122.730 E6.19260
G1 X106.920 Y122.880 E6.22014
G1 X106.650 Y122.940 E6.23397
G1 X106.100 Y123.010 E6.26169
G1 X105.540 Y123.040 E6.28973
G1 X72.950 Y123.020 E7.91913
G1 X72.200 Y122.910 E7.95703
G1 X71.700 Y122.780 E7.98286
G1 X71.220 Y122.610 E8.00832
G1 X70.760 Y122.400 E8.03360
G1 X70.530 Y122.280 E8.04657
G1 X70.310 Y122.150 E8.05934
G1 X69.690 Y121.710 E8.09735
G1 X69.310 Y121.370 E8.12285
G1 X69.130 Y121.190 E8.13558
G1 X68.790 Y120.810 E8.16107
G1 X68.350 Y120.190 E8.19908
G1 X68.220 Y119.970 E8.21186
G1 X67.990 Y119.510 E8.23757
G1 X67.800 Y119.040 E8.26292
G1 X67.650 Y118.550 E8.28854
G1 X67.590 Y118.300 E8.30139
G1 X67.480 Y117.550 E8.33929
G1 X67.480 Y82.450 E10.09418
G1 X67.590 Y81.700 E10.13208
G1 X67.720 Y81.200 E10.15791
G1 X67.890 Y80.720 E10.18337
G1 X68.100 Y80.260 E10.20865
G1 X68.220 Y80.030 E10.22162
G1 X68.350 Y79.810 E10.23439
G1 X68.790 Y79.190 E10.27241
G1 X69.038 Y78.913 E10.29100
G1 F600.000 E9.79100
G92 E0
G1 X74.313 Y83.813 F7800.000
G1 F600.000 E0.50000
G1 X74.687 Y83.813 F2880.000 E0.51867
G1 X74.687 Y94.313 E1.04364
G1 X95.687 Y94.313 E2.09358
G1 X95.687 Y105.687 E2.66222
G1 X92.813 Y105.687 E2.80588
G1 X92.813 Y94.687 E3.35585
G1 X87.687 Y94.687 E3.61216
G1 X87.687 Y105.687 E4.16212
G1 X74.687 Y105.687 E4.81208
G1 X74.687 Y116.187 E5.33705
G1 X74.313 Y116.187 E5.35572
G1 X74.313 Y83.951 E6.96740
G1 X73.460 Y82.960 F7800.000
G1 X75.540 Y82.960 F2880.000 E7.07139
G1 X75.540 Y93.460 E7.59636
G1 X96.540 Y93.460 E8.64629
G1 X96.540 Y106.540 E9.30025
G1 X90.460 Y106.540 E9.60423
G1 X90.460 Y105.460 E9.65823
G1 X91.960 Y105.460 E9.73323
G1 X91.960 Y95.540 E10.22920
G1 X88.540 Y95.540 E10.40018
G1 X88.540 Y106.540 E10.95015
G1 X75.540 Y106.540 E11.60011
G1 X75.540 Y117.040 E12.12508
G1 X73.460 Y117.040 E12.22907
G1 X73.460 Y83.098 E13.92606
G1 F600.000 E13.42606
G92 E0
G1 X75.906 Y94.906 F7800.000
G1 F600.000 E0.50000
G1 X86.094 Y105.094 F4560.000 E1.24116
G1 X87.094 Y104.864 F7800.000
G1 X77.136 Y94.906 F4560.000 E1.96560
G1 X78.366 Y94.906 F7800.000
G1 X87.094 Y103.634 F4560.000 E2.60059
G1 X87.094 Y102.405 F7800.000
G1 X79.595 Y94.906 F4560.000 E3.14612
G1 X80.825 Y94.906 F7800.000
G1 X87.094 Y101.175 F4560.000 E3.60219
G1 X87.094 Y99.945 F7800.000
G1 X82.055 Y94.906 F4560.000 E3.96880
G1 X83.284 Y94.906 F7800.000
G1 X87.094 Y98.716 F4560.000 E4.24594
G1 X87.094 Y97.486 F7800.000
G1 X84.514 Y94.906 F4560.000 E4.43362
G1 X85.744 Y94.906 F7800.000
G1 X87.094 Y96.256 F4560.000 E4.53184
G1 X84.864 Y105.094 F7800.000
G1 X74.906 Y95.136 F4560.000 E5.25628
G1 X74.906 Y96.366 F7800.000
G1 X83.634 Y105.094 F4560.000 E5.89127
G1 X82.405 Y105.094 F7800.000
G1 X74.906 Y97.595 F4560.000 E6.43680
G1 X74.906 Y98.825 F7800.000
G1 X81.175 Y105.094 F4560.000 E6.89287
G1 X79.945 Y105.094 F7800.000
G1 X74.906 Y100.055 F4560.000 E7.25947
G1 X74.906 Y101.284 F7800.000
G1 X78.716 Y105.094 F4560.000 E7.53661
G1 X77.486 Y105.094 F7800.000
G1 X74.906 Y102.514 F4560.000 E7.72429
G1 X74.906 Y103.744 F7800.000
G1 X76.256 Y105.094 F4560.000 E7.82251
G1 F600.000 E7.32251
G92 E0
G1 X93.406 Y103.681 F7800.000
G1 F600.000 E0.50000
G1 X94.819 Y105.094 F4560.000 E0.61072
G1 X95.094 Y104.075 F7800.000
G1 X93.406 Y102.388 F4560.000 E0.74294
G1 X93.406 Y101.095 F7800.000
G1 X95.094 Y102.783 F4560.000 E0.87516
G1 X95.094 Y101.490 F7800.000
G1 X93.406 Y99.803 F4560.000 E1.00738
G1 X93.406 Y98.510 F7800.000
G1 X95.094 Y100.197 F4560.000 E1.13960
G1 X95.094 Y98.905 F7800.000
G1 X93.406 Y97.217 F4560.000 E1.27182
G1 X93.406 Y95.925 F7800.000
G1 X95.094 Y97.612 F4560.000 E1.40404
G1 X95.094 Y96.319 F7800.000
G1 X93.681 Y94.906 F4560.000 E1.51476
G1 F600.000 E1.01476
G92 E0
G1 X122.813 Y94.687 F7800.000
G1 F600.000 E0.50000
G1 X117.687 Y94.687 F2880.000 E0.75631
G1 X117.687 Y105.687 E1.30627
G1 X104.687 Y105.687 E1.95623
G1 X104.687 Y116.187 E2.48120
G1 X104.313 Y116.187 E2.49987
G1 X104.313 Y83.813 E4.11845
G1 X104.687 Y83.813 E4.13712
G1 X104.687 Y94.313 E4.66209
G1 X125.687 Y94.313 E5.71203
G1 X125.687 Y105.687 E6.28067
G1 X122.813 Y105.687 E6.42433
G1 X122.813 Y94.825 E6.96740
G1 X121.960 Y95.540 F7800.000
G1 X118.540 Y95.540 F2880.000 E7.13839
G1 X118.540 Y106.540 E7.68835
G1 X105.540 Y106.540 E8.33831
G1 X105.540 Y117.040 E8.86328
G1 X103.460 Y117.040 E8.96727
G1 X103.460 Y82.960 E10.67117
G1 X105.540 Y82.960 E10.77516
G1 X105.540 Y93.460 E11.30013
G1 X126.540 Y93.460 E12.35006
G1 X126.540 Y106.540 E13.00402
G1 X120.460 Y106.540 E13.30800
G1 X120.460 Y105.460 E13.36200
G1 X121.960 Y105.460 E13.43699
G1 X121.960 Y95.678 E13.92606
G1 X117.094 Y96.256 F7800.000
G1 X115.744 Y94.906 F4560.000 E14.02428
G1 X114.514 Y94.906 F7800.000
G1 X117.094 Y97.486 F4560.000 E14.21196
G1 X117.094 Y98.716 F7800.000
G1 X113.284 Y94.906 F4560.000 E14.48910
G1 X112.055 Y94.906 F7800.000
G1 X117.094 Y99.945 F4560.000 E14.85571
G1 X117.094 Y101.175 F7800.000
G1 X110.825 Y94.906 F4560.000 E15.31178
G1 X109.595 Y94.906 F7800.000
G1 X117.094 Y102.405 F4560.000 E15.85731
G1 X117.094 Y103.634 F7800.000
G1 X108.366 Y94.906 F4560.000 E16.49229
G1 X107.136 Y94.906 F7800.000
G1 X117.094 Y104.864 F4560.000 E17.21674
G1 X116.094 Y105.094 F7800.000
G1 X105.906 Y94.906 F4560.000 E17.95790
G1 X104.906 Y95.136 F7800.000
G1 X114.864 Y105.094 F4560.000 E18.68235
G1 X113.634 Y105.094 F7800.000
G1 X104.906 Y96.366 F4560.000 E19.31734
G1 X104.906 Y97.595 F7800.000
G1 X112.405 Y105.094 F4560.000 E19.86287
G1 X111.175 Y105.094 F7800.000
G1 X104.906 Y98.825 F4560.000 E20.31893
G1 X104.906 Y100.055 F7800.000
G1 X109.945 Y105.094 F4560.000 E20.68554
G1 X108.716 Y105.094 F7800.000
G1 X104.906 Y101.284 F4560.000 E20.96268
G1 X104.906 Y102.514 F7800.000
G1 X107.486 Y105.094 F4560.000 E21.15036
G1 X106.256 Y105.094 F7800.000
G1 X104.906 Y103.744 F4560.000 E21.24858
G1 F600.000 E20.74858
G92 E0
G1 X123.406 Y103.681 F7800.000
G1 F600.000 E0.50000
G1 X124.819 Y105.094 F4560.000 E0.61072
G1 X125.094 Y104.075 F7800.000
G1 X123.406 Y102.388 F4560.000 E0.74294
G1 X123.406 Y101.095 F7800.000
G1 X125.094 Y102.783 F4560.000 E0.87516
G1 X125.094 Y101.490 F7800.000
G1 X123.406 Y99.803 F4560.000 E1.00738
G1 X123.406 Y98.510 F7800.000
G1 X125.094 Y100.197 F4560.000 E1.13960
G1 X125.094 Y98.905 F7800.000
G1 X123.406 Y97.217 F4560.000 E1.27182
G1 X123.406 Y95.925 F7800.000
G1 X125.094 Y97.612 F4560.000 E1.40404
G1 X125.094 Y96.319 F7800.000
G1 X123.681 Y94.906 F4560.000 E1.51476
M106 S130
G1 F600.000 E1.01476
G92 E0
G1 Z0.800 F7800.000
G1 X92.813 Y94.687
G1 F600.000 E0.50000
G1 X87.687 Y94.687 F3600.000 E0.75631
G1 X87.687 Y105.687 E1.30627
G1 X74.687 Y105.687 E1.95623
G1 X74.687 Y116.187 E2.48120
G1 X74.313 Y116.187 E2.49987
G1 X74.313 Y83.813 E4.11845
G1 X74.687 Y83.813 E4.13712
G1 X74.687 Y94.313 E4.66209
G1 X95.687 Y94.313 E5.71203
G1 X95.687 Y105.687 E6.28067
G1 X92.813 Y105.687 E6.42433
G1 X92.813 Y94.825 E6.96740
G1 X91.960 Y95.540 F7800.000
G1 X88.540 Y95.540 F3600.000 E7.13839
G1 X88.540 Y106.540 E7.68835
G1 X75.540 Y106.540 E8.33831
G1 X75.540 Y117.040 E8.86328
G1 X73.460 Y117.040 E8.96727
G1 X73.460 Y82.960 E10.67117
G1 X75.540 Y82.960 E10.77516
G1 X75.540 Y93.460 E11.30013
G1 X96.540 Y93.460 E12.35006
G1 X96.540 Y106.540 E13.00402
G1 X90.460 Y106.540 E13.30800
G1 X90.460 Y105.460 E13.36200
G1 X91.960 Y105.460 E13.43699
G1 X91.960 Y95.678 E13.92606
G1 X93.406 Y96.319 F7800.000
G1 X94.819 Y94.906 F5700.000 E14.03679
G1 X95.094 Y95.924 F7800.000
G1 X93.406 Y97.612 F5700.000 E14.16901
G1 X93.406 Y98.905 F7800.000
G1 X95.094 Y97.217 F5700.000 E14.30123
G1 X95.094 Y98.510 F7800.000
G1 X93.406 Y100.197 F5700.000 E14.43345
G1 X93.406 Y101.490 F7800.000
G1 X95.094 Y99.803 F5700.000 E14.56567
G1 X95.094 Y101.095 F7800.000
G1 X93.406 Y102.783 F5700.000 E14.69789
G1 X93.406 Y104.076 F7800.000
G1 X95.094 Y102.388 F5700.000 E14.83011
G1 X95.094 Y103.681 F7800.000
G1 X93.681 Y105.094 F5700.000 E14.94084
G1 X87.094 Y103.744 F7800.000
G1 X85.744 Y105.094 F5700.000 E15.03906
G1 X84.514 Y105.094 F7800.000
G1 X87.094 Y102.514 F5700.000 E15.22675
G1 X87.094 Y101.284 F7800.000
G1 X83.284 Y105.094 F5700.000 E15.50389
G1 X82.055 Y105.094 F7800.000
G1 X87.094 Y100.055 F5700.000 E15.87050
G1 X87.094 Y98.825 F7800.000
G1 X80.825 Y105.094 F5700.000 E16.32656
G1 X79.595 Y105.094 F7800.000
G1 X87.094 Y97.595 F5700.000 E16.87209
G1 X87.094 Y96.366 F7800.000
G1 X78.366 Y105.094 F5700.000 E17.50707
G1 X77.136 Y105.094 F7800.000
G1 X87.094 Y95.136 F5700.000 E18.23152
G1 X86.094 Y94.906 F7800.000
G1 X75.906 Y105.094 F5700.000 E18.97267
G1 X74.906 Y104.864 F7800.000
G1 X84.864 Y94.906 F5700.000 E19.69712
G1 X83.635 Y94.906 F7800.000
G1 X74.906 Y103.635 F5700.000 E20.33211
G1 X74.906 Y102.405 F7800.000
G1 X82.405 Y94.906 F5700.000 E20.87764
G1 X81.175 Y94.906 F7800.000
G1 X74.906 Y101.175 F5700.000 E21.33370
G1 X74.906 Y99.945 F7800.000
G1 X79.945 Y94.906 F5700.000 E21.70030
G1 X78.716 Y94.906 F7800.000
G1 X74.906 Y98.716 F5700.000 E21.97745
G1 X74.906 Y97.486 F7800.000
G1 X77.486 Y94.906 F5700.000 E22.16513
G1 X76.257 Y94.907 F7800.000
G1 X74.906 Y96.257 F5700.000 E22.26335
G1 F600.000 E21.76335
G92 E0
G1 X104.687 Y94.313 F7800.000
G1 F600.000 E0.50000
G1 X125.687 Y94.313 F3600.000 E1.54993
G1 X125.687 Y105.687 E2.11857
G1 X122.813 Y105.687 E2.26224
G1 X122.813 Y94.687 E2.81221
G1 X117.687 Y94.687 E3.06852
G1 X117.687 Y105.687 E3.61848
G1 X104.687 Y105.687 E4.26844
G1 X104.687 Y116.187 E4.79341
G1 X104.313 Y116.187 E4.81208
G1 X104.313 Y83.813 E6.43066
G1 X104.687 Y83.813 E6.44933
G1 X104.687 Y94.175 E6.96740
G1 X105.540 Y93.460 F7800.000
G1 X126.540 Y93.460 F3600.000 E8.01733
G1 X126.540 Y106.540 E8.67129
G1 X120.460 Y106.540 E8.97527
G1 X120.460 Y105.460 E9.02927
G1 X121.960 Y105.460 E9.10427
G1 X121.960 Y95.540 E9.60023
G1 X118.540 Y95.540 E9.77122
G1 X118.540 Y106.540 E10.32119
G1 X105.540 Y106.540 E10.97115
G1 X105.540 Y117.040 E11.49612
G1 X103.460 Y117.040 E11.60011
G1 X103.460 Y82.960 E13.30400
G1 X105.540 Y82.960 E13.40800
G1 X105.540 Y93.322 E13.92606
G1 F600.000 E13.42606
G92 E0
G1 X123.406 Y96.319 F7800.000
G1 F600.000 E0.50000
G1 X124.819 Y94.906 F5700.000 E0.61072
G1 X125.094 Y95.924 F7800.000
G1 X123.406 Y97.612 F5700.000 E0.74295
G1 X123.406 Y98.905 F7800.000
G1 X125.094 Y97.217 F5700.000 E0.87517
G1 X125.094 Y98.510 F7800.000
G1 X123.406 Y100.197 F5700.000 E1.00739
G1 X123.406 Y101.490 F7800.000
G1 X125.094 Y99.803 F5700.000 E1.13961
G1 X125.094 Y101.095 F7800.000
G1 X123.406 Y102.783 F5700.000 E1.27183
G1 X123.406 Y104.076 F7800.000
G1 X125.094 Y102.388 F5700.000 E1.40405
G1 X125.094 Y103.681 F7800.000
G1 X123.681 Y105.094 F5700.000 E1.51478
G1 X117.094 Y103.744 F7800.000
G1 X115.744 Y105.094 F5700.000 E1.61300
G1 X114.514 Y105.094 F7800.000
G1 X117.094 Y102.514 F5700.000 E1.80069
G1 X117.094 Y101.284 F7800.000
G1 X113.284 Y105.094 F5700.000 E2.07783
G1 X112.055 Y105.094 F7800.000
G1 X117.094 Y100.055 F5700.000 E2.44444
G1 X117.094 Y98.825 F7800.000
G1 X110.825 Y105.094 F5700.000 E2.90050
G1 X109.595 Y105.094 F7800.000
G1 X117.094 Y97.595 F5700.000 E3.44602
G1 X117.094 Y96.366 F7800.000
G1 X108.366 Y105.094 F5700.000 E4.08101
G1 X107.136 Y105.094 F7800.000
G1 X117.094 Y95.136 F5700.000 E4.80545
G1 X116.094 Y94.906 F7800.000
G1 X105.906 Y105.094 F5700.000 E5.54661
G1 X104.906 Y104.864 F7800.000
G1 X114.864 Y94.906 F5700.000 E6.27106
G1 X113.635 Y94.906 F7800.000
G1 X104.906 Y103.635 F5700.000 E6.90605
G1 X104.906 Y102.405 F7800.000
G1 X112.405 Y94.906 F5700.000 E7.45157
G1 X111.175 Y94.906 F7800.000
G1 X104.906 Y101.175 F5700.000 E7.90763
G1 X104.906 Y99.945 F7800.000
G1 X109.945 Y94.906 F5700.000 E8.27424
G1 X108.716 Y94.906 F7800.000
G1 X104.906 Y98.716 F5700.000 E8.55138
G1 X104.906 Y97.486 F7800.000
G1 X107.486 Y94.906 F5700.000 E8.73907
G1 X106.257 Y94.907 F7800.000
G1 X104.906 Y96.257 F5700.000 E8.83729
M106 S130
G1 F600.000 E8.33729
G92 E0
G1 Z1.200 F7800.000
G1 X74.687 Y94.313
G1 F600.000 E0.50000
G1 X95.687 Y94.313 F3600.000 E1.54993
G1 X95.687 Y105.687 E2.11857
G1 X92.813 Y105.687 E2.26224
G1 X92.813 Y94.687 E2.81221
G1 X87.687 Y94.687 E3.06852
G1 X87.687 Y105.687 E3.61848
G1 X74.687 Y105.687 E4.26844
G1 X74.687 Y116.187 E4.79341
G1 X74.313 Y116.187 E4.81208
G1 X74.313 Y83.813 E6.43066
G1 X74.687 Y83.813 E6.44933
G1 X74.687 Y94.175 E6.96740
G1 X75.540 Y93.460 F7800.000
G1 X96.540 Y93.460 F3600.000 E8.01733
G1 X96.540 Y106.540 E8.67129
G1 X90.460 Y106.540 E8.97527
G1 X90.460 Y105.460 E9.02927
G1 X91.960 Y105.460 E9.10427
G1 X91.960 Y95.540 E9.60023
G1 X88.540 Y95.540 E9.77122
G1 X88.540 Y106.540 E10.32119
G1 X75.540 Y106.540 E10.97115
G1 X75.540 Y117.040 E11.49612
G1 X73.460 Y117.040 E11.60011
G1 X73.460 Y82.960 E13.30400
G1 X75.540 Y82.960 E13.40800
G1 X75.540 Y93.322 E13.92606
G1 F600.000 E13.42606
G92 E0
G1 X93.406 Y95.925 F7800.000
G1 F600.000 E0.50000
G1 X95.094 Y97.612 F5700.000 E0.63222
G1 X95.094 Y98.905 F7800.000
G1 X93.406 Y97.217 F5700.000 E0.76445
G1 X93.406 Y98.510 F7800.000
G1 X95.094 Y100.197 F5700.000 E0.89667
G1 X95.094 Y101.490 F7800.000
G1 X93.406 Y99.803 F5700.000 E1.02889
G1 X93.406 Y101.095 F7800.000
G1 X95.094 Y102.783 F5700.000 E1.16111
G1 X95.094 Y104.075 F7800.000
G1 X93.406 Y102.388 F5700.000 E1.29333
G1 X93.406 Y103.681 F7800.000
G1 X94.819 Y105.094 F5700.000 E1.40405
G1 X95.094 Y96.319 F7800.000
G1 X93.681 Y94.906 F5700.000 E1.51477
G1 X87.094 Y96.256 F7800.000
G1 X85.744 Y94.906 F5700.000 E1.61299
G1 X84.514 Y94.906 F7800.000
G1 X87.094 Y97.486 F5700.000 E1.80067
G1 X87.094 Y98.716 F7800.000
G1 X83.284 Y94.906 F5700.000 E2.07781
G1 X82.055 Y94.906 F7800.000
G1 X87.094 Y99.945 F5700.000 E2.44441
G1 X87.094 Y101.175 F7800.000
G1 X80.825 Y94.906 F5700.000 E2.90048
G1 X79.595 Y94.906 F7800.000
G1 X87.094 Y102.405 F5700.000 E3.44601
G1 X87.094 Y103.634 F7800.000
G1 X78.366 Y94.906 F5700.000 E4.08100
G1 X77.136 Y94.906 F7800.000
G1 X87.094 Y104.864 F5700.000 E4.80545
G1 X86.094 Y105.094 F7800.000
G1 X75.906 Y94.906 F5700.000 E5.54661
G1 X74.906 Y95.136 F7800.000
G1 X84.864 Y105.094 F5700.000 E6.27105
G1 X83.634 Y105.094 F7800.000
