; generated by Slic3r 0.7.3-dev on 2012-05-10 at 18:08:34

; layer_height = 0.4
; perimeters = 1
; solid_layers = 3
; fill_density = 0.25
; nozzle_diameter = 0.75
; filament_diameter = 3
; extrusion_multiplier = 1
; perimeter_speed = 60
; infill_speed = 95
; travel_speed = 130
; extrusion_width_ratio = 2.3
; scale = 1
; single wall width = 0.92mm

M104 S230 ; set temperature
M92 E380
G92 X0 Y0 Z0  E0.0
G1 Z2.0 F150.0
G1 X-250.0 F2100.0
G1 X-249.0 F300.0
G1 X-251.0 F100.0
G92 X3.0
G1 Y-250.0 F2100.0
G1 Y-249.0 F300.0
G1 Y-251.0 F300.0
G92 Y10.0
G1 Y70.0 F2100.0
G1 Z-250.0 F150.0
G1 Z-249.0 F50.0
G1 Z-251.0 F50.0
G1 Y75.0 E2.0  F1000.0
G1 Y100.0 E2.3  F1000.0
G92 Z0.3
G92 E0.0
M106 S70
M107
M109 S230 ; wait for temperature to be reached
G90 ; use absolute coordinates
G21 ; set units to millimeters
G92 E0 ; reset extrusion distance
M82 ; use absolute distances for extrusion
M107
G1 Z0.400 F7800.000
G1 X58.131 Y77.977
G1 F600.000 E0.50000
G1 X58.311 Y77.797 F2880.000 E0.51273
G1 X58.691 Y77.457 E0.53822
G1 X59.311 Y77.017 E0.57623
G1 X59.531 Y76.887 E0.58901
G1 X59.991 Y76.657 E0.61472
G1 X60.461 Y76.467 E0.64007
G1 X60.951 Y76.317 E0.66569
G1 X61.201 Y76.257 E0.67854
G1 X61.951 Y76.147 E0.71644
G1 X62.461 Y76.127 E0.74196
G1 X117.011 Y77.807 E3.47058
G1 X117.581 Y77.877 E3.49929
G1 X118.421 Y78.087 E3.54258
G1 X118.951 Y78.297 E3.57109
G1 X140.441 Y89.037 E4.77223
G1 X140.881 Y89.307 E4.79804
G1 X141.291 Y89.607 E4.82344
G1 X141.671 Y89.947 E4.84893
G1 X142.031 Y90.317 E4.87474
G1 X142.351 Y90.707 E4.89996
G1 X142.761 Y91.357 E4.93839
G1 X142.881 Y91.577 E4.95091
G1 X143.191 Y92.287 E4.98965
G1 X143.341 Y92.767 E5.01479
G1 X143.481 Y93.527 E5.05343
G1 X143.511 Y93.777 E5.06602
G1 X143.511 Y107.877 E5.77097
G1 X143.441 Y108.387 E5.79671
G1 X143.341 Y108.887 E5.82220
G1 X143.191 Y109.367 E5.84735
G1 X142.881 Y110.077 E5.88608
G1 X142.491 Y110.737 E5.92441
G1 X142.351 Y110.947 E5.93703
G1 X142.031 Y111.337 E5.96225
G1 X141.671 Y111.707 E5.98806
G1 X141.291 Y112.047 E6.01355
G1 X140.881 Y112.347 E6.03895
G1 X140.441 Y112.617 E6.06476
G1 X118.961 Y123.357 E7.26546
G1 X118.441 Y123.557 E7.29331
G1 X117.911 Y123.707 E7.32085
G1 X117.641 Y123.767 E7.33468
G1 X117.091 Y123.837 E7.36240
G1 X116.531 Y123.867 E7.39044
G1 X88.071 Y123.857 E8.81335
G1 X61.821 Y122.167 E10.12849
G1 X61.311 Y122.087 E10.15430
G1 X60.811 Y121.967 E10.18000
G1 X60.081 Y121.707 E10.21875
G1 X59.611 Y121.477 E10.24491
G1 X59.171 Y121.217 E10.27046
G1 X58.551 Y120.747 E10.30936
G1 X58.171 Y120.397 E10.33519
G1 X57.671 Y119.807 E10.37386
G1 X57.381 Y119.387 E10.39937
G1 X57.121 Y118.937 E10.42536
G1 X56.901 Y118.467 E10.45130
G1 X56.731 Y117.977 E10.47723
G1 X56.601 Y117.477 E10.50306
G1 X56.511 Y116.967 E10.52896
G1 X56.481 Y116.717 E10.54154
G1 X56.481 Y81.617 E12.29643
G1 X56.591 Y80.867 E12.33433
G1 X56.721 Y80.367 E12.36016
G1 X56.891 Y79.887 E12.38562
G1 X57.101 Y79.427 E12.41090
G1 X57.221 Y79.197 E12.42387
G1 X57.351 Y78.977 E12.43665
G1 X57.791 Y78.357 E12.47466
G1 X58.039 Y78.080 E12.49326
G1 F600.000 E11.99326
G92 E0
G1 X88.459 Y83.793 F7800.000
G1 F600.000 E0.50000
G1 X90.539 Y83.793 F2880.000 E0.60399
G1 X90.539 Y94.293 E1.12896
G1 X111.539 Y94.293 E2.17890
G1 X111.539 Y107.373 E2.83285
G1 X105.459 Y107.373 E3.13684
G1 X105.459 Y106.293 E3.19083
G1 X106.959 Y106.293 E3.26583
G1 X106.959 Y96.373 E3.76180
G1 X103.539 Y96.373 E3.93279
G1 X103.539 Y107.373 E4.48275
G1 X90.539 Y107.373 E5.13271
G1 X90.539 Y117.873 E5.65768
G1 X88.459 Y117.873 E5.76167
G1 X88.459 Y83.931 E7.45866
G1 F600.000 E6.95866
G92 E0
G1 X114.459 Y83.793 F7800.000
G1 F600.000 E0.50000
G1 X116.539 Y83.793 F2880.000 E0.60399
G1 X116.539 Y94.293 E1.12896
G1 X137.539 Y94.293 E2.17890
G1 X137.539 Y107.373 E2.83285
G1 X131.459 Y107.373 E3.13684
G1 X131.459 Y106.293 E3.19083
G1 X132.959 Y106.293 E3.26583
G1 X132.959 Y96.373 E3.76180
G1 X129.539 Y96.373 E3.93279
G1 X129.539 Y107.373 E4.48275
G1 X116.539 Y107.373 E5.13271
G1 X116.539 Y117.873 E5.65768
G1 X114.459 Y117.873 E5.76167
G1 X114.459 Y83.931 E7.45866
G1 F600.000 E6.95866
G92 E0
G1 X85.539 Y92.625 F7800.000
G1 F600.000 E0.50000
G1 X85.539 Y105.705 F2880.000 E1.15396
G1 X79.459 Y105.705 E1.45794
G1 X79.459 Y104.625 E1.51194
G1 X80.959 Y104.625 E1.58693
G1 X80.959 Y94.705 E2.08290
G1 X77.539 Y94.705 E2.25389
G1 X77.539 Y105.705 E2.80386
G1 X64.539 Y105.705 E3.45382
G1 X64.539 Y116.205 E3.97878
G1 X62.461 Y116.205 E4.08268
G1 X62.461 Y82.127 E5.78647
G1 X64.539 Y82.127 E5.89036
G1 X64.539 Y92.625 E6.41523
G1 X85.401 Y92.625 E7.45827
G1 F600.000 E6.95827
G92 E0
G1 X115.052 Y92.689 F7800.000
G1 F600.000 E0.50000
G1 X115.946 Y93.583 F4560.000 E0.56455
G1 X115.052 Y93.912 F7800.000
G1 X115.946 Y94.806 F4560.000 E0.62910
G1 X116.026 Y94.886 F7800.000
G1 X127.920 Y106.780 F4560.000 E1.48793
G1 X128.946 Y106.583 F7800.000
G1 X117.249 Y94.886 F4560.000 E2.33251
G1 X118.472 Y94.886 F7800.000
G1 X128.946 Y105.360 F4560.000 E3.08875
G1 X128.946 Y104.136 F7800.000
G1 X119.696 Y94.886 F4560.000 E3.75665
G1 X120.920 Y94.886 F7800.000
G1 X128.947 Y102.912 F4560.000 E4.33622
G1 X128.946 Y101.688 F7800.000
G1 X122.143 Y94.886 F4560.000 E4.82740
G1 X123.367 Y94.886 F7800.000
G1 X128.946 Y100.465 F4560.000 E5.23023
G1 X128.946 Y99.242 F7800.000
G1 X124.590 Y94.886 F4560.000 E5.54474
G1 X125.814 Y94.886 F7800.000
G1 X128.946 Y98.018 F4560.000 E5.77091
G1 X128.946 Y96.795 F7800.000
G1 X127.037 Y94.886 F4560.000 E5.90876
G1 X128.261 Y94.886 F7800.000
G1 X129.155 Y95.780 F4560.000 E5.97330
G1 X129.485 Y94.886 F7800.000
G1 X130.379 Y95.780 F4560.000 E6.03783
G1 X130.708 Y94.886 F7800.000
G1 X131.602 Y95.780 F4560.000 E6.10237
G1 X131.931 Y94.886 F7800.000
G1 X132.825 Y95.780 F4560.000 E6.16690
G1 X133.552 Y95.283 F7800.000
G1 X136.946 Y98.677 F4560.000 E6.41198
G1 X136.946 Y99.901 F7800.000
G1 X133.552 Y96.507 F4560.000 E6.65705
G1 X134.049 Y95.780 F7800.000
G1 X133.155 Y94.886 F4560.000 E6.72164
G1 X134.378 Y94.886 F7800.000
G1 X136.945 Y97.453 F4560.000 E6.90703
G1 X136.946 Y96.229 F7800.000
G1 X135.603 Y94.886 F4560.000 E7.00403
G1 X133.552 Y97.730 F7800.000
G1 X136.946 Y101.124 F4560.000 E7.24911
G1 X136.946 Y102.347 F7800.000
G1 X133.552 Y98.953 F4560.000 E7.49418
G1 X133.552 Y100.177 F7800.000
G1 X136.946 Y103.571 F4560.000 E7.73925
G1 X136.945 Y104.795 F7800.000
G1 X133.552 Y101.401 F4560.000 E7.98428
G1 X133.552 Y102.625 F7800.000
G1 X136.946 Y106.019 F4560.000 E8.22935
G1 X136.484 Y106.780 F7800.000
G1 X133.552 Y103.848 F4560.000 E8.44108
G1 X133.552 Y105.071 F7800.000
G1 X135.261 Y106.780 F4560.000 E8.56449
G1 X126.696 Y106.779 F7800.000
G1 X115.052 Y95.136 F4560.000 E9.40523
G1 X115.052 Y96.359 F7800.000
G1 X125.473 Y106.779 F4560.000 E10.15763
G1 X124.249 Y106.780 F7800.000
G1 X115.052 Y97.583 F4560.000 E10.82169
G1 X115.052 Y98.807 F7800.000
G1 X123.025 Y106.780 F4560.000 E11.39742
G1 X121.802 Y106.780 F7800.000
G1 X115.052 Y100.030 F4560.000 E11.88481
G1 X115.052 Y101.254 F7800.000
G1 X120.579 Y106.780 F4560.000 E12.28386
G1 X119.355 Y106.779 F7800.000
G1 X115.052 Y102.477 F4560.000 E12.59452
G1 X115.052 Y103.700 F7800.000
G1 X118.131 Y106.779 F4560.000 E12.81685
G1 X116.907 Y106.780 F7800.000
G1 X115.052 Y104.925 F4560.000 E12.95084
G1 X115.052 Y106.148 F7800.000
G1 X115.946 Y107.042 F4560.000 E13.01538
G1 X115.052 Y107.371 F7800.000
G1 X115.946 Y108.265 F4560.000 E13.07992
G1 X115.052 Y108.595 F7800.000
G1 X115.946 Y109.488 F4560.000 E13.14446
G1 X115.052 Y109.818 F7800.000
G1 X115.946 Y110.712 F4560.000 E13.20904
G1 X115.053 Y111.042 F7800.000
G1 X115.946 Y111.936 F4560.000 E13.27358
G1 X115.052 Y112.266 F7800.000
G1 X115.946 Y113.160 F4560.000 E13.33811
G1 X115.052 Y113.489 F7800.000
G1 X115.946 Y114.383 F4560.000 E13.40265
G1 X115.052 Y114.713 F7800.000
G1 X115.946 Y115.606 F4560.000 E13.46719
G1 X115.052 Y115.936 F7800.000
G1 X115.946 Y116.830 F4560.000 E13.53172
G1 F600.000 E13.03172
G92 E0
G1 X115.946 Y92.360 F7800.000
G1 F600.000 E0.50000
G1 X115.052 Y91.466 F4560.000 E0.56455
G1 X115.946 Y91.136 F7800.000
G1 X115.052 Y90.242 F4560.000 E0.62910
G1 X115.946 Y89.912 F7800.000
G1 X115.052 Y89.018 F4560.000 E0.69365
G1 X115.946 Y88.689 F7800.000
G1 X115.052 Y87.795 F4560.000 E0.75819
G1 X115.946 Y87.465 F7800.000
G1 X115.052 Y86.571 F4560.000 E0.82275
G1 X115.946 Y86.242 F7800.000
G1 X115.052 Y85.348 F4560.000 E0.88730
G1 X115.946 Y85.018 F7800.000
G1 X115.314 Y84.386 F4560.000 E0.93294
G1 F600.000 E0.43294
G92 E0
G1 X109.602 Y94.886 F7800.000
G1 F600.000 E0.50000
G1 X110.946 Y96.230 F4560.000 E0.59704
G1 X110.946 Y97.453 F7800.000
G1 X108.379 Y94.886 F4560.000 E0.78243
G1 X107.552 Y95.283 F7800.000
G1 X110.946 Y98.677 F4560.000 E1.02749
G1 X110.946 Y99.901 F7800.000
G1 X107.552 Y96.507 F4560.000 E1.27255
G1 X108.049 Y95.780 F7800.000
G1 X107.155 Y94.886 F4560.000 E1.33710
G1 X106.825 Y95.780 F7800.000
G1 X105.931 Y94.886 F4560.000 E1.40165
G1 X105.602 Y95.780 F7800.000
G1 X104.708 Y94.886 F4560.000 E1.46620
G1 X104.378 Y95.780 F7800.000
G1 X103.484 Y94.886 F4560.000 E1.53075
G1 X103.155 Y95.780 F7800.000
G1 X102.261 Y94.886 F4560.000 E1.59530
G1 X101.038 Y94.886 F7800.000
G1 X102.946 Y96.794 F4560.000 E1.73312
G1 X102.946 Y98.018 F7800.000
G1 X99.813 Y94.886 F4560.000 E1.95928
G1 X98.590 Y94.886 F7800.000
G1 X102.946 Y99.242 F4560.000 E2.27378
G1 X102.946 Y100.465 F7800.000
G1 X97.367 Y94.886 F4560.000 E2.67664
G1 X96.143 Y94.886 F7800.000
G1 X102.946 Y101.689 F4560.000 E3.16784
G1 X102.946 Y102.912 F7800.000
G1 X94.920 Y94.886 F4560.000 E3.74738
G1 X93.696 Y94.886 F7800.000
G1 X102.946 Y104.136 F4560.000 E4.41527
G1 X102.946 Y105.360 F7800.000
G1 X92.472 Y94.886 F4560.000 E5.17150
G1 X91.249 Y94.886 F7800.000
G1 X102.946 Y106.583 F4560.000 E6.01608
G1 X101.919 Y106.780 F7800.000
G1 X90.025 Y94.886 F4560.000 E6.87489
G1 X89.946 Y94.807 F7800.000
G1 X89.052 Y93.913 F4560.000 E6.93944
G1 X89.946 Y93.583 F7800.000
G1 X89.052 Y92.689 F4560.000 E7.00399
G1 X89.946 Y92.360 F7800.000
G1 X89.052 Y91.466 F4560.000 E7.06854
G1 X89.946 Y91.136 F7800.000
G1 X89.052 Y90.242 F4560.000 E7.13309
G1 X89.946 Y89.912 F7800.000
G1 X89.052 Y89.018 F4560.000 E7.19764
G1 X89.946 Y88.689 F7800.000
G1 X89.052 Y87.795 F4560.000 E7.26219
G1 X89.946 Y87.465 F7800.000
G1 X89.052 Y86.571 F4560.000 E7.32674
G1 X89.946 Y86.242 F7800.000
G1 X89.052 Y85.348 F4560.000 E7.39129
G1 X89.946 Y85.018 F7800.000
G1 X89.313 Y84.386 F4560.000 E7.43694
G1 F600.000 E6.93694
G92 E0
G1 X89.052 Y95.136 F7800.000
G1 F600.000 E0.50000
G1 X100.696 Y106.780 F4560.000 E1.34076
G1 X99.473 Y106.780 F7800.000
G1 X89.052 Y96.359 F4560.000 E2.09318
G1 X89.052 Y97.583 F7800.000
G1 X98.249 Y106.780 F4560.000 E2.75724
G1 X97.025 Y106.780 F7800.000
G1 X89.052 Y98.807 F4560.000 E3.33296
G1 X89.052 Y100.030 F7800.000
G1 X95.802 Y106.780 F4560.000 E3.82034
G1 X94.578 Y106.780 F7800.000
G1 X89.052 Y101.254 F4560.000 E4.21937
G1 X89.052 Y102.477 F7800.000
G1 X93.355 Y106.780 F4560.000 E4.53006
G1 X92.131 Y106.780 F7800.000
G1 X89.052 Y103.701 F4560.000 E4.75240
G1 X89.052 Y104.924 F7800.000
G1 X90.908 Y106.780 F4560.000 E4.88640
G1 X89.946 Y107.042 F7800.000
G1 X89.052 Y106.148 F4560.000 E4.95094
G1 X89.052 Y107.371 F7800.000
G1 X89.946 Y108.265 F4560.000 E5.01549
G1 X89.052 Y108.595 F7800.000
G1 X89.946 Y109.489 F4560.000 E5.08005
G1 X89.052 Y109.818 F7800.000
G1 X89.946 Y110.712 F4560.000 E5.14459
G1 X89.052 Y111.042 F7800.000
G1 X89.946 Y111.936 F4560.000 E5.20914
G1 X89.052 Y112.265 F7800.000
G1 X89.946 Y113.159 F4560.000 E5.27369
G1 X89.052 Y113.489 F7800.000
G1 X89.946 Y114.383 F4560.000 E5.33824
G1 X89.052 Y114.713 F7800.000
G1 X89.946 Y115.607 F4560.000 E5.40279
G1 X89.052 Y115.936 F7800.000
G1 X89.946 Y116.830 F4560.000 E5.46734
G1 F600.000 E4.96734
G92 E0
G1 X107.552 Y105.071 F7800.000
G1 F600.000 E0.50000
G1 X109.261 Y106.780 F4560.000 E0.62337
G1 X110.484 Y106.780 F7800.000
G1 X107.552 Y103.848 F4560.000 E0.83510
G1 X107.552 Y102.625 F7800.000
G1 X110.946 Y106.018 F4560.000 E1.08016
G1 X110.946 Y104.794 F7800.000
G1 X107.552 Y101.400 F4560.000 E1.32522
G1 X107.552 Y100.177 F7800.000
G1 X110.946 Y103.571 F4560.000 E1.57029
G1 X110.946 Y102.348 F7800.000
G1 X107.552 Y98.954 F4560.000 E1.81535
G1 X107.552 Y97.730 F7800.000
G1 X110.946 Y101.124 F4560.000 E2.06041
G1 F600.000 E1.56041
G92 E0
G1 X84.946 Y100.679 F7800.000
G1 F600.000 E0.50000
G1 X81.552 Y97.285 F4560.000 E0.74505
G1 X81.552 Y98.509 F7800.000
G1 X84.946 Y101.903 F4560.000 E0.99009
G1 X84.946 Y103.126 F7800.000
G1 X81.552 Y99.732 F4560.000 E1.23514
G1 X81.552 Y100.956 F7800.000
G1 X84.946 Y104.350 F4560.000 E1.48019
G1 X84.485 Y105.112 F7800.000
G1 X81.552 Y102.179 F4560.000 E1.69194
G1 X81.552 Y103.403 F7800.000
G1 X83.261 Y105.112 F4560.000 E1.81535
G1 X84.946 Y99.456 F7800.000
G1 X81.552 Y96.062 F4560.000 E2.06040
G1 X81.552 Y94.838 F7800.000
G1 X84.946 Y98.232 F4560.000 E2.30544
G1 X84.946 Y97.009 F7800.000
G1 X81.552 Y93.615 F4560.000 E2.55049
G1 X81.155 Y93.218 F7800.000
G1 X82.049 Y94.112 F4560.000 E2.61504
G1 X82.378 Y93.218 F7800.000
G1 X84.946 Y95.786 F4560.000 E2.80041
G1 X84.946 Y94.562 F7800.000
G1 X83.602 Y93.218 F4560.000 E2.89743
G1 X80.826 Y94.112 F7800.000
G1 X79.932 Y93.218 F4560.000 E2.96198
G1 X79.602 Y94.112 F7800.000
G1 X78.708 Y93.218 F4560.000 E3.02652
G1 X78.379 Y94.112 F7800.000
G1 X77.485 Y93.218 F4560.000 E3.09107
G1 X77.155 Y94.112 F7800.000
G1 X76.261 Y93.218 F4560.000 E3.15562
G1 X75.038 Y93.218 F7800.000
G1 X76.946 Y95.126 F4560.000 E3.29339
G1 X76.946 Y96.350 F7800.000
G1 X73.814 Y93.218 F4560.000 E3.51950
G1 X72.591 Y93.218 F7800.000
G1 X76.946 Y97.573 F4560.000 E3.83395
G1 X76.946 Y98.797 F7800.000
G1 X71.367 Y93.218 F4560.000 E4.23673
G1 X70.144 Y93.218 F7800.000
G1 X76.946 Y100.020 F4560.000 E4.72784
G1 X76.946 Y101.244 F7800.000
G1 X68.920 Y93.218 F4560.000 E5.30730
G1 X67.697 Y93.218 F7800.000
G1 X76.946 Y102.467 F4560.000 E5.97509
G1 X76.946 Y103.690 F7800.000
G1 X66.474 Y93.218 F4560.000 E6.73121
G1 X65.250 Y93.218 F7800.000
G1 X76.946 Y104.914 F4560.000 E7.57566
G1 X75.920 Y105.112 F7800.000
G1 X64.026 Y93.218 F4560.000 E8.43442
G1 X63.946 Y93.138 F7800.000
G1 X63.054 Y92.246 F4560.000 E8.49882
G1 X63.946 Y91.914 F7800.000
G1 X63.054 Y91.022 F4560.000 E8.56323
G1 X63.946 Y90.690 F7800.000
G1 X63.054 Y89.798 F4560.000 E8.62762
G1 X63.946 Y89.467 F7800.000
G1 X63.054 Y88.575 F4560.000 E8.69202
G1 X63.946 Y88.244 F7800.000
G1 X63.054 Y87.352 F4560.000 E8.75643
G1 X63.946 Y87.020 F7800.000
G1 X63.054 Y86.128 F4560.000 E8.82083
G1 X63.946 Y85.797 F7800.000
G1 X63.054 Y84.905 F4560.000 E8.88523
G1 X63.946 Y84.573 F7800.000
G1 X63.054 Y83.681 F4560.000 E8.94962
G1 X63.946 Y83.350 F7800.000
G1 X63.316 Y82.720 F4560.000 E8.99509
G1 F600.000 E8.49509
G92 E0
G1 X63.054 Y93.469 F7800.000
G1 F600.000 E0.50000
G1 X74.697 Y105.112 F4560.000 E1.34063
G1 X73.473 Y105.112 F7800.000
G1 X63.054 Y94.693 F4560.000 E2.09292
G1 X63.054 Y95.916 F7800.000
G1 X72.250 Y105.112 F4560.000 E2.75688
G1 X71.027 Y105.112 F7800.000
G1 X63.054 Y97.139 F4560.000 E3.33251
G1 X63.054 Y98.363 F7800.000
G1 X69.803 Y105.112 F4560.000 E3.81979
G1 X68.580 Y105.112 F7800.000
G1 X63.054 Y99.586 F4560.000 E4.21874
G1 X63.054 Y100.810 F7800.000
G1 X67.356 Y105.112 F4560.000 E4.52936
G1 X66.132 Y105.112 F7800.000
G1 X63.054 Y102.034 F4560.000 E4.75165
G1 X63.054 Y103.257 F7800.000
G1 X64.909 Y105.112 F4560.000 E4.88559
G1 X63.946 Y105.372 F7800.000
G1 X63.054 Y104.480 F4560.000 E4.95000
G1 X63.054 Y105.704 F7800.000
G1 X63.946 Y106.596 F4560.000 E5.01440
G1 X63.054 Y106.927 F7800.000
G1 X63.946 Y107.819 F4560.000 E5.07880
G1 X63.054 Y108.151 F7800.000
G1 X63.946 Y109.043 F4560.000 E5.14320
G1 X63.054 Y109.374 F7800.000
G1 X63.946 Y110.266 F4560.000 E5.20760
G1 X63.054 Y110.597 F7800.000
G1 X63.946 Y111.489 F4560.000 E5.27200
G1 X63.054 Y111.821 F7800.000
G1 X63.946 Y112.713 F4560.000 E5.33640
G1 X63.054 Y113.045 F7800.000
G1 X63.946 Y113.937 F4560.000 E5.40080
G1 X63.054 Y114.268 F7800.000
G1 X63.946 Y115.160 F4560.000 E5.46520
M106 S80
G1 F600.000 E4.96520
G92 E0
G1 Z0.800 F7800.000
G1 X88.459 Y117.873
G1 F600.000 E0.50000
G1 X88.459 Y83.793 F3600.000 E2.20389
G1 X90.539 Y83.793 E2.30789
