; generated by Slic3r 0.7.3-dev on 2012-05-08 at 22:34:12

; layer_height = 0.4
; perimeters = 1
; solid_layers = 3
; fill_density = 0.25
; nozzle_diameter = 0.75
; filament_diameter = 3
; extrusion_multiplier = 1
; perimeter_speed = 40
; infill_speed = 50
; travel_speed = 130
; extrusion_width_ratio = 2.3
; scale = 1
; single wall width = 0.92mm

M104 S230 ; set temperature
M92 E380
G92 X0 Y0 Z0  E0.0
G1 Z2.0 F150.0
G1 X-250.0 F2100.0
G1 X-249.0 F300.0
G1 X-251.0 F100.0
G92 X3.0
G1 Y-250.0 F2100.0
G1 Y-249.0 F300.0
G1 Y-251.0 F300.0
G92 Y10.0
G1 Y70.0 F2100.0
G1 Z-250.0 F150.0
G1 Z-249.0 F50.0
G1 Z-251.0 F50.0
G1 Y75.0 E2.0  F1000.0
G1 Y100.0 E2.3  F1000.0
G92 Z0.3
G92 E0.0
M106 S70
M107
M109 S230 ; wait for temperature to be reached
G90 ; use absolute coordinates
G21 ; set units to millimeters
G92 E0 ; reset extrusion distance
M82 ; use absolute distances for extrusion
G1 Z0.400 F7800.000
G1 X77.630 Y78.810
G1 F600.000 E0.50000
G1 X77.810 Y78.630 F1920.000 E0.51273
G1 X78.190 Y78.290 E0.53822
G1 X78.810 Y77.850 E0.57623
G1 X79.030 Y77.720 E0.58901
G1 X79.490 Y77.490 E0.61472
G1 X79.960 Y77.300 E0.64007
G1 X80.450 Y77.150 E0.66569
G1 X80.700 Y77.090 E0.67854
G1 X81.450 Y76.980 E0.71644
G1 X81.960 Y76.960 E0.74196
G1 X84.340 Y76.970 E0.86095
G1 X84.640 Y76.990 E0.87598
G1 X85.230 Y77.080 E0.90582
G1 X120.050 Y87.810 E2.72750
G1 X120.520 Y88.000 E2.75284
G1 X120.980 Y88.230 E2.77856
G1 X121.200 Y88.360 E2.79133
G1 X121.620 Y88.640 E2.81657
G1 X122.200 Y89.130 E2.85453
G1 X122.380 Y89.310 E2.86726
G1 X122.550 Y89.500 E2.88001
G1 X122.870 Y89.900 E2.90562
G1 X123.150 Y90.320 E2.93085
G1 X123.400 Y90.760 E2.95616
G1 X123.700 Y91.460 E2.99423
G1 X123.850 Y91.950 E3.01985
G1 X123.910 Y92.200 E3.03271
G1 X124.020 Y92.950 E3.07061
G1 X124.020 Y107.050 E3.77556
G1 X123.910 Y107.800 E3.81346
G1 X123.700 Y108.540 E3.85192
G1 X123.510 Y109.010 E3.87727
G1 X123.400 Y109.240 E3.89001
G1 X123.150 Y109.680 E3.91531
G1 X122.870 Y110.100 E3.94055
G1 X122.550 Y110.500 E3.96616
G1 X122.380 Y110.690 E3.97891
G1 X122.200 Y110.870 E3.99164
G1 X121.620 Y111.360 E4.02960
G1 X121.200 Y111.640 E4.05483
G1 X120.980 Y111.770 E4.06761
G1 X120.520 Y112.000 E4.09332
G1 X120.050 Y112.190 E4.11867
G1 X85.520 Y122.850 E5.92546
G1 X85.230 Y122.920 E5.94037
G1 X84.640 Y123.010 E5.97021
G1 X84.040 Y123.040 E6.00025
G1 X81.450 Y123.020 E6.12974
G1 X80.700 Y122.910 E6.16764
G1 X80.200 Y122.780 E6.19347
G1 X79.720 Y122.610 E6.21893
G1 X79.260 Y122.400 E6.24421
G1 X79.030 Y122.280 E6.25718
G1 X78.810 Y122.150 E6.26996
G1 X78.190 Y121.710 E6.30797
G1 X77.810 Y121.370 E6.33346
G1 X77.630 Y121.190 E6.34619
G1 X77.290 Y120.810 E6.37168
G1 X76.850 Y120.190 E6.40970
G1 X76.720 Y119.970 E6.42247
G1 X76.490 Y119.510 E6.44818
G1 X76.300 Y119.040 E6.47353
G1 X76.150 Y118.550 E6.49915
G1 X76.090 Y118.300 E6.51201
G1 X75.980 Y117.550 E6.54990
G1 X75.980 Y82.450 E8.30479
G1 X76.090 Y81.700 E8.34269
G1 X76.220 Y81.200 E8.36852
G1 X76.390 Y80.720 E8.39398
G1 X76.600 Y80.260 E8.41926
G1 X76.720 Y80.030 E8.43223
G1 X76.850 Y79.810 E8.44501
G1 X77.290 Y79.190 E8.48302
G1 X77.538 Y78.913 E8.50162
G1 F600.000 E8.00162
G92 E0
G1 X81.960 Y82.960 F7800.000
G1 F600.000 E0.50000
G1 X84.040 Y82.960 F1920.000 E0.60399
G1 X84.040 Y93.460 E1.12896
G1 X118.040 Y93.460 E2.82885
G1 X118.040 Y106.540 E3.48281
G1 X111.960 Y106.540 E3.78679
G1 X111.960 Y105.460 E3.84079
G1 X113.460 Y105.460 E3.91579
G1 X113.460 Y95.540 E4.41176
G1 X110.040 Y95.540 E4.58274
G1 X110.040 Y106.540 E5.13271
G1 X84.040 Y106.540 E6.43263
G1 X84.040 Y117.040 E6.95760
G1 X81.960 Y117.040 E7.06159
G1 X81.960 Y83.098 E8.75858
G1 X82.553 Y83.555 F7800.000
G1 X83.447 Y84.449 F1920.000 E8.82235
G1 X82.553 Y84.769 F7800.000
G1 X83.447 Y85.663 F1920.000 E8.88613
G1 X82.553 Y85.982 F7800.000
G1 X83.447 Y86.876 F1920.000 E8.94990
G1 X82.553 Y87.196 F7800.000
G1 X83.447 Y88.090 F1920.000 E9.01368
G1 X82.553 Y88.410 F7800.000
G1 X83.447 Y89.304 F1920.000 E9.07745
G1 X82.553 Y89.624 F7800.000
G1 X83.447 Y90.518 F1920.000 E9.14122
G1 X82.553 Y90.837 F7800.000
G1 X83.447 Y91.731 F1920.000 E9.20500
G1 X82.553 Y92.051 F7800.000
G1 X83.447 Y92.945 F1920.000 E9.26877
G1 X82.553 Y93.265 F7800.000
G1 X83.447 Y94.159 F1920.000 E9.33254
G1 X83.341 Y94.053 F7800.000
G1 X95.235 Y105.947 F1920.000 E10.18103
G1 X96.449 Y105.947 F7800.000
G1 X84.555 Y94.053 F1920.000 E11.02952
G1 X85.769 Y94.053 F7800.000
G1 X97.663 Y105.947 F1920.000 E11.87801
G1 X98.876 Y105.947 F7800.000
G1 X86.982 Y94.053 F1920.000 E12.72650
G1 X88.196 Y94.053 F7800.000
G1 X100.090 Y105.947 F1920.000 E13.57499
G1 X101.304 Y105.947 F7800.000
G1 X89.410 Y94.053 F1920.000 E14.42348
G1 X90.624 Y94.053 F7800.000
G1 X102.518 Y105.947 F1920.000 E15.27197
G1 X103.731 Y105.947 F7800.000
G1 X91.837 Y94.053 F1920.000 E16.12046
G1 X93.051 Y94.053 F7800.000
G1 X104.945 Y105.947 F1920.000 E16.96895
G1 X106.159 Y105.947 F7800.000
G1 X94.265 Y94.053 F1920.000 E17.81744
G1 X95.479 Y94.053 F7800.000
G1 X107.373 Y105.947 F1920.000 E18.66592
G1 X108.587 Y105.947 F7800.000
G1 X96.692 Y94.053 F1920.000 E19.51441
G1 X97.906 Y94.053 F7800.000
G1 X109.447 Y105.594 F1920.000 E20.33770
G1 X109.447 Y104.380 F7800.000
G1 X99.120 Y94.053 F1920.000 E21.07440
G1 X100.334 Y94.053 F7800.000
G1 X109.447 Y103.166 F1920.000 E21.72451
G1 X109.447 Y101.952 F7800.000
G1 X101.548 Y94.053 F1920.000 E22.28804
G1 X102.761 Y94.053 F7800.000
G1 X109.447 Y100.739 F1920.000 E22.76498
G1 X109.447 Y99.525 F7800.000
G1 X103.975 Y94.053 F1920.000 E23.15533
G1 X105.189 Y94.053 F7800.000
G1 X109.447 Y98.311 F1920.000 E23.45909
G1 X109.447 Y97.097 F7800.000
G1 X106.403 Y94.053 F1920.000 E23.67627
G1 X107.616 Y94.053 F7800.000
G1 X109.447 Y95.884 F1920.000 E23.80686
G1 X109.724 Y94.947 F7800.000
G1 X108.830 Y94.053 F1920.000 E23.87063
G1 X110.044 Y94.053 F7800.000
G1 X110.938 Y94.947 F1920.000 E23.93440
G1 X111.258 Y94.053 F7800.000
G1 X112.152 Y94.947 F1920.000 E23.99818
G1 X112.471 Y94.053 F7800.000
G1 X113.365 Y94.947 F1920.000 E24.06195
G1 X113.685 Y94.053 F7800.000
G1 X117.447 Y97.815 F1920.000 E24.33030
G1 X117.447 Y96.601 F7800.000
G1 X114.899 Y94.053 F1920.000 E24.51207
G1 X116.113 Y94.053 F7800.000
G1 X117.447 Y95.387 F1920.000 E24.60725
G1 X114.053 Y95.635 F7800.000
G1 X117.447 Y99.029 F1920.000 E24.84937
G1 X117.447 Y100.242 F7800.000
G1 X114.053 Y96.848 F1920.000 E25.09149
G1 X114.053 Y98.062 F7800.000
G1 X117.447 Y101.456 F1920.000 E25.33361
G1 X117.447 Y102.670 F7800.000
G1 X114.053 Y99.276 F1920.000 E25.57573
G1 X114.053 Y100.490 F7800.000
G1 X117.447 Y103.884 F1920.000 E25.81785
G1 X117.447 Y105.097 F7800.000
G1 X114.053 Y101.703 F1920.000 E26.05996
G1 X114.053 Y102.917 F7800.000
G1 X117.083 Y105.947 F1920.000 E26.27611
G1 X115.869 Y105.947 F7800.000
G1 X114.053 Y104.131 F1920.000 E26.40567
G1 X114.053 Y105.345 F7800.000
G1 X114.655 Y105.947 F1920.000 E26.44863
G1 F600.000 E25.94863
G92 E0
G1 X94.021 Y105.947 F7800.000
G1 F600.000 E0.50000
G1 X82.553 Y94.479 F1920.000 E1.31812
G1 X82.553 Y95.692 F7800.000
G1 X92.807 Y105.947 F1920.000 E2.04965
G1 X91.594 Y105.947 F7800.000
G1 X82.553 Y96.906 F1920.000 E2.69460
G1 X82.553 Y98.120 F7800.000
G1 X90.380 Y105.947 F1920.000 E3.25295
G1 X89.166 Y105.947 F7800.000
G1 X82.553 Y99.334 F1920.000 E3.72473
G1 X82.553 Y100.548 F7800.000
G1 X87.952 Y105.947 F1920.000 E4.10991
G1 X86.739 Y105.947 F7800.000
G1 X82.553 Y101.761 F1920.000 E4.40850
G1 X82.553 Y102.975 F7800.000
G1 X85.525 Y105.947 F1920.000 E4.62051
G1 X84.311 Y105.947 F7800.000
G1 X82.553 Y104.189 F1920.000 E4.74593
G1 X82.553 Y105.403 F7800.000
G1 X83.447 Y106.297 F1920.000 E4.80971
G1 X82.553 Y106.616 F7800.000
G1 X83.447 Y107.510 F1920.000 E4.87348
G1 X82.553 Y107.830 F7800.000
G1 X83.447 Y108.724 F1920.000 E4.93726
G1 X82.553 Y109.044 F7800.000
G1 X83.447 Y109.938 F1920.000 E5.00103
G1 X82.553 Y110.258 F7800.000
G1 X83.447 Y111.152 F1920.000 E5.06480
G1 X82.553 Y111.471 F7800.000
G1 X83.447 Y112.365 F1920.000 E5.12858
G1 X82.553 Y112.685 F7800.000
G1 X83.447 Y113.579 F1920.000 E5.19235
G1 X82.553 Y113.899 F7800.000
G1 X83.447 Y114.793 F1920.000 E5.25612
G1 X82.553 Y115.113 F7800.000
G1 X83.447 Y116.007 F1920.000 E5.31990
G1 F600.000 E4.81990
G92 E0
G1 Z0.800 F7800.000
G1 X84.040 Y117.040
G1 F600.000 E0.50000
G1 X81.960 Y117.040 F2400.000 E0.60399
G1 X81.960 Y82.960 E2.30789
G1 X84.040 Y82.960 E2.41188
G1 X84.040 Y93.460 E2.93685
G1 X118.040 Y93.460 E4.63674
G1 X118.040 Y106.540 E5.29070
G1 X111.960 Y106.540 E5.59468
G1 X111.960 Y105.460 E5.64868
G1 X113.460 Y105.460 E5.72367
G1 X113.460 Y95.540 E6.21964
G1 X110.040 Y95.540 E6.39063
G1 X110.040 Y106.540 E6.94060
G1 X84.040 Y106.540 E8.24052
G1 X84.040 Y116.902 E8.75858
G1 X83.447 Y115.552 F7800.000
G1 X82.553 Y116.446 F2400.000 E8.82236
G1 X82.553 Y115.231 F7800.000
G1 X83.447 Y114.337 F2400.000 E8.88613
G1 X82.553 Y114.018 F7800.000
G1 X83.447 Y113.124 F2400.000 E8.94990
G1 X82.553 Y112.804 F7800.000
G1 X83.447 Y111.910 F2400.000 E9.01368
G1 X82.553 Y111.590 F7800.000
G1 X83.447 Y110.697 F2400.000 E9.07745
G1 X82.553 Y110.376 F7800.000
G1 X83.447 Y109.482 F2400.000 E9.14123
G1 X82.553 Y109.163 F7800.000
G1 X83.447 Y108.269 F2400.000 E9.20500
G1 X82.553 Y107.949 F7800.000
G1 X83.447 Y107.055 F2400.000 E9.26877
G1 X82.553 Y106.735 F7800.000
G1 X83.447 Y105.841 F2400.000 E9.33255
G1 X83.341 Y105.947 F7800.000
G1 X95.235 Y94.053 F2400.000 E10.18103
G1 X94.021 Y94.053 F7800.000
G1 X82.553 Y105.521 F2400.000 E10.99915
G1 X82.553 Y104.308 F7800.000
G1 X92.808 Y94.053 F2400.000 E11.73069
G1 X91.594 Y94.053 F7800.000
G1 X82.553 Y103.094 F2400.000 E12.37563
G1 X82.553 Y101.880 F7800.000
G1 X90.380 Y94.053 F2400.000 E12.93399
G1 X89.166 Y94.053 F7800.000
G1 X82.553 Y100.666 F2400.000 E13.40576
G1 X82.553 Y99.453 F7800.000
G1 X87.953 Y94.053 F2400.000 E13.79094
G1 X86.739 Y94.053 F7800.000
G1 X82.553 Y98.239 F2400.000 E14.08954
G1 X82.553 Y97.025 F7800.000
G1 X85.525 Y94.053 F2400.000 E14.30155
G1 X84.311 Y94.053 F7800.000
G1 X82.553 Y95.811 F2400.000 E14.42697
G1 X82.553 Y94.597 F7800.000
G1 X83.447 Y93.704 F2400.000 E14.49074
G1 X82.553 Y93.384 F7800.000
G1 X83.447 Y92.490 F2400.000 E14.55452
G1 X82.553 Y92.170 F7800.000
G1 X83.447 Y91.276 F2400.000 E14.61829
G1 X82.553 Y90.956 F7800.000
G1 X83.447 Y90.062 F2400.000 E14.68206
G1 X82.553 Y89.742 F7800.000
G1 X83.447 Y88.848 F2400.000 E14.74584
G1 X82.553 Y88.528 F7800.000
G1 X83.447 Y87.634 F2400.000 E14.80961
G1 X82.553 Y87.315 F7800.000
G1 X83.447 Y86.421 F2400.000 E14.87338
G1 X82.553 Y86.101 F7800.000
G1 X83.447 Y85.207 F2400.000 E14.93716
G1 X82.553 Y84.887 F7800.000
G1 X83.447 Y83.993 F2400.000 E15.00093
G1 F600.000 E14.50093
G92 E0
G1 X96.449 Y94.053 F7800.000
G1 F600.000 E0.50000
G1 X84.555 Y105.947 F2400.000 E1.34849
G1 X85.769 Y105.947 F7800.000
G1 X97.663 Y94.053 F2400.000 E2.19698
G1 X98.876 Y94.053 F7800.000
G1 X86.982 Y105.947 F2400.000 E3.04547
G1 X88.197 Y105.947 F7800.000
G1 X100.090 Y94.053 F2400.000 E3.89395
G1 X101.304 Y94.053 F7800.000
G1 X89.410 Y105.947 F2400.000 E4.74244
G1 X90.624 Y105.947 F7800.000
G1 X102.518 Y94.053 F2400.000 E5.59093
G1 X103.731 Y94.053 F7800.000
G1 X91.837 Y105.947 F2400.000 E6.43942
G1 X93.052 Y105.947 F7800.000
G1 X104.945 Y94.053 F2400.000 E7.28791
G1 X106.159 Y94.053 F7800.000
G1 X94.265 Y105.947 F2400.000 E8.13640
G1 X95.479 Y105.947 F7800.000
G1 X107.373 Y94.053 F2400.000 E8.98489
G1 X108.587 Y94.053 F7800.000
G1 X96.693 Y105.947 F2400.000 E9.83337
G1 X97.906 Y105.947 F7800.000
G1 X109.800 Y94.053 F2400.000 E10.68186
G1 X110.120 Y94.947 F7800.000
G1 X111.014 Y94.053 F2400.000 E10.74564
G1 X111.334 Y94.947 F7800.000
G1 X112.228 Y94.053 F2400.000 E10.80941
G1 X112.548 Y94.947 F7800.000
G1 X113.442 Y94.053 F2400.000 E10.87318
G1 X113.761 Y94.947 F7800.000
G1 X114.655 Y94.053 F2400.000 E10.93696
G1 X115.869 Y94.053 F7800.000
G1 X114.053 Y95.869 F2400.000 E11.06651
G1 X114.053 Y97.083 F7800.000
G1 X117.083 Y94.053 F2400.000 E11.28266
G1 X117.447 Y94.903 F7800.000
G1 X114.053 Y98.297 F2400.000 E11.52478
G1 X114.053 Y99.510 F7800.000
G1 X117.447 Y96.116 F2400.000 E11.76690
G1 X117.447 Y97.330 F7800.000
G1 X114.053 Y100.724 F2400.000 E12.00902
G1 X114.053 Y101.938 F7800.000
G1 X117.447 Y98.544 F2400.000 E12.25114
G1 X117.447 Y99.758 F7800.000
G1 X114.053 Y103.152 F2400.000 E12.49326
G1 X114.053 Y104.366 F7800.000
G1 X117.447 Y100.972 F2400.000 E12.73537
G1 X117.447 Y102.185 F7800.000
G1 X114.053 Y105.579 F2400.000 E12.97749
G1 X114.899 Y105.947 F7800.000
G1 X117.447 Y103.399 F2400.000 E13.15925
G1 X117.447 Y104.613 F7800.000
G1 X116.113 Y105.947 F2400.000 E13.25444
G1 X109.447 Y105.330 F7800.000
G1 X108.830 Y105.947 F2400.000 E13.29844
G1 X107.616 Y105.947 F7800.000
G1 X109.447 Y104.116 F2400.000 E13.42902
G1 X109.447 Y102.903 F7800.000
G1 X106.403 Y105.947 F2400.000 E13.64620
G1 X105.189 Y105.947 F7800.000
G1 X109.447 Y101.689 F2400.000 E13.94997
G1 X109.447 Y100.475 F7800.000
G1 X103.975 Y105.947 F2400.000 E14.34032
G1 X102.761 Y105.947 F7800.000
G1 X109.447 Y99.261 F2400.000 E14.81726
G1 X109.447 Y98.048 F7800.000
G1 X101.548 Y105.947 F2400.000 E15.38078
G1 X100.334 Y105.947 F7800.000
G1 X109.447 Y96.834 F2400.000 E16.03089
G1 X109.447 Y95.620 F7800.000
G1 X99.120 Y105.947 F2400.000 E16.76759
G1 F600.000 E16.26759
G92 E0
G1 Z1.200 F7800.000
G1 X110.040 Y106.540
G1 F600.000 E0.50000
G1 X84.040 Y106.540 F2400.000 E1.79992
G1 X84.040 Y117.040 E2.32489
G1 X81.960 Y117.040 E2.42888
G1 X81.960 Y82.960 E4.13277
G1 X84.040 Y82.960 E4.23677
G1 X84.040 Y93.460 E4.76173
G1 X118.040 Y93.460 E6.46163
G1 X118.040 Y106.540 E7.11559
G1 X111.960 Y106.540 E7.41957
G1 X111.960 Y105.460 E7.47356
G1 X113.460 Y105.460 E7.54856
G1 X113.460 Y95.540 E8.04453
G1 X110.040 Y95.540 E8.21552
G1 X110.040 Y106.402 E8.75858
G1 X109.447 Y105.594 F7800.000
G1 X97.906 Y94.053 F2400.000 E9.58187
G1 X99.120 Y94.053 F7800.000
G1 X109.447 Y104.380 F2400.000 E10.31857
G1 X109.447 Y103.166 F7800.000
G1 X100.334 Y94.053 F2400.000 E10.96868
G1 X101.548 Y94.053 F7800.000
G1 X109.447 Y101.952 F2400.000 E11.53220
G1 X109.447 Y100.739 F7800.000
G1 X102.761 Y94.053 F2400.000 E12.00915
G1 X103.975 Y94.053 F7800.000
G1 X109.447 Y99.525 F2400.000 E12.39950
G1 X109.447 Y98.311 F7800.000
G1 X105.189 Y94.053 F2400.000 E12.70326
G1 X106.403 Y94.053 F7800.000
G1 X109.447 Y97.097 F2400.000 E12.92044
G1 X109.447 Y95.884 F7800.000
G1 X107.616 Y94.053 F2400.000 E13.05103
G1 X108.830 Y94.053 F7800.000
G1 X109.724 Y94.947 F2400.000 E13.11480
G1 X110.044 Y94.053 F7800.000
G1 X110.938 Y94.947 F2400.000 E13.17858
G1 X111.258 Y94.053 F7800.000
G1 X112.152 Y94.947 F2400.000 E13.24235
G1 X112.471 Y94.053 F7800.000
G1 X113.365 Y94.947 F2400.000 E13.30612
G1 X113.685 Y94.053 F7800.000
G1 X117.447 Y97.815 F2400.000 E13.57448
G1 X117.447 Y96.601 F7800.000
G1 X114.899 Y94.053 F2400.000 E13.75624
G1 X116.113 Y94.053 F7800.000
G1 X117.447 Y95.387 F2400.000 E13.85143
G1 X114.053 Y95.635 F7800.000
G1 X117.447 Y99.029 F2400.000 E14.09354
G1 X117.447 Y100.242 F7800.000
G1 X114.053 Y96.848 F2400.000 E14.33566
G1 X114.053 Y98.062 F7800.000
G1 X117.447 Y101.456 F2400.000 E14.57778
G1 X117.447 Y102.670 F7800.000
G1 X114.053 Y99.276 F2400.000 E14.81990
G1 X114.053 Y100.490 F7800.000
G1 X117.447 Y103.884 F2400.000 E15.06202
G1 X117.447 Y105.097 F7800.000
G1 X114.053 Y101.703 F2400.000 E15.30414
G1 X114.053 Y102.917 F7800.000
G1 X117.083 Y105.947 F2400.000 E15.52028
G1 X115.869 Y105.947 F7800.000
G1 X114.053 Y104.131 F2400.000 E15.64984
G1 X114.053 Y105.345 F7800.000
G1 X114.655 Y105.947 F2400.000 E15.69281
G1 X108.587 Y105.947 F7800.000
G1 X96.692 Y94.053 F2400.000 E16.54130
G1 X95.479 Y94.053 F7800.000
G1 X107.373 Y105.947 F2400.000 E17.38979
G1 X106.159 Y105.947 F7800.000
G1 X94.265 Y94.053 F2400.000 E18.23827
G1 X93.051 Y94.053 F7800.000
G1 X104.945 Y105.947 F2400.000 E19.08677
G1 X103.731 Y105.947 F7800.000
G1 X91.837 Y94.053 F2400.000 E19.93525
G1 X90.624 Y94.053 F7800.000
G1 X102.518 Y105.947 F2400.000 E20.78374
G1 X101.304 Y105.947 F7800.000
G1 X89.410 Y94.053 F2400.000 E21.63224
G1 X88.196 Y94.053 F7800.000
G1 X100.090 Y105.947 F2400.000 E22.48072
G1 X98.876 Y105.947 F7800.000
G1 X86.982 Y94.053 F2400.000 E23.32922
