; generated by Slic3r 0.7.3-dev on 2012-05-08 at 21:20:02

; layer_height = 0.4
; perimeters = 1
; solid_layers = 3
; fill_density = 0.25
; nozzle_diameter = 0.75
; filament_diameter = 3
; extrusion_multiplier = 1
; perimeter_speed = 40
; infill_speed = 50
; travel_speed = 130
; extrusion_width_ratio = 2.3
; scale = 1
; single wall width = 0.92mm

M104 S230 ; set temperature
M92 E380
G92 X0 Y0 Z0  E0.0
G1 Z2.0 F150.0
G1 X-250.0 F2100.0
G1 X-249.0 F300.0
G1 X-251.0 F100.0
G92 X3.0
G1 Y-250.0 F2100.0
G1 Y-249.0 F300.0
G1 Y-251.0 F300.0
G92 Y10.0
G1 Y70.0 F2100.0
G1 Z-250.0 F150.0
G1 Z-249.0 F50.0
G1 Z-251.0 F50.0
G1 Y75.0 E2.0  F1000.0
G1 Y100.0 E2.3  F1000.0
G92 Z0.3
G92 E0.0
M106 S70
M107
M109 S230 ; wait for temperature to be reached
G90 ; use absolute coordinates
G21 ; set units to millimeters
G92 E0 ; reset extrusion distance
M82 ; use absolute distances for extrusion
G1 Z0.400 F7800.000
G1 X77.090 Y73.220
G1 F600.000 E0.50000
G1 X77.220 Y72.720 F1920.000 E0.52583
G1 X77.380 Y72.240 E0.55113
G1 X77.590 Y71.780 E0.57641
G1 X77.710 Y71.550 E0.58938
G1 X77.980 Y71.110 E0.61519
G1 X78.280 Y70.700 E0.64059
G1 X78.620 Y70.320 E0.66608
G1 X78.990 Y69.960 E0.69189
G1 X79.380 Y69.640 E0.71711
G1 X79.590 Y69.490 E0.73002
G1 X80.250 Y69.110 E0.76809
G1 X80.960 Y68.800 E0.80683
G1 X81.440 Y68.650 E0.83197
G1 X82.200 Y68.510 E0.87061
G1 X82.450 Y68.480 E0.88320
G1 X82.960 Y68.460 E0.90871
G1 X117.550 Y68.480 E2.63811
G1 X118.060 Y68.550 E2.66384
G1 X118.560 Y68.650 E2.68934
G1 X119.040 Y68.800 E2.71448
G1 X119.750 Y69.110 E2.75321
G1 X120.410 Y69.490 E2.79129
G1 X120.620 Y69.640 E2.80419
G1 X121.010 Y69.960 E2.82942
G1 X121.380 Y70.320 E2.85523
G1 X121.720 Y70.700 E2.88072
G1 X122.020 Y71.110 E2.90612
G1 X122.290 Y71.550 E2.93193
G1 X122.520 Y72.010 E2.95764
G1 X122.620 Y72.240 E2.97018
G1 X122.850 Y72.970 E3.00845
G1 X130.460 Y108.970 E4.84811
G1 X130.520 Y109.460 E4.87279
G1 X130.520 Y114.560 E5.12778
G1 X130.450 Y115.080 E5.15401
G1 X130.340 Y115.590 E5.18009
G1 X130.180 Y116.090 E5.20634
G1 X129.980 Y116.570 E5.23234
G1 X129.740 Y117.040 E5.25872
G1 X129.460 Y117.480 E5.28480
G1 X128.970 Y118.090 E5.32392
G1 X128.790 Y118.280 E5.33700
G1 X128.600 Y118.460 E5.35009
G1 X128.200 Y118.800 E5.37634
G1 X109.530 Y130.740 E6.48434
G1 X109.280 Y130.880 E6.49867
G1 X108.760 Y131.110 E6.52710
G1 X108.220 Y131.300 E6.55572
G1 X107.670 Y131.430 E6.58397
G1 X107.390 Y131.480 E6.59819
G1 X106.540 Y131.540 E6.64080
G1 X93.180 Y131.530 E7.30876
G1 X92.610 Y131.480 E7.33736
G1 X92.050 Y131.370 E7.36590
G1 X91.780 Y131.300 E7.37984
G1 X91.240 Y131.110 E7.40846
G1 X90.720 Y130.880 E7.43689
G1 X72.010 Y118.950 E8.54631
G1 X71.800 Y118.800 E8.55922
G1 X71.400 Y118.460 E8.58546
G1 X71.210 Y118.280 E8.59855
G1 X71.030 Y118.090 E8.61163
G1 X70.540 Y117.480 E8.65075
G1 X70.260 Y117.040 E8.67683
G1 X70.020 Y116.570 E8.70321
G1 X69.820 Y116.090 E8.72921
G1 X69.660 Y115.590 E8.75546
G1 X69.550 Y115.080 E8.78154
G1 X69.480 Y114.560 E8.80778
G1 X69.480 Y109.460 E9.06276
G1 X69.540 Y108.970 E9.08744
G1 X77.061 Y73.355 E10.90736
G1 F600.000 E10.40736
G92 E0
G1 X94.561 Y113.561 F7800.000
G1 F600.000 E0.50000
G1 X105.439 Y113.561 F1920.000 E1.04385
G1 X105.439 Y124.439 E1.58771
G1 X94.561 Y124.439 E2.13156
G1 X94.561 Y113.699 E2.66851
G1 X93.460 Y114.040 F7800.000
G1 X85.460 Y114.040 F1920.000 E3.06849
G1 X85.460 Y109.960 E3.27248
G1 X109.540 Y109.960 E4.47640
G1 X109.540 Y114.040 E4.68039
G1 X106.540 Y114.040 E4.83038
G1 X106.540 Y125.540 E5.40534
G1 X93.460 Y125.540 E6.05930
G1 X93.460 Y114.178 E6.62737
G1 F600.000 E6.12737
G92 E0
G1 X94.561 Y106.839 F7800.000
G1 F600.000 E0.50000
G1 X94.561 Y96.061 F1920.000 E1.03886
G1 X105.439 Y96.061 E1.58273
G1 X105.439 Y106.839 E2.12159
G1 X94.699 Y106.839 E2.65855
G1 X93.560 Y107.840 F7800.000
G1 X93.560 Y96.540 F1920.000 E3.22352
G1 X82.960 Y96.540 E3.75348
G1 X82.960 Y92.460 E3.95747
G1 X117.040 Y92.460 E5.66136
G1 X117.040 Y96.540 E5.86535
G1 X106.440 Y96.540 E6.39532
G1 X106.440 Y107.840 E6.96028
G1 X93.698 Y107.840 E7.59734
G1 F600.000 E7.09734
G92 E0
G1 X94.561 Y88.839 F7800.000
G1 F600.000 E0.50000
G1 X94.561 Y78.061 F1920.000 E1.03886
G1 X105.439 Y78.061 E1.58273
G1 X105.439 Y88.839 E2.12159
G1 X94.699 Y88.839 E2.65855
G1 X93.560 Y89.840 F7800.000
G1 X93.560 Y78.540 F1920.000 E3.22352
G1 X82.960 Y78.540 E3.75348
G1 X82.960 Y74.460 E3.95747
G1 X117.040 Y74.460 E5.66136
G1 X117.040 Y78.540 E5.86535
G1 X106.440 Y78.540 E6.39532
G1 X106.440 Y89.840 E6.96028
G1 X93.698 Y89.840 E7.59734
G1 F600.000 E7.09734
G92 E0
G1 X82.540 Y109.960 F7800.000
G1 F600.000 E0.50000
G1 X82.540 Y114.040 F1920.000 E0.70399
G1 X75.460 Y114.040 E1.05797
G1 X75.460 Y109.960 E1.26195
G1 X82.402 Y109.960 E1.60903
G1 F600.000 E1.10903
G92 E0
G1 X112.460 Y109.960 F7800.000
G1 F600.000 E0.50000
G1 X124.540 Y109.960 F1920.000 E1.10396
G1 X124.540 Y114.040 E1.30795
G1 X112.460 Y114.040 E1.91191
G1 X112.460 Y110.098 E2.10900
G1 X113.053 Y110.864 F7800.000
G1 X115.636 Y113.447 F1920.000 E2.29739
G1 X114.405 Y113.447 F7800.000
G1 X113.053 Y112.095 F1920.000 E2.39597
G1 X113.974 Y110.553 F7800.000
G1 X116.868 Y113.447 F1920.000 E2.60700
G1 X118.100 Y113.447 F7800.000
G1 X115.206 Y110.553 F1920.000 E2.81803
G1 X116.437 Y110.553 F7800.000
G1 X119.331 Y113.447 F1920.000 E3.02906
G1 X120.563 Y113.447 F7800.000
G1 X117.669 Y110.553 F1920.000 E3.24008
G1 X118.900 Y110.553 F7800.000
G1 X121.794 Y113.447 F1920.000 E3.45111
G1 X123.026 Y113.447 F7800.000
G1 X120.132 Y110.553 F1920.000 E3.66214
G1 X121.363 Y110.553 F7800.000
G1 X123.947 Y113.137 F1920.000 E3.85053
G1 X123.947 Y111.905 F7800.000
G1 X122.595 Y110.553 F1920.000 E3.94911
G1 F600.000 E3.44911
G92 E0
G1 X108.947 Y111.890 F7800.000
G1 F600.000 E0.50000
G1 X107.610 Y110.553 F1920.000 E0.59571
G1 X106.394 Y110.553 F7800.000
G1 X108.947 Y113.106 F1920.000 E0.77849
G1 X108.071 Y113.447 F7800.000
G1 X105.177 Y110.553 F1920.000 E0.98565
G1 X103.960 Y110.553 F7800.000
G1 X106.376 Y112.968 F1920.000 E1.15854
G1 X106.032 Y112.624 F7800.000
G1 X106.854 Y113.447 F1920.000 E1.21742
G1 X105.159 Y112.968 F7800.000
G1 X102.744 Y110.553 F1920.000 E1.39030
G1 X101.527 Y110.553 F7800.000
G1 X103.943 Y112.968 F1920.000 E1.56318
G1 X102.726 Y112.968 F7800.000
G1 X100.311 Y110.553 F1920.000 E1.73606
G1 X99.094 Y110.553 F7800.000
G1 X101.509 Y112.968 F1920.000 E1.90894
G1 X100.293 Y112.968 F7800.000
G1 X97.878 Y110.553 F1920.000 E2.08182
G1 X96.661 Y110.553 F7800.000
G1 X99.076 Y112.968 F1920.000 E2.25470
G1 X97.860 Y112.968 F7800.000
G1 X95.445 Y110.553 F1920.000 E2.42759
G1 X94.228 Y110.553 F7800.000
G1 X96.643 Y112.968 F1920.000 E2.60047
G1 X95.427 Y112.968 F7800.000
G1 X93.012 Y110.553 F1920.000 E2.77335
G1 X91.795 Y110.553 F7800.000
G1 X94.210 Y112.968 F1920.000 E2.94623
G1 X93.473 Y113.447 F7800.000
G1 X90.579 Y110.553 F1920.000 E3.15339
G1 X89.362 Y110.553 F7800.000
G1 X92.256 Y113.447 F1920.000 E3.36055
G1 X91.040 Y113.447 F7800.000
G1 X88.146 Y110.553 F1920.000 E3.56771
G1 X86.929 Y110.553 F7800.000
G1 X89.823 Y113.447 F1920.000 E3.77487
G1 X88.607 Y113.447 F7800.000
G1 X86.053 Y110.894 F1920.000 E3.95765
G1 X86.053 Y112.110 F7800.000
G1 X87.390 Y113.447 F1920.000 E4.05336
G1 X81.947 Y113.115 F7800.000
G1 X79.385 Y110.553 F1920.000 E4.23781
G1 X80.606 Y110.553 F7800.000
G1 X81.947 Y111.894 F1920.000 E4.33437
G1 X81.058 Y113.447 F7800.000
G1 X78.164 Y110.553 F1920.000 E4.54269
G1 X76.942 Y110.553 F7800.000
G1 X79.836 Y113.447 F1920.000 E4.75100
G1 X78.616 Y113.447 F7800.000
G1 X76.053 Y110.885 F1920.000 E4.93545
G1 X76.053 Y112.106 F7800.000
G1 X77.394 Y113.447 F1920.000 E5.03201
G1 F600.000 E4.53201
G92 E0
G1 X84.899 Y95.947 F7800.000
G1 F600.000 E0.50000
G1 X83.553 Y94.601 F1920.000 E0.59747
G1 X83.553 Y93.375 F7800.000
G1 X86.125 Y95.947 F1920.000 E0.78369
G1 X87.351 Y95.947 F7800.000
G1 X84.457 Y93.053 F1920.000 E0.99322
G1 X85.683 Y93.053 F7800.000
G1 X88.577 Y95.947 F1920.000 E1.20276
G1 X89.802 Y95.947 F7800.000
G1 X86.908 Y93.053 F1920.000 E1.41229
G1 X88.134 Y93.053 F7800.000
G1 X91.028 Y95.947 F1920.000 E1.62183
G1 X92.253 Y95.947 F7800.000
G1 X89.360 Y93.053 F1920.000 E1.83136
G1 X90.585 Y93.053 F7800.000
G1 X93.479 Y95.947 F1920.000 E2.04090
G1 X94.226 Y95.468 F7800.000
G1 X91.811 Y93.053 F1920.000 E2.21576
G1 X93.037 Y93.053 F7800.000
G1 X95.452 Y95.468 F1920.000 E2.39062
G1 X96.678 Y95.468 F7800.000
G1 X94.263 Y93.053 F1920.000 E2.56547
G1 X95.488 Y93.053 F7800.000
G1 X97.904 Y95.468 F1920.000 E2.74033
G1 X99.129 Y95.468 F7800.000
G1 X96.714 Y93.053 F1920.000 E2.91518
G1 X97.940 Y93.053 F7800.000
G1 X100.355 Y95.468 F1920.000 E3.09004
G1 X101.581 Y95.468 F7800.000
G1 X99.166 Y93.053 F1920.000 E3.26490
G1 X100.392 Y93.053 F7800.000
G1 X102.807 Y95.468 F1920.000 E3.43975
G1 X104.033 Y95.468 F7800.000
G1 X101.618 Y93.053 F1920.000 E3.61461
G1 X102.843 Y93.053 F7800.000
G1 X105.259 Y95.468 F1920.000 E3.78947
G1 X106.032 Y95.016 F7800.000
G1 X106.963 Y95.947 F1920.000 E3.85687
G1 X106.484 Y95.468 F7800.000
G1 X104.069 Y93.053 F1920.000 E4.03173
G1 X105.295 Y93.053 F7800.000
G1 X108.189 Y95.947 F1920.000 E4.24127
G1 X109.415 Y95.947 F7800.000
G1 X106.521 Y93.053 F1920.000 E4.45081
G1 X107.747 Y93.053 F7800.000
G1 X110.641 Y95.947 F1920.000 E4.66034
G1 X111.866 Y95.947 F7800.000
G1 X108.972 Y93.053 F1920.000 E4.86988
G1 X110.198 Y93.053 F7800.000
G1 X113.092 Y95.947 F1920.000 E5.07941
G1 X114.318 Y95.947 F7800.000
G1 X111.424 Y93.053 F1920.000 E5.28895
G1 X112.650 Y93.053 F7800.000
G1 X115.544 Y95.947 F1920.000 E5.49848
G1 X116.447 Y95.625 F7800.000
G1 X113.875 Y93.053 F1920.000 E5.68470
G1 X115.101 Y93.053 F7800.000
G1 X116.447 Y94.399 F1920.000 E5.78217
G1 F600.000 E5.28217
G92 E0
G1 X115.543 Y77.947 F7800.000
G1 F600.000 E0.50000
G1 X112.649 Y75.053 F1920.000 E0.70954
G1 X111.424 Y75.053 F7800.000
G1 X114.318 Y77.947 F1920.000 E0.91907
G1 X113.092 Y77.947 F7800.000
G1 X110.198 Y75.053 F1920.000 E1.12861
G1 X108.972 Y75.053 F7800.000
G1 X111.866 Y77.947 F1920.000 E1.33814
G1 X110.640 Y77.947 F7800.000
G1 X107.746 Y75.053 F1920.000 E1.54768
G1 X106.521 Y75.053 F7800.000
G1 X109.415 Y77.947 F1920.000 E1.75721
G1 X108.189 Y77.947 F7800.000
G1 X105.295 Y75.053 F1920.000 E1.96675
G1 X104.069 Y75.053 F7800.000
G1 X106.484 Y77.468 F1920.000 E2.14161
G1 X106.032 Y77.016 F7800.000
G1 X106.963 Y77.947 F1920.000 E2.20901
G1 X105.259 Y77.468 F7800.000
G1 X102.844 Y75.053 F1920.000 E2.38386
G1 X101.618 Y75.053 F7800.000
G1 X104.033 Y77.468 F1920.000 E2.55872
G1 X102.807 Y77.468 F7800.000
G1 X100.392 Y75.053 F1920.000 E2.73358
G1 X99.166 Y75.053 F7800.000
G1 X101.581 Y77.468 F1920.000 E2.90844
G1 X100.356 Y77.468 F7800.000
G1 X97.940 Y75.053 F1920.000 E3.08329
G1 X96.715 Y75.053 F7800.000
G1 X99.130 Y77.468 F1920.000 E3.25815
G1 X97.904 Y77.468 F7800.000
G1 X95.489 Y75.053 F1920.000 E3.43301
G1 X94.263 Y75.053 F7800.000
G1 X96.678 Y77.468 F1920.000 E3.60786
G1 X95.452 Y77.468 F7800.000
G1 X93.037 Y75.053 F1920.000 E3.78272
G1 X91.811 Y75.053 F7800.000
G1 X94.226 Y77.468 F1920.000 E3.95757
G1 X93.479 Y77.947 F7800.000
G1 X90.585 Y75.053 F1920.000 E4.16711
G1 X89.360 Y75.053 F7800.000
G1 X92.254 Y77.947 F1920.000 E4.37664
G1 X91.028 Y77.947 F7800.000
G1 X88.134 Y75.053 F1920.000 E4.58618
G1 X86.908 Y75.053 F7800.000
G1 X89.802 Y77.947 F1920.000 E4.79572
G1 X88.576 Y77.947 F7800.000
G1 X85.682 Y75.053 F1920.000 E5.00526
G1 X84.456 Y75.053 F7800.000
G1 X87.350 Y77.947 F1920.000 E5.21479
G1 X86.125 Y77.947 F7800.000
G1 X83.553 Y75.375 F1920.000 E5.40101
G1 X83.553 Y76.601 F7800.000
G1 X84.899 Y77.947 F1920.000 E5.49848
G1 F600.000 E4.99848
G92 E0
G1 X113.875 Y75.053 F7800.000
G1 F600.000 E0.50000
G1 X116.447 Y77.625 F1920.000 E0.68622
G1 X116.447 Y76.399 F7800.000
G1 X115.101 Y75.053 F1920.000 E0.78369
G1 F600.000 E0.28369
G92 E0
G1 Z0.800 F7800.000
G1 X105.439 Y113.561
G1 F600.000 E0.50000
G1 X105.439 Y124.439 F2400.000 E1.04385
G1 X94.561 Y124.439 E1.58771
G1 X94.561 Y113.561 E2.13156
G1 X105.301 Y113.561 E2.66851
G1 X106.540 Y114.040 F7800.000
G1 X106.540 Y125.540 F2400.000 E3.24348
G1 X93.460 Y125.540 E3.89744
G1 X93.460 Y114.040 E4.47240
G1 X85.460 Y114.040 E4.87238
G1 X85.460 Y109.960 E5.07636
G1 X109.540 Y109.960 E6.28029
G1 X109.540 Y114.040 E6.48427
G1 X106.678 Y114.040 E6.62737
G1 F600.000 E6.12737
G92 E0
G1 X105.439 Y106.839 F7800.000
G1 F600.000 E0.50000
G1 X94.561 Y106.839 F2400.000 E1.04386
G1 X94.561 Y96.061 E1.58273
G1 X105.439 Y96.061 E2.12659
G1 X105.439 Y106.701 E2.65855
G1 X106.440 Y107.840 F7800.000
G1 X93.560 Y107.840 F2400.000 E3.30251
G1 X93.560 Y96.540 E3.86748
G1 X82.960 Y96.540 E4.39744
G1 X82.960 Y92.460 E4.60143
G1 X117.040 Y92.460 E6.30532
G1 X117.040 Y96.540 E6.50931
G1 X106.440 Y96.540 E7.03928
G1 X106.440 Y107.702 E7.59734
G1 F600.000 E7.09734
G92 E0
G1 X105.439 Y88.839 F7800.000
G1 F600.000 E0.50000
G1 X94.561 Y88.839 F2400.000 E1.04386
G1 X94.561 Y78.061 E1.58273
G1 X105.439 Y78.061 E2.12659
G1 X105.439 Y88.701 E2.65855
G1 X106.440 Y89.840 F7800.000
G1 X93.560 Y89.840 F2400.000 E3.30251
G1 X93.560 Y78.540 E3.86748
G1 X82.960 Y78.540 E4.39744
G1 X82.960 Y74.460 E4.60143
G1 X117.040 Y74.460 E6.30532
G1 X117.040 Y78.540 E6.50931
G1 X106.440 Y78.540 E7.03928
G1 X106.440 Y89.702 E7.59734
G1 F600.000 E7.09734
G92 E0
G1 X82.540 Y109.960 F7800.000
G1 F600.000 E0.50000
G1 X82.540 Y114.040 F2400.000 E0.70399
G1 X75.460 Y114.040 E1.05797
G1 X75.460 Y109.960 E1.26195
G1 X82.402 Y109.960 E1.60903
G1 F600.000 E1.10903
G92 E0
G1 X112.460 Y109.960 F7800.000
G1 F600.000 E0.50000
G1 X124.540 Y109.960 F2400.000 E1.10396
G1 X124.540 Y114.040 E1.30795
G1 X112.460 Y114.040 E1.91191
G1 X112.460 Y110.098 E2.10900
G1 F600.000 E1.60900
G92 E0
G1 X81.947 Y110.884 F7800.000
G1 F600.000 E0.50000
G1 X79.384 Y113.447 F2400.000 E0.68445
G1 X78.163 Y113.447 F7800.000
G1 X81.057 Y110.553 F2400.000 E0.89277
G1 X79.837 Y110.553 F7800.000
G1 X76.943 Y113.447 F2400.000 E1.10108
G1 X76.053 Y113.115 F7800.000
G1 X78.615 Y110.553 F2400.000 E1.28553
G1 X77.395 Y110.553 F7800.000
G1 X76.053 Y111.894 F2400.000 E1.38209
G1 X80.606 Y113.447 F7800.000
G1 X81.947 Y112.106 F2400.000 E1.47865
G1 X86.053 Y111.890 F7800.000
G1 X87.390 Y110.553 F2400.000 E1.57436
G1 X88.607 Y110.553 F7800.000
G1 X86.053 Y113.106 F2400.000 E1.75714
G1 X86.929 Y113.447 F7800.000
G1 X89.823 Y110.553 F2400.000 E1.96430
G1 X91.039 Y110.553 F7800.000
G1 X88.145 Y113.447 F2400.000 E2.17146
G1 X89.362 Y113.447 F7800.000
G1 X92.256 Y110.553 F2400.000 E2.37862
G1 X93.473 Y110.553 F7800.000
G1 X90.579 Y113.447 F2400.000 E2.58578
G1 X91.795 Y113.447 F7800.000
G1 X94.689 Y110.553 F2400.000 E2.79294
G1 X95.905 Y110.553 F7800.000
G1 X93.490 Y112.968 F2400.000 E2.96582
G1 X93.968 Y112.490 F7800.000
G1 X93.011 Y113.447 F2400.000 E3.03429
G1 X94.707 Y112.968 F7800.000
G1 X97.123 Y110.553 F2400.000 E3.20717
G1 X98.339 Y110.553 F7800.000
G1 X95.924 Y112.968 F2400.000 E3.38006
G1 X97.140 Y112.968 F7800.000
G1 X99.555 Y110.553 F2400.000 E3.55294
G1 X100.772 Y110.553 F7800.000
G1 X98.357 Y112.968 F2400.000 E3.72582
G1 X99.573 Y112.968 F7800.000
G1 X101.988 Y110.553 F2400.000 E3.89870
G1 X103.205 Y110.553 F7800.000
G1 X100.790 Y112.968 F2400.000 E4.07158
G1 X102.006 Y112.968 F7800.000
G1 X104.422 Y110.553 F2400.000 E4.24446
G1 X105.638 Y110.553 F7800.000
G1 X103.223 Y112.968 F2400.000 E4.41734
G1 X104.439 Y112.968 F7800.000
G1 X106.855 Y110.553 F2400.000 E4.59025
G1 X108.071 Y110.553 F7800.000
G1 X105.655 Y112.968 F2400.000 E4.76314
G1 X106.394 Y113.447 F7800.000
G1 X108.948 Y110.893 F2400.000 E4.94595
G1 X108.947 Y112.110 F7800.000
G1 X107.610 Y113.447 F2400.000 E5.04164
G1 F600.000 E4.54164
G92 E0
G1 X107.746 Y95.947 F7800.000
G1 F600.000 E0.50000
G1 X110.640 Y93.053 F2400.000 E0.70955
G1 X111.867 Y93.053 F7800.000
G1 X108.972 Y95.947 F2400.000 E0.91910
G1 X110.198 Y95.947 F7800.000
G1 X113.091 Y93.053 F2400.000 E1.12860
G1 X114.317 Y93.053 F7800.000
G1 X111.423 Y95.947 F2400.000 E1.33815
G1 X112.649 Y95.947 F7800.000
G1 X115.543 Y93.053 F2400.000 E1.54770
G1 X116.447 Y93.376 F7800.000
G1 X113.875 Y95.947 F2400.000 E1.73390
G1 X115.101 Y95.947 F7800.000
G1 X116.446 Y94.601 F2400.000 E1.83133
G1 X109.414 Y93.053 F7800.000
