; generated by Slic3r 0.7.3-dev on 2012-05-07 at 04:00:58

; layer_height = 0.4
; perimeters = 2
; solid_layers = 3
; fill_density = 0.25
; nozzle_diameter = 0.75
; filament_diameter = 3
; extrusion_multiplier = 1
; perimeter_speed = 30
; infill_speed = 30
; travel_speed = 130
; extrusion_width_ratio = 2.3
; scale = 1
; single wall width = 0.92mm

M104 S230 ; set temperature
M92 E380
G92 X0 Y0 Z0  E0.0
G1 Z2.0 F150.0
G1 X-250.0 F2100.0
G1 X-249.0 F300.0
G1 X-251.0 F100.0
G92 X3.0
G1 Y-250.0 F2100.0
G1 Y-249.0 F300.0
G1 Y-251.0 F300.0
G92 Y10.0
G1 Y70.0 F2100.0
G1 Z-250.0 F150.0
G1 Z-249.0 F50.0
G1 Z-251.0 F50.0
G1 Y75.0 E2.0  F1000.0
G1 Y100.0 E2.3  F1000.0
G92 Z0.3
G92 E0.0
M106 S70
M107
M109 S230 ; wait for temperature to be reached
G90 ; use absolute coordinates
G21 ; set units to millimeters
G92 E0 ; reset extrusion distance
M82 ; use absolute distances for extrusion
G1 Z0.400 F7800.000
G1 X86.630 Y71.310
G1 F600.000 E0.50000
G1 X86.810 Y71.130 F1440.000 E0.51273
G1 X87.190 Y70.790 E0.53822
G1 X87.810 Y70.350 E0.57623
G1 X88.030 Y70.220 E0.58901
G1 X88.490 Y69.990 E0.61472
G1 X88.960 Y69.800 E0.64007
G1 X89.450 Y69.650 E0.66569
G1 X89.700 Y69.590 E0.67854
G1 X90.450 Y69.480 E0.71644
G1 X90.960 Y69.460 E0.74196
G1 X95.550 Y69.480 E0.97145
G1 X96.060 Y69.550 E0.99718
G1 X96.570 Y69.660 E1.02327
G1 X96.820 Y69.730 E1.03625
G1 X97.550 Y70.010 E1.07534
G1 X98.010 Y70.250 E1.10128
G1 X98.450 Y70.530 E1.12735
G1 X98.660 Y70.680 E1.14026
G1 X99.060 Y71.010 E1.16618
G1 X99.250 Y71.190 E1.17927
G1 X99.600 Y71.570 E1.20510
G1 X113.930 Y89.990 E2.37191
G1 X114.220 Y90.430 E2.39825
G1 X114.470 Y90.900 E2.42487
G1 X114.760 Y91.640 E2.46461
G1 X114.950 Y92.410 E2.50426
G1 X115.020 Y92.930 E2.53049
G1 X115.020 Y107.070 E3.23745
G1 X114.950 Y107.590 E3.26368
G1 X114.760 Y108.360 E3.30333
G1 X114.470 Y109.100 E3.34307
G1 X114.220 Y109.570 E3.36969
G1 X113.770 Y110.230 E3.40963
G1 X99.600 Y128.430 E4.56284
G1 X99.250 Y128.810 E4.58867
G1 X99.060 Y128.990 E4.60176
G1 X98.660 Y129.320 E4.62768
G1 X98.450 Y129.470 E4.64058
G1 X98.010 Y129.750 E4.66666
G1 X97.550 Y129.990 E4.69260
G1 X96.820 Y130.270 E4.73169
G1 X96.320 Y130.400 E4.75752
G1 X95.810 Y130.490 E4.78341
G1 X95.550 Y130.520 E4.79650
G1 X95.030 Y130.540 E4.82252
G1 X90.450 Y130.520 E5.05150
G1 X89.700 Y130.410 E5.08940
G1 X89.200 Y130.280 E5.11523
G1 X88.720 Y130.110 E5.14069
G1 X88.260 Y129.900 E5.16597
G1 X88.030 Y129.780 E5.17894
G1 X87.810 Y129.650 E5.19172
G1 X87.190 Y129.210 E5.22973
G1 X86.810 Y128.870 E5.25522
G1 X86.630 Y128.690 E5.26795
G1 X86.290 Y128.310 E5.29344
G1 X85.850 Y127.690 E5.33145
G1 X85.720 Y127.470 E5.34423
G1 X85.490 Y127.010 E5.36994
G1 X85.300 Y126.540 E5.39529
G1 X85.150 Y126.050 E5.42091
G1 X85.090 Y125.800 E5.43377
G1 X84.980 Y125.050 E5.47166
G1 X84.980 Y74.950 E7.97651
G1 X85.090 Y74.200 E8.01441
G1 X85.220 Y73.700 E8.04024
G1 X85.390 Y73.220 E8.06569
G1 X85.600 Y72.760 E8.09098
G1 X85.720 Y72.530 E8.10395
G1 X85.850 Y72.310 E8.11672
G1 X86.290 Y71.690 E8.15473
G1 X86.538 Y71.413 E8.17333
G1 F600.000 E7.67333
G92 E0
G1 X91.813 Y118.313 F7800.000
G1 F600.000 E0.50000
G1 X94.187 Y118.313 F1440.000 E0.61867
G1 X94.187 Y123.687 E0.88733
G1 X91.813 Y123.687 E1.00600
G1 X91.813 Y118.451 E1.26776
G1 X90.960 Y117.460 F7800.000
G1 X95.040 Y117.460 F1440.000 E1.47174
G1 X95.040 Y124.540 E1.82572
G1 X90.960 Y124.540 E2.02971
G1 X90.960 Y117.598 E2.37679
G1 F600.000 E1.87679
G92 E0
G1 X97.061 Y105.439 F7800.000
G1 F600.000 E0.50000
G1 X97.061 Y94.561 F1440.000 E1.04385
G1 X107.939 Y94.561 E1.58771
G1 X107.939 Y105.439 E2.13156
G1 X97.199 Y105.439 E2.66851
G1 X96.208 Y105.687 F7800.000
G1 X94.187 Y105.687 F1440.000 E2.76956
G1 X94.187 Y113.687 E3.16954
G1 X91.813 Y113.687 E3.28821
G1 X91.813 Y91.313 E4.40681
G1 X94.187 Y91.313 E4.52548
G1 X94.187 Y94.313 E4.67547
G1 X96.208 Y94.313 E4.77652
G1 X96.208 Y105.549 E5.33826
G1 X95.040 Y106.540 F7800.000
G1 X95.040 Y114.540 F1440.000 E5.73824
G1 X90.960 Y114.540 E5.94222
G1 X90.960 Y90.460 E7.14615
G1 X95.040 Y90.460 E7.35014
G1 X95.040 Y93.460 E7.50013
G1 X109.040 Y93.460 E8.20008
G1 X109.040 Y106.540 E8.85404
G1 X95.178 Y106.540 E9.54710
G1 F600.000 E9.04710
G92 E0
G1 X94.187 Y86.687 F7800.000
G1 F600.000 E0.50000
G1 X91.813 Y86.687 F1440.000 E0.61867
G1 X91.813 Y76.313 E1.13731
G1 X94.187 Y76.313 E1.25598
G1 X94.187 Y86.549 E1.76772
G1 X95.040 Y87.540 F7800.000
G1 X90.960 Y87.540 F1440.000 E1.97171
G1 X90.960 Y75.460 E2.57567
G1 X95.040 Y75.460 E2.77966
G1 X95.040 Y87.402 E3.37672
G1 F600.000 E2.87672
G92 E0
G1 X92.406 Y119.123 F7800.000
G1 F600.000 E0.50000
G1 X93.594 Y120.310 F1920.000 E0.59208
G1 X92.406 Y120.406 F7800.000
G1 X93.594 Y121.594 F1920.000 E0.68416
G1 X92.406 Y121.690 F7800.000
G1 X93.594 Y122.877 F1920.000 E0.77623
G1 X93.594 Y112.931 F7800.000
G1 X92.406 Y111.744 F1920.000 E0.86263
G1 X93.594 Y111.701 F7800.000
G1 X92.406 Y110.514 F1920.000 E0.94902
G1 X93.594 Y110.472 F7800.000
G1 X92.406 Y109.284 F1920.000 E1.03541
G1 X93.594 Y109.242 F7800.000
G1 X92.406 Y108.055 F1920.000 E1.12181
G1 X93.594 Y108.012 F7800.000
G1 X92.406 Y106.825 F1920.000 E1.20820
G1 X93.594 Y106.783 F7800.000
G1 X92.406 Y105.595 F1920.000 E1.29458
G1 X93.594 Y105.553 F7800.000
G1 X92.406 Y104.366 F1920.000 E1.38097
G1 X92.406 Y103.136 F7800.000
G1 X94.364 Y105.094 F1920.000 E1.52341
G1 X95.594 Y105.094 F7800.000
G1 X92.406 Y101.906 F1920.000 E1.75530
G1 X92.406 Y100.677 F7800.000
G1 X95.615 Y103.885 F1920.000 E1.98874
G1 X95.615 Y102.656 F7800.000
G1 X92.406 Y99.447 F1920.000 E2.22217
G1 X92.406 Y98.217 F7800.000
G1 X95.615 Y101.426 F1920.000 E2.45560
G1 X95.615 Y100.196 F7800.000
G1 X92.406 Y96.988 F1920.000 E2.68903
G1 X92.406 Y95.758 F7800.000
G1 X95.615 Y98.967 F1920.000 E2.92247
G1 X95.615 Y97.737 F7800.000
G1 X92.406 Y94.528 F1920.000 E3.15590
G1 X93.594 Y94.486 F7800.000
G1 X92.406 Y93.299 F1920.000 E3.24229
G1 X93.594 Y93.256 F7800.000
G1 X92.406 Y92.069 F1920.000 E3.32868
G1 X94.014 Y94.906 F7800.000
G1 X95.615 Y96.507 F1920.000 E3.44515
G1 F600.000 E2.94515
G92 E0
G1 X93.594 Y85.894 F7800.000
G1 F600.000 E0.50000
G1 X92.406 Y84.707 F1920.000 E0.59031
G1 X93.594 Y84.627 F7800.000
G1 X92.406 Y83.440 F1920.000 E0.68061
G1 X93.594 Y83.361 F7800.000
G1 X92.406 Y82.173 F1920.000 E0.77092
G1 X93.594 Y82.094 F7800.000
G1 X92.406 Y80.906 F1920.000 E0.86123
G1 X93.594 Y80.827 F7800.000
G1 X92.406 Y79.640 F1920.000 E0.95153
G1 X93.594 Y79.560 F7800.000
G1 X92.406 Y78.373 F1920.000 E1.04184
G1 X93.594 Y78.293 F7800.000
G1 X92.406 Y77.106 F1920.000 E1.13214
G1 F600.000 E0.63214
G92 E0
G1 Z0.800 F7800.000
G1 X91.813 Y118.313
G1 F600.000 E0.50000
G1 X94.187 Y118.313 F1800.000 E0.61867
G1 X94.187 Y123.687 E0.88733
G1 X91.813 Y123.687 E1.00600
G1 X91.813 Y118.451 E1.26776
G1 X90.960 Y117.460 F7800.000
G1 X95.040 Y117.460 F1800.000 E1.47174
G1 X95.040 Y124.540 E1.82572
G1 X90.960 Y124.540 E2.02971
G1 X90.960 Y117.598 E2.37679
G1 F600.000 E1.87679
G92 E0
G1 X97.061 Y105.439 F7800.000
G1 F600.000 E0.50000
G1 X97.061 Y94.561 F1800.000 E1.04385
G1 X107.939 Y94.561 E1.58771
G1 X107.939 Y105.439 E2.13156
G1 X97.199 Y105.439 E2.66851
G1 X96.208 Y105.687 F7800.000
G1 X94.187 Y105.687 F1800.000 E2.76956
G1 X94.187 Y113.687 E3.16954
G1 X91.813 Y113.687 E3.28821
G1 X91.813 Y91.313 E4.40681
G1 X94.187 Y91.313 E4.52548
G1 X94.187 Y94.313 E4.67547
G1 X96.208 Y94.313 E4.77652
G1 X96.208 Y105.549 E5.33826
G1 X95.040 Y106.540 F7800.000
G1 X95.040 Y114.540 F1800.000 E5.73824
G1 X90.960 Y114.540 E5.94222
G1 X90.960 Y90.460 E7.14615
G1 X95.040 Y90.460 E7.35014
G1 X95.040 Y93.460 E7.50013
G1 X109.040 Y93.460 E8.20008
G1 X109.040 Y106.540 E8.85404
G1 X95.178 Y106.540 E9.54710
G1 F600.000 E9.04710
G92 E0
G1 X94.187 Y86.687 F7800.000
G1 F600.000 E0.50000
G1 X91.813 Y86.687 F1800.000 E0.61867
G1 X91.813 Y76.313 E1.13731
G1 X94.187 Y76.313 E1.25598
G1 X94.187 Y86.549 E1.76772
G1 X95.040 Y87.540 F7800.000
G1 X90.960 Y87.540 F1800.000 E1.97171
G1 X90.960 Y75.460 E2.57567
G1 X95.040 Y75.460 E2.77966
G1 X95.040 Y87.402 E3.37672
G1 F600.000 E2.87672
G92 E0
G1 X93.593 Y119.122 F7800.000
G1 F600.000 E0.50000
G1 X92.406 Y120.310 F2400.000 E0.59207
G1 X93.594 Y120.406 F7800.000
G1 X92.406 Y121.594 F2400.000 E0.68415
G1 X93.594 Y121.690 F7800.000
G1 X92.407 Y122.878 F2400.000 E0.77622
G1 X92.406 Y112.931 F7800.000
G1 X93.594 Y111.744 F2400.000 E0.86261
G1 X92.406 Y111.701 F7800.000
G1 X93.594 Y110.514 F2400.000 E0.94900
G1 X92.407 Y110.472 F7800.000
G1 X93.594 Y109.285 F2400.000 E1.03540
G1 X92.406 Y109.242 F7800.000
G1 X93.594 Y108.055 F2400.000 E1.12179
G1 X92.407 Y108.013 F7800.000
G1 X93.594 Y106.825 F2400.000 E1.20818
G1 X92.406 Y106.783 F7800.000
G1 X93.594 Y105.595 F2400.000 E1.29458
G1 X94.095 Y105.094 F7800.000
G1 X95.615 Y103.574 F2400.000 E1.40513
G1 X95.615 Y102.345 F7800.000
G1 X92.407 Y105.553 F2400.000 E1.63857
G1 X92.406 Y104.323 F7800.000
G1 X95.615 Y101.115 F2400.000 E1.87200
G1 X95.615 Y99.885 F7800.000
G1 X92.407 Y103.094 F2400.000 E2.10543
G1 X92.406 Y101.864 F7800.000
G1 X95.615 Y98.655 F2400.000 E2.33887
G1 X95.615 Y97.426 F7800.000
G1 X92.407 Y100.635 F2400.000 E2.57230
G1 X92.406 Y99.405 F7800.000
G1 X95.615 Y96.196 F2400.000 E2.80574
G1 X95.615 Y94.966 F7800.000
G1 X92.406 Y98.175 F2400.000 E3.03917
G1 X92.406 Y96.945 F7800.000
G1 X94.445 Y94.906 F2400.000 E3.18752
G1 X93.593 Y94.528 F7800.000
G1 X92.406 Y95.715 F2400.000 E3.27391
G1 X92.406 Y94.486 F7800.000
G1 X93.594 Y93.299 F2400.000 E3.36031
G1 X92.406 Y93.256 F7800.000
G1 X93.593 Y92.069 F2400.000 E3.44670
G1 X92.407 Y85.894 F7800.000
G1 X93.594 Y84.707 F2400.000 E3.53701
G1 X92.406 Y84.627 F7800.000
G1 X93.594 Y83.440 F2400.000 E3.62731
G1 X92.406 Y83.361 F7800.000
G1 X93.594 Y82.173 F2400.000 E3.71762
G1 X92.406 Y82.094 F7800.000
G1 X93.594 Y80.906 F2400.000 E3.80793
G1 X92.407 Y80.827 F7800.000
G1 X93.594 Y79.640 F2400.000 E3.89824
G1 X92.406 Y79.560 F7800.000
G1 X93.594 Y78.373 F2400.000 E3.98855
G1 X92.406 Y78.293 F7800.000
G1 X93.593 Y77.106 F2400.000 E4.07883
G1 F600.000 E3.57883
G92 E0
G1 Z1.200 F7800.000
G1 X94.187 Y118.313
G1 F600.000 E0.50000
G1 X94.187 Y123.687 F1800.000 E0.76866
G1 X91.813 Y123.687 E0.88733
G1 X91.813 Y118.313 E1.15599
G1 X94.049 Y118.313 E1.26776
G1 X95.040 Y117.460 F7800.000
G1 X95.040 Y124.540 F1800.000 E1.62173
G1 X90.960 Y124.540 E1.82572
G1 X90.960 Y117.460 E2.17970
G1 X94.902 Y117.460 E2.37679
G1 F600.000 E1.87679
G92 E0
G1 X97.061 Y105.439 F7800.000
G1 F600.000 E0.50000
G1 X97.061 Y94.561 F1800.000 E1.04385
G1 X107.939 Y94.561 E1.58771
G1 X107.939 Y105.439 E2.13156
G1 X97.199 Y105.439 E2.66851
G1 X96.208 Y105.687 F7800.000
G1 X94.187 Y105.687 F1800.000 E2.76956
G1 X94.187 Y113.687 E3.16954
G1 X91.813 Y113.687 E3.28821
G1 X91.813 Y91.313 E4.40681
G1 X94.187 Y91.313 E4.52548
G1 X94.187 Y94.313 E4.67547
G1 X96.208 Y94.313 E4.77652
G1 X96.208 Y105.549 E5.33826
G1 X95.040 Y106.540 F7800.000
G1 X95.040 Y114.540 F1800.000 E5.73824
G1 X90.960 Y114.540 E5.94222
G1 X90.960 Y90.460 E7.14615
G1 X95.040 Y90.460 E7.35014
G1 X95.040 Y93.460 E7.50013
G1 X109.040 Y93.460 E8.20008
G1 X109.040 Y106.540 E8.85404
G1 X95.178 Y106.540 E9.54710
G1 F600.000 E9.04710
G92 E0
G1 X94.187 Y86.687 F7800.000
G1 F600.000 E0.50000
G1 X91.813 Y86.687 F1800.000 E0.61867
G1 X91.813 Y76.313 E1.13731
G1 X94.187 Y76.313 E1.25598
G1 X94.187 Y86.549 E1.76772
G1 X95.040 Y87.540 F7800.000
G1 X90.960 Y87.540 F1800.000 E1.97171
G1 X90.960 Y75.460 E2.57567
G1 X95.040 Y75.460 E2.77966
G1 X95.040 Y87.402 E3.37672
G1 F600.000 E2.87672
G92 E0
G1 X92.406 Y119.123 F7800.000
G1 F600.000 E0.50000
G1 X93.594 Y120.310 F2400.000 E0.59208
G1 X92.406 Y120.406 F7800.000
G1 X93.594 Y121.594 F2400.000 E0.68416
G1 X92.406 Y121.690 F7800.000
G1 X93.594 Y122.877 F2400.000 E0.77624
G1 X93.594 Y112.931 F7800.000
G1 X92.406 Y111.744 F2400.000 E0.86263
G1 X93.594 Y111.702 F7800.000
G1 X92.406 Y110.514 F2400.000 E0.94902
G1 X93.594 Y110.472 F7800.000
G1 X92.406 Y109.284 F2400.000 E1.03542
G1 X93.594 Y109.242 F7800.000
G1 X92.406 Y108.055 F2400.000 E1.12181
G1 X93.594 Y108.012 F7800.000
G1 X92.406 Y106.825 F2400.000 E1.20821
G1 X93.594 Y106.783 F7800.000
G1 X92.406 Y105.595 F2400.000 E1.29460
G1 X93.594 Y105.553 F7800.000
G1 X92.406 Y104.366 F2400.000 E1.38099
G1 X92.406 Y103.136 F7800.000
G1 X94.364 Y105.094 F2400.000 E1.52342
G1 X95.594 Y105.094 F7800.000
G1 X92.406 Y101.906 F2400.000 E1.75532
G1 X92.406 Y100.677 F7800.000
G1 X95.615 Y103.885 F2400.000 E1.98875
G1 X95.615 Y102.655 F7800.000
G1 X92.406 Y99.447 F2400.000 E2.22219
G1 X92.406 Y98.217 F7800.000
G1 X95.615 Y101.426 F2400.000 E2.45562
G1 X95.615 Y100.196 F7800.000
G1 X92.406 Y96.988 F2400.000 E2.68905
G1 X92.406 Y95.758 F7800.000
G1 X95.615 Y98.967 F2400.000 E2.92249
G1 X95.615 Y97.737 F7800.000
G1 X92.406 Y94.528 F2400.000 E3.15592
G1 X93.594 Y94.486 F7800.000
G1 X92.406 Y93.299 F2400.000 E3.24231
G1 X93.594 Y93.256 F7800.000
G1 X92.406 Y92.069 F2400.000 E3.32870
G1 X94.014 Y94.906 F7800.000
G1 X95.615 Y96.507 F2400.000 E3.44517
G1 F600.000 E2.94517
G92 E0
G1 X93.594 Y85.894 F7800.000
G1 F600.000 E0.50000
G1 X92.406 Y84.707 F2400.000 E0.59031
G1 X93.594 Y84.627 F7800.000
G1 X92.406 Y83.440 F2400.000 E0.68062
G1 X93.594 Y83.361 F7800.000
G1 X92.406 Y82.173 F2400.000 E0.77093
G1 X93.594 Y82.094 F7800.000
G1 X92.406 Y80.906 F2400.000 E0.86124
G1 X93.594 Y80.827 F7800.000
G1 X92.406 Y79.639 F2400.000 E0.95155
G1 X93.594 Y79.560 F7800.000
G1 X92.406 Y78.373 F2400.000 E1.04185
G1 X93.594 Y78.293 F7800.000
G1 X92.406 Y77.106 F2400.000 E1.13216
G1 F600.000 E0.63216
G92 E0
G1 Z1.600 F7800.000
G1 X91.813 Y118.313
G1 F600.000 E0.50000
G1 X94.187 Y118.313 F1800.000 E0.61867
G1 X94.187 Y123.687 E0.88733
G1 X91.813 Y123.687 E1.00600
G1 X91.813 Y118.451 E1.26776
G1 X90.960 Y117.460 F7800.000
G1 X95.040 Y117.460 F1800.000 E1.47174
G1 X95.040 Y124.540 E1.82572
G1 X90.960 Y124.540 E2.02971
G1 X90.960 Y117.598 E2.37679
G1 F600.000 E1.87679
G92 E0
G1 X97.061 Y105.439 F7800.000
G1 F600.000 E0.50000
G1 X97.061 Y94.561 F1800.000 E1.04385
G1 X107.939 Y94.561 E1.58771
G1 X107.939 Y105.439 E2.13156
G1 X97.199 Y105.439 E2.66851
G1 X96.208 Y105.687 F7800.000
G1 X94.187 Y105.687 F1800.000 E2.76956
G1 X94.187 Y113.687 E3.16954
G1 X91.813 Y113.687 E3.28821
G1 X91.813 Y91.313 E4.40681
G1 X94.187 Y91.313 E4.52548
G1 X94.187 Y94.313 E4.67547
G1 X96.208 Y94.313 E4.77652
G1 X96.208 Y105.549 E5.33826
G1 X95.040 Y106.540 F7800.000
G1 X95.040 Y114.540 F1800.000 E5.73824
G1 X90.960 Y114.540 E5.94222
G1 X90.960 Y90.460 E7.14615
G1 X95.040 Y90.460 E7.35014
G1 X95.040 Y93.460 E7.50013
G1 X109.040 Y93.460 E8.20008
G1 X109.040 Y106.540 E8.85404
G1 X95.178 Y106.540 E9.54710
G1 F600.000 E9.04710
G92 E0
G1 X94.187 Y86.687 F7800.000
G1 F600.000 E0.50000
G1 X91.813 Y86.687 F1800.000 E0.61867
G1 X91.813 Y76.313 E1.13731
G1 X94.187 Y76.313 E1.25598
G1 X94.187 Y86.549 E1.76772
G1 X95.040 Y87.540 F7800.000
G1 X90.960 Y87.540 F1800.000 E1.97171
G1 X90.960 Y75.460 E2.57567
G1 X95.040 Y75.460 E2.77966
G1 X95.040 Y87.402 E3.37672
G1 F600.000 E2.87672
G92 E0
G1 X93.593 Y119.122 F7800.000
G1 F600.000 E0.50000
G1 X92.406 Y120.310 F2400.000 E0.59207
G1 X93.594 Y120.406 F7800.000
G1 X92.406 Y121.594 F2400.000 E0.68415
G1 X93.594 Y121.690 F7800.000
G1 X92.407 Y122.878 F2400.000 E0.77622
G1 X92.406 Y112.931 F7800.000
G1 X93.594 Y111.744 F2400.000 E0.86261
G1 X92.406 Y111.701 F7800.000
G1 X93.594 Y110.514 F2400.000 E0.94900
G1 X92.407 Y110.472 F7800.000
G1 X93.594 Y109.285 F2400.000 E1.03540
G1 X92.406 Y109.242 F7800.000
G1 X93.594 Y108.055 F2400.000 E1.12179
G1 X92.407 Y108.013 F7800.000
G1 X93.594 Y106.825 F2400.000 E1.20818
G1 X92.406 Y106.783 F7800.000
G1 X93.594 Y105.595 F2400.000 E1.29458
G1 X94.095 Y105.094 F7800.000
G1 X95.615 Y103.574 F2400.000 E1.40513
G1 X95.615 Y102.345 F7800.000
G1 X92.407 Y105.553 F2400.000 E1.63857
G1 X92.406 Y104.323 F7800.000
G1 X95.615 Y101.115 F2400.000 E1.87200
G1 X95.615 Y99.885 F7800.000
G1 X92.407 Y103.094 F2400.000 E2.10543
G1 X92.406 Y101.864 F7800.000
G1 X95.615 Y98.655 F2400.000 E2.33887
G1 X95.615 Y97.426 F7800.000
G1 X92.407 Y100.635 F2400.000 E2.57230
G1 X92.406 Y99.405 F7800.000
G1 X95.615 Y96.196 F2400.000 E2.80574
