; generated by Slic3r 0.7.3-dev on 2012-05-10 at 16:07:54

; layer_height = 0.4
; perimeters = 1
; solid_layers = 3
; fill_density = 0.25
; nozzle_diameter = 0.75
; filament_diameter = 3
; extrusion_multiplier = 1
; perimeter_speed = 60
; infill_speed = 95
; travel_speed = 130
; extrusion_width_ratio = 2.3
; scale = 1
; single wall width = 0.92mm

M104 S230 ; set temperature
M92 E380
G92 X0 Y0 Z0  E0.0
G1 Z2.0 F150.0
G1 X-250.0 F2100.0
G1 X-249.0 F300.0
G1 X-251.0 F100.0
G92 X3.0
G1 Y-250.0 F2100.0
G1 Y-249.0 F300.0
G1 Y-251.0 F300.0
G92 Y10.0
G1 Y70.0 F2100.0
G1 Z-250.0 F150.0
G1 Z-249.0 F50.0
G1 Z-251.0 F50.0
G1 Y75.0 E2.0  F1000.0
G1 Y100.0 E2.3  F1000.0
G92 Z0.3
G92 E0.0
M106 S70
M107
M109 S230 ; wait for temperature to be reached
G90 ; use absolute coordinates
G21 ; set units to millimeters
G92 E0 ; reset extrusion distance
M82 ; use absolute distances for extrusion
M107
G1 Z0.400 F7800.000
G1 X74.550 Y68.920
G1 F600.000 E0.50000
G1 X74.660 Y68.420 F2880.000 E0.52560
G1 X74.810 Y67.940 E0.55074
G1 X75.000 Y67.470 E0.57609
G1 X75.230 Y67.010 E0.60180
G1 X75.500 Y66.580 E0.62718
G1 X75.800 Y66.180 E0.65218
G1 X76.140 Y65.800 E0.67768
G1 X76.320 Y65.620 E0.69040
G1 X76.700 Y65.280 E0.71590
G1 X77.320 Y64.840 E0.75391
G1 X78.000 Y64.490 E0.79214
G1 X78.470 Y64.300 E0.81749
G1 X78.950 Y64.150 E0.84263
G1 X79.200 Y64.090 E0.85549
G1 X79.950 Y63.980 E0.89339
G1 X80.460 Y63.960 E0.91890
G1 X120.050 Y63.980 E2.89828
G1 X120.800 Y64.090 E2.93618
G1 X121.290 Y64.220 E2.96153
G1 X121.770 Y64.390 E2.98698
G1 X122.230 Y64.600 E3.01227
G1 X122.680 Y64.840 E3.03776
G1 X123.300 Y65.280 E3.07578
G1 X123.680 Y65.620 E3.10127
G1 X124.030 Y65.980 E3.12637
G1 X124.200 Y66.180 E3.13950
G1 X124.500 Y66.580 E3.16449
G1 X124.770 Y67.010 E3.18988
G1 X125.000 Y67.470 E3.21559
G1 X125.190 Y67.940 E3.24094
G1 X125.340 Y68.420 E3.26608
G1 X133.010 Y111.830 E5.47006
G1 X133.040 Y112.250 E5.49112
G1 X133.020 Y117.060 E5.73160
G1 X132.950 Y117.570 E5.75734
G1 X132.840 Y118.070 E5.78294
G1 X132.690 Y118.560 E5.80856
G1 X132.600 Y118.800 E5.82137
G1 X132.260 Y119.500 E5.86028
G1 X131.990 Y119.940 E5.88609
G1 X131.840 Y120.150 E5.89899
G1 X131.680 Y120.350 E5.91180
G1 X131.150 Y120.910 E5.95035
G1 X130.960 Y121.090 E5.96343
G1 X130.760 Y121.250 E5.97624
G1 X109.380 Y135.330 E7.25615
G1 X108.890 Y135.560 E7.28321
G1 X108.390 Y135.750 E7.30996
G1 X107.870 Y135.890 E7.33688
G1 X107.340 Y135.990 E7.36385
G1 X107.080 Y136.020 E7.37693
G1 X106.540 Y136.040 E7.40395
G1 X92.920 Y136.020 E8.08491
G1 X92.660 Y135.990 E8.09799
G1 X92.130 Y135.890 E8.12496
G1 X91.610 Y135.750 E8.15188
G1 X90.860 Y135.450 E8.19227
G1 X90.620 Y135.330 E8.20568
G1 X69.240 Y121.250 E9.48559
G1 X69.040 Y121.090 E9.49840
G1 X68.490 Y120.540 E9.53729
G1 X68.320 Y120.350 E9.55003
G1 X68.160 Y120.150 E9.56284
G1 X68.010 Y119.940 E9.57574
G1 X67.740 Y119.500 E9.60155
G1 X67.400 Y118.800 E9.64046
G1 X67.230 Y118.320 E9.66592
G1 X67.100 Y117.820 E9.69175
G1 X67.010 Y117.310 E9.71764
G1 X66.980 Y117.060 E9.73023
G1 X66.970 Y112.040 E9.98122
G1 X74.526 Y69.056 E12.16324
G1 F600.000 E11.66324
G92 E0
G1 X94.561 Y118.061 F7800.000
G1 F600.000 E0.50000
G1 X105.439 Y118.061 F2880.000 E1.04385
G1 X105.439 Y128.939 E1.58771
G1 X94.561 Y128.939 E2.13156
G1 X94.561 Y118.199 E2.66851
G1 X93.460 Y116.540 F7800.000
G1 X85.460 Y116.540 F2880.000 E3.06849
G1 X85.460 Y112.460 E3.27248
G1 X109.540 Y112.460 E4.47640
G1 X109.540 Y116.540 E4.68039
G1 X106.540 Y116.540 E4.83038
G1 X106.540 Y130.040 E5.50534
G1 X93.460 Y130.040 E6.15929
G1 X93.460 Y116.678 E6.82735
G1 F600.000 E6.32735
G92 E0
G1 X94.561 Y108.439 F7800.000
G1 F600.000 E0.50000
G1 X94.561 Y97.561 F2880.000 E1.04385
G1 X105.439 Y97.561 E1.58771
G1 X105.439 Y108.439 E2.13156
G1 X94.699 Y108.439 E2.66851
G1 X93.460 Y109.540 F7800.000
G1 X93.460 Y96.040 F2880.000 E3.34347
G1 X80.460 Y96.040 E3.99343
G1 X80.460 Y91.960 E4.19742
G1 X119.540 Y91.960 E6.15130
G1 X119.540 Y96.040 E6.35528
G1 X106.540 Y96.040 E7.00524
G1 X106.540 Y109.540 E7.68020
G1 X93.598 Y109.540 E8.32726
G1 F600.000 E7.82726
G92 E0
G1 X112.460 Y112.460 F7800.000
G1 F600.000 E0.50000
G1 X127.040 Y112.460 F2880.000 E1.22895
G1 X127.040 Y116.540 E1.43294
G1 X112.460 Y116.540 E2.16190
G1 X112.460 Y112.598 E2.35898
G1 F600.000 E1.85898
G92 E0
G1 X105.439 Y86.439 F7800.000
G1 F600.000 E0.50000
G1 X94.561 Y86.439 F2880.000 E1.04385
G1 X94.561 Y75.561 E1.58771
G1 X105.439 Y75.561 E2.13156
G1 X105.439 Y86.301 E2.66851
G1 X106.540 Y87.540 F7800.000
G1 X93.460 Y87.540 F2880.000 E3.32247
G1 X93.460 Y74.040 E3.99743
G1 X80.460 Y74.040 E4.64739
G1 X80.460 Y69.960 E4.85138
G1 X119.540 Y69.960 E6.80525
G1 X119.540 Y74.040 E7.00924
G1 X106.540 Y74.040 E7.65920
G1 X106.540 Y87.402 E8.32726
G1 F600.000 E7.82726
G92 E0
G1 X82.540 Y112.460 F7800.000
G1 F600.000 E0.50000
G1 X82.540 Y116.540 F2880.000 E0.70399
G1 X72.960 Y116.540 E1.18296
G1 X72.960 Y112.460 E1.38694
G1 X82.402 Y112.460 E1.85902
G1 X86.053 Y113.394 F7800.000
G1 X88.606 Y115.947 F4560.000 E2.04180
G1 X89.823 Y115.947 F7800.000
G1 X86.929 Y113.053 F4560.000 E2.24896
G1 X88.145 Y113.053 F7800.000
G1 X91.039 Y115.947 F4560.000 E2.45612
G1 X92.256 Y115.947 F7800.000
G1 X89.362 Y113.053 F4560.000 E2.66328
G1 X90.579 Y113.053 F7800.000
G1 X93.473 Y115.947 F4560.000 E2.87044
G1 X94.053 Y116.527 F7800.000
G1 X94.994 Y117.468 F4560.000 E2.93778
G1 X96.210 Y117.468 F7800.000
G1 X91.795 Y113.053 F4560.000 E3.25383
G1 X93.011 Y113.053 F7800.000
G1 X97.427 Y117.468 F4560.000 E3.56988
G1 X98.644 Y117.468 F7800.000
G1 X94.229 Y113.053 F4560.000 E3.88593
G1 X95.445 Y113.053 F7800.000
G1 X99.860 Y117.468 F4560.000 E4.20197
G1 X101.076 Y117.468 F7800.000
G1 X96.661 Y113.053 F4560.000 E4.51802
G1 X97.878 Y113.053 F7800.000
G1 X102.293 Y117.468 F4560.000 E4.83407
G1 X103.509 Y117.468 F7800.000
G1 X99.094 Y113.053 F4560.000 E5.15011
G1 X100.311 Y113.053 F7800.000
G1 X104.726 Y117.468 F4560.000 E5.46617
G1 X105.943 Y117.468 F7800.000
G1 X101.528 Y113.053 F4560.000 E5.78221
G1 X102.744 Y113.053 F7800.000
G1 X105.947 Y116.256 F4560.000 E6.01150
G1 X106.854 Y115.947 F7800.000
G1 X103.960 Y113.053 F4560.000 E6.21866
G1 X105.177 Y113.053 F7800.000
G1 X108.071 Y115.947 F4560.000 E6.42582
G1 X108.947 Y115.606 F7800.000
G1 X106.394 Y113.053 F4560.000 E6.60860
G1 X107.610 Y113.053 F7800.000
G1 X108.947 Y114.390 F4560.000 E6.70431
G1 F600.000 E6.20431
G92 E0
G1 X87.390 Y115.947 F7800.000
G1 F600.000 E0.50000
G1 X86.053 Y114.610 F4560.000 E0.59571
G1 F600.000 E0.09571
G92 E0
G1 X113.053 Y114.592 F7800.000
G1 F600.000 E0.50000
G1 X114.408 Y115.947 F4560.000 E0.59913
G1 X115.642 Y115.947 F7800.000
G1 X113.053 Y113.358 F4560.000 E0.78859
G1 X113.983 Y113.053 F7800.000
G1 X116.877 Y115.947 F4560.000 E1.00035
G1 X118.111 Y115.947 F7800.000
G1 X115.217 Y113.053 F4560.000 E1.21211
G1 X116.452 Y113.053 F7800.000
G1 X119.346 Y115.947 F4560.000 E1.42389
G1 X120.580 Y115.947 F7800.000
G1 X117.686 Y113.053 F4560.000 E1.63567
G1 X118.920 Y113.053 F7800.000
G1 X121.814 Y115.947 F4560.000 E1.84741
G1 X123.048 Y115.947 F7800.000
G1 X120.154 Y113.053 F4560.000 E2.05918
G1 X121.389 Y113.053 F7800.000
G1 X124.283 Y115.947 F4560.000 E2.27095
G1 X125.517 Y115.947 F7800.000
G1 X122.623 Y113.053 F4560.000 E2.48272
G1 X123.858 Y113.053 F7800.000
G1 X126.447 Y115.642 F4560.000 E2.67219
G1 X126.447 Y114.408 F7800.000
G1 X125.093 Y113.053 F4560.000 E2.77133
G1 F600.000 E2.27133
G92 E0
G1 X118.947 Y95.131 F7800.000
G1 F600.000 E0.50000
G1 X116.369 Y92.553 F4560.000 E0.68732
G1 X115.140 Y92.553 F7800.000
G1 X118.034 Y95.447 F4560.000 E0.89761
G1 X116.806 Y95.447 F7800.000
G1 X113.912 Y92.553 F4560.000 E1.10790
G1 X112.683 Y92.553 F7800.000
G1 X115.577 Y95.447 F4560.000 E1.31819
G1 X114.348 Y95.447 F7800.000
G1 X111.454 Y92.553 F4560.000 E1.52849
G1 X110.226 Y92.553 F7800.000
G1 X113.120 Y95.447 F4560.000 E1.73878
G1 X111.891 Y95.447 F7800.000
G1 X108.997 Y92.553 F4560.000 E1.94907
G1 X107.768 Y92.553 F7800.000
G1 X110.662 Y95.447 F4560.000 E2.15936
G1 X109.434 Y95.447 F7800.000
G1 X106.540 Y92.553 F4560.000 E2.36965
G1 X105.311 Y92.553 F7800.000
G1 X108.205 Y95.447 F4560.000 E2.57994
G1 X106.976 Y95.447 F7800.000
G1 X104.082 Y92.553 F4560.000 E2.79023
G1 X102.853 Y92.553 F7800.000
G1 X105.947 Y95.647 F4560.000 E3.01503
G1 X105.947 Y96.876 F7800.000
G1 X101.624 Y92.553 F4560.000 E3.32911
G1 X100.396 Y92.553 F7800.000
G1 X104.811 Y96.968 F4560.000 E3.64993
G1 X103.583 Y96.968 F7800.000
G1 X99.168 Y92.553 F4560.000 E3.97075
G1 X97.939 Y92.553 F7800.000
G1 X102.354 Y96.968 F4560.000 E4.29158
G1 X101.125 Y96.968 F7800.000
G1 X96.710 Y92.553 F4560.000 E4.61240
G1 X95.481 Y92.553 F7800.000
G1 X99.896 Y96.968 F4560.000 E4.93322
G1 X98.667 Y96.968 F7800.000
G1 X94.252 Y92.553 F4560.000 E5.25405
G1 X93.024 Y92.553 F7800.000
G1 X97.439 Y96.968 F4560.000 E5.57487
G1 X96.210 Y96.968 F7800.000
G1 X91.795 Y92.553 F4560.000 E5.89570
G1 X90.566 Y92.553 F7800.000
G1 X93.460 Y95.447 F4560.000 E6.10599
G1 X94.053 Y96.040 F7800.000
G1 X94.982 Y96.968 F4560.000 E6.17346
G1 X92.232 Y95.447 F7800.000
G1 X89.338 Y92.553 F4560.000 E6.38375
G1 X88.109 Y92.553 F7800.000
G1 X91.003 Y95.447 F4560.000 E6.59404
G1 X89.775 Y95.447 F7800.000
G1 X86.881 Y92.553 F4560.000 E6.80433
G1 X85.652 Y92.553 F7800.000
G1 X88.546 Y95.447 F4560.000 E7.01462
G1 X87.317 Y95.447 F7800.000
G1 X84.423 Y92.553 F4560.000 E7.22491
G1 X83.194 Y92.553 F7800.000
G1 X86.088 Y95.447 F4560.000 E7.43520
G1 X84.859 Y95.447 F7800.000
G1 X81.965 Y92.553 F4560.000 E7.64549
G1 X81.053 Y92.869 F7800.000
G1 X83.631 Y95.447 F4560.000 E7.83281
G1 X82.402 Y95.447 F7800.000
G1 X81.053 Y94.098 F4560.000 E7.93084
G1 F600.000 E7.43084
G92 E0
G1 X117.598 Y92.553 F7800.000
G1 F600.000 E0.50000
G1 X118.947 Y93.902 F4560.000 E0.59804
G1 F600.000 E0.09804
G92 E0
G1 X118.035 Y73.447 F7800.000
G1 F600.000 E0.50000
G1 X115.141 Y70.553 F4560.000 E0.71029
G1 X116.369 Y70.553 F7800.000
G1 X118.947 Y73.131 F4560.000 E0.89761
G1 X118.947 Y71.902 F7800.000
G1 X117.598 Y70.553 F4560.000 E0.99564
G1 X116.806 Y73.447 F7800.000
G1 X113.912 Y70.553 F4560.000 E1.20593
G1 X112.683 Y70.553 F7800.000
G1 X115.577 Y73.447 F4560.000 E1.41622
G1 X114.348 Y73.447 F7800.000
G1 X111.454 Y70.553 F4560.000 E1.62651
G1 X110.225 Y70.553 F7800.000
G1 X113.119 Y73.447 F4560.000 E1.83680
G1 X111.891 Y73.447 F7800.000
G1 X108.997 Y70.553 F4560.000 E2.04709
G1 X107.768 Y70.553 F7800.000
G1 X110.662 Y73.447 F4560.000 E2.25738
G1 X109.434 Y73.447 F7800.000
G1 X106.540 Y70.553 F4560.000 E2.46767
G1 X105.311 Y70.553 F7800.000
G1 X108.205 Y73.447 F4560.000 E2.67797
G1 X106.976 Y73.447 F7800.000
G1 X104.082 Y70.553 F4560.000 E2.88826
G1 X102.854 Y70.553 F7800.000
G1 X105.947 Y73.646 F4560.000 E3.11305
G1 X105.947 Y74.875 F7800.000
G1 X101.625 Y70.553 F4560.000 E3.42712
G1 X100.396 Y70.553 F7800.000
G1 X104.811 Y74.968 F4560.000 E3.74795
G1 X103.582 Y74.968 F7800.000
G1 X99.167 Y70.553 F4560.000 E4.06877
G1 X97.938 Y70.553 F7800.000
G1 X102.354 Y74.968 F4560.000 E4.38959
G1 X101.125 Y74.968 F7800.000
G1 X96.710 Y70.553 F4560.000 E4.71042
G1 X95.482 Y70.553 F7800.000
G1 X99.897 Y74.968 F4560.000 E5.03124
G1 X98.668 Y74.968 F7800.000
G1 X94.253 Y70.553 F4560.000 E5.35207
G1 X93.024 Y70.553 F7800.000
G1 X97.439 Y74.968 F4560.000 E5.67289
G1 X96.210 Y74.968 F7800.000
G1 X91.795 Y70.553 F4560.000 E5.99371
G1 X90.566 Y70.553 F7800.000
G1 X93.460 Y73.447 F4560.000 E6.20401
G1 X94.053 Y74.040 F7800.000
G1 X94.981 Y74.968 F4560.000 E6.27148
G1 X92.232 Y73.447 F7800.000
G1 X89.338 Y70.553 F4560.000 E6.48178
G1 X88.109 Y70.553 F7800.000
G1 X91.003 Y73.447 F4560.000 E6.69207
G1 X89.774 Y73.447 F7800.000
G1 X86.880 Y70.553 F4560.000 E6.90236
G1 X85.652 Y70.553 F7800.000
G1 X88.546 Y73.447 F4560.000 E7.11265
G1 X87.317 Y73.447 F7800.000
G1 X84.423 Y70.553 F4560.000 E7.32294
G1 X83.194 Y70.553 F7800.000
G1 X86.088 Y73.447 F4560.000 E7.53323
G1 X84.860 Y73.447 F7800.000
G1 X81.966 Y70.553 F4560.000 E7.74352
G1 X81.053 Y70.869 F7800.000
G1 X83.631 Y73.447 F4560.000 E7.93084
G1 X82.402 Y73.447 F7800.000
G1 X81.053 Y72.098 F4560.000 E8.02888
G1 F600.000 E7.52888
G92 E0
G1 X80.599 Y113.053 F7800.000
G1 F600.000 E0.50000
G1 X81.947 Y114.401 F4560.000 E0.59780
G1 X81.947 Y115.628 F7800.000
G1 X79.372 Y113.053 F4560.000 E0.78465
G1 X78.144 Y113.053 F7800.000
G1 X81.038 Y115.947 F4560.000 E0.99462
G1 X79.811 Y115.947 F7800.000
G1 X76.917 Y113.053 F4560.000 E1.20460
G1 X75.689 Y113.053 F7800.000
G1 X78.583 Y115.947 F4560.000 E1.41457
G1 X77.356 Y115.947 F7800.000
G1 X74.462 Y113.053 F4560.000 E1.62454
G1 X73.553 Y113.372 F7800.000
G1 X76.128 Y115.947 F4560.000 E1.81139
G1 X74.901 Y115.947 F7800.000
G1 X73.553 Y114.599 F4560.000 E1.90919
M106 S114
G1 F600.000 E1.40919
G92 E0
G1 Z0.800 F7800.000
G1 X94.561 Y118.061
G1 F600.000 E0.50000
G1 X105.439 Y118.061 F3600.000 E1.04385
G1 X105.439 Y128.939 E1.58771
G1 X94.561 Y128.939 E2.13156
G1 X94.561 Y118.199 E2.66851
G1 X93.460 Y116.540 F7800.000
G1 X85.460 Y116.540 F3600.000 E3.06849
G1 X85.460 Y112.460 E3.27248
G1 X109.540 Y112.460 E4.47640
G1 X109.540 Y116.540 E4.68039
G1 X106.540 Y116.540 E4.83038
G1 X106.540 Y130.040 E5.50534
G1 X93.460 Y130.040 E6.15929
G1 X93.460 Y116.678 E6.82735
G1 F600.000 E6.32735
G92 E0
G1 X94.561 Y108.439 F7800.000
G1 F600.000 E0.50000
G1 X94.561 Y97.561 F3600.000 E1.04385
G1 X105.439 Y97.561 E1.58771
G1 X105.439 Y108.439 E2.13156
G1 X94.699 Y108.439 E2.66851
G1 X93.460 Y109.540 F7800.000
G1 X93.460 Y96.040 F3600.000 E3.34347
G1 X80.460 Y96.040 E3.99343
G1 X80.460 Y91.960 E4.19742
G1 X119.540 Y91.960 E6.15130
G1 X119.540 Y96.040 E6.35528
G1 X106.540 Y96.040 E7.00524
G1 X106.540 Y109.540 E7.68020
G1 X93.598 Y109.540 E8.32726
G1 F600.000 E7.82726
G92 E0
G1 X112.460 Y112.460 F7800.000
G1 F600.000 E0.50000
G1 X127.040 Y112.460 F3600.000 E1.22895
G1 X127.040 Y116.540 E1.43294
G1 X112.460 Y116.540 E2.16190
G1 X112.460 Y112.598 E2.35898
G1 F600.000 E1.85898
G92 E0
G1 X105.439 Y86.439 F7800.000
G1 F600.000 E0.50000
G1 X94.561 Y86.439 F3600.000 E1.04385
G1 X94.561 Y75.561 E1.58771
G1 X105.439 Y75.561 E2.13156
G1 X105.439 Y86.301 E2.66851
G1 X106.540 Y87.540 F7800.000
G1 X93.460 Y87.540 F3600.000 E3.32247
G1 X93.460 Y74.040 E3.99743
G1 X80.460 Y74.040 E4.64739
G1 X80.460 Y69.960 E4.85138
G1 X119.540 Y69.960 E6.80525
G1 X119.540 Y74.040 E7.00924
G1 X106.540 Y74.040 E7.65920
G1 X106.540 Y87.402 E8.32726
G1 F600.000 E7.82726
G92 E0
G1 X82.540 Y112.460 F7800.000
G1 F600.000 E0.50000
G1 X82.540 Y116.540 F3600.000 E0.70399
G1 X72.960 Y116.540 E1.18296
G1 X72.960 Y112.460 E1.38694
G1 X82.402 Y112.460 E1.85902
G1 X86.052 Y114.390 F7800.000
G1 X87.390 Y113.053 F5700.000 E1.95473
G1 X88.606 Y113.054 F7800.000
G1 X86.053 Y115.607 F5700.000 E2.13750
G1 X86.929 Y115.947 F7800.000
G1 X89.823 Y113.053 F5700.000 E2.34468
G1 X91.040 Y113.053 F7800.000
G1 X88.145 Y115.947 F5700.000 E2.55185
G1 X89.362 Y115.947 F7800.000
G1 X92.256 Y113.053 F5700.000 E2.75903
G1 X93.472 Y113.053 F7800.000
G1 X90.579 Y115.946 F5700.000 E2.96615
G1 X91.796 Y115.947 F7800.000
G1 X94.689 Y113.054 F5700.000 E3.17328
G1 X95.906 Y113.053 F7800.000
G1 X93.012 Y115.947 F5700.000 E3.38045
G1 X94.053 Y116.122 F7800.000
G1 X97.122 Y113.053 F5700.000 E3.60018
G1 X98.338 Y113.053 F7800.000
G1 X94.053 Y117.339 F5700.000 E3.90697
G1 X95.140 Y117.469 F7800.000
G1 X99.555 Y113.054 F5700.000 E4.22302
G1 X100.772 Y113.053 F7800.000
G1 X96.357 Y117.468 F5700.000 E4.53907
G1 X97.573 Y117.468 F7800.000
G1 X101.988 Y113.053 F5700.000 E4.85512
G1 X103.205 Y113.053 F7800.000
G1 X98.790 Y117.468 F5700.000 E5.17118
G1 X100.006 Y117.468 F7800.000
G1 X104.421 Y113.053 F5700.000 E5.48723
G1 X105.638 Y113.054 F7800.000
G1 X101.223 Y117.469 F5700.000 E5.80328
G1 X102.440 Y117.468 F7800.000
G1 X106.855 Y113.053 F5700.000 E6.11933
G1 X108.071 Y113.053 F7800.000
G1 X103.656 Y117.468 F5700.000 E6.43538
G1 X104.872 Y117.468 F7800.000
G1 X105.947 Y116.393 F5700.000 E6.51232
G1 X106.393 Y115.947 F7800.000
G1 X108.947 Y113.393 F5700.000 E6.69515
G1 X108.947 Y114.611 F7800.000
G1 X107.611 Y115.947 F5700.000 E6.79081
G1 X113.053 Y115.642 F7800.000
G1 X115.643 Y113.053 F5700.000 E6.98029
G1 X116.877 Y113.054 F7800.000
