; generated by Slic3r 0.7.2b on 2012-05-12 at 08:47:29

; layer_height = 0.4
; perimeters = 1
; solid_layers = 3
; fill_density = 0.25
; nozzle_diameter = 0.75
; filament_diameter = 3
; extrusion_multiplier = 1
; perimeter_speed = 50
; infill_speed = 80
; travel_speed = 130
; extrusion_width_ratio = 2.3
; scale = 1
; single wall width = 0.92mm

M104 S230 ; set temperature
M92 E380
G92 X0 Y0 Z0  E0.0
G1 Z2.0 F150.0
G1 X-250.0 F2100.0
G1 X-249.0 F300.0
G1 X-251.0 F100.0
G92 X3.0
G1 Y-250.0 F2100.0
G1 Y-249.0 F300.0
G1 Y-251.0 F300.0
G92 Y10.0
G1 Y70.0 F2100.0
G1 Z-250.0 F150.0
G1 Z-249.0 F50.0
G1 Z-251.0 F50.0
G1 Y75.0 E2.0  F1000.0
G1 Y100.0 E2.3  F1000.0
G92 Z0.3
G92 E0.0
M106 S70
M107
M109 S230 ; wait for temperature to be reached
G90 ; use absolute coordinates
G21 ; set units to millimeters
G92 E0 ; reset extrusion distance
M82 ; use absolute distances for extrusion
G1 Z0.400 F7800.000
G1 X53.130 Y82.810
G1 F600.000 E0.50000
G1 X53.310 Y82.630 F2400.000 E0.51273
G1 X53.690 Y82.290 E0.53822
G1 X54.310 Y81.850 E0.57623
G1 X54.530 Y81.720 E0.58901
G1 X54.990 Y81.490 E0.61472
G1 X55.460 Y81.300 E0.64007
G1 X55.950 Y81.150 E0.66569
G1 X56.200 Y81.090 E0.67854
G1 X56.950 Y80.980 E0.71644
G1 X57.460 Y80.960 E0.74196
G1 X143.050 Y80.980 E5.02119
G1 X143.800 Y81.090 E5.05909
G1 X144.300 Y81.220 E5.08492
G1 X144.780 Y81.390 E5.11038
G1 X145.240 Y81.600 E5.13566
G1 X145.470 Y81.720 E5.14863
G1 X145.690 Y81.850 E5.16141
G1 X146.310 Y82.290 E5.19942
G1 X146.690 Y82.630 E5.22491
G1 X146.870 Y82.810 E5.23764
G1 X147.210 Y83.190 E5.26313
G1 X147.650 Y83.810 E5.30114
G1 X147.780 Y84.030 E5.31392
G1 X148.010 Y84.490 E5.33963
G1 X148.200 Y84.960 E5.36498
G1 X148.350 Y85.450 E5.39060
G1 X148.410 Y85.700 E5.40345
G1 X148.520 Y86.450 E5.44135
G1 X148.520 Y160.080 E9.12262
G1 X148.490 Y160.350 E9.13620
G1 X148.390 Y160.880 E9.16317
G1 X148.240 Y161.400 E9.19023
G1 X148.050 Y161.910 E9.21744
G1 X147.820 Y162.400 E9.24450
G1 X147.540 Y162.860 E9.27143
G1 X147.220 Y163.300 E9.29863
G1 X147.050 Y163.500 E9.31175
G1 X133.670 Y177.390 E10.27600
G1 X133.270 Y177.740 E10.30257
G1 X132.830 Y178.060 E10.32977
G1 X132.610 Y178.200 E10.34281
G1 X131.890 Y178.560 E10.38306
G1 X131.390 Y178.750 E10.40980
G1 X131.130 Y178.830 E10.42340
G1 X130.340 Y178.990 E10.46370
G1 X130.080 Y179.020 E10.47679
G1 X129.540 Y179.040 E10.50380
G1 X69.920 Y179.020 E13.48462
G1 X69.660 Y178.990 E13.49770
G1 X68.870 Y178.830 E13.53800
G1 X68.360 Y178.660 E13.56488
G1 X67.870 Y178.450 E13.59153
G1 X67.390 Y178.200 E13.61859
G1 X67.170 Y178.060 E13.63163
G1 X66.730 Y177.740 E13.65883
G1 X66.330 Y177.390 E13.68540
G1 X52.950 Y163.500 E14.64965
G1 X52.780 Y163.300 E14.66278
G1 X52.460 Y162.860 E14.68998
G1 X52.180 Y162.400 E14.71690
G1 X51.950 Y161.910 E14.74396
G1 X51.760 Y161.400 E14.77117
G1 X51.610 Y160.880 E14.79823
G1 X51.510 Y160.350 E14.82520
G1 X51.480 Y160.080 E14.83878
G1 X51.480 Y86.450 E18.52005
G1 X51.590 Y85.700 E18.55795
G1 X51.720 Y85.200 E18.58378
G1 X51.890 Y84.720 E18.60924
G1 X52.100 Y84.260 E18.63452
G1 X52.220 Y84.030 E18.64749
G1 X52.350 Y83.810 E18.66027
G1 X52.790 Y83.190 E18.69828
G1 X53.038 Y82.913 E18.71687
G1 F600.000 E18.21687
G92 E0
G1 X118.040 Y161.540 F7800.000
G1 F600.000 E0.50000
G1 X127.960 Y161.540 F2400.000 E0.99597
G1 X127.960 Y171.460 E1.49194
G1 X118.040 Y171.460 E1.98791
G1 X118.040 Y161.678 E2.47698
G1 X116.460 Y159.540 F7800.000
G1 X103.460 Y159.540 F2400.000 E3.12694
G1 X103.460 Y155.460 E3.33092
G1 X142.540 Y155.460 E5.28480
G1 X142.540 Y159.540 E5.48879
G1 X129.540 Y159.540 E6.13875
G1 X129.540 Y173.040 E6.81371
G1 X116.460 Y173.040 E7.46766
G1 X116.460 Y159.678 E8.13572
G1 F600.000 E7.63572
G92 E0
G1 X118.040 Y149.460 F7800.000
G1 F600.000 E0.50000
G1 X118.040 Y139.540 F2400.000 E0.99597
G1 X127.960 Y139.540 E1.49194
G1 X127.960 Y149.460 E1.98791
G1 X118.178 Y149.460 E2.47698
G1 X116.460 Y151.040 F7800.000
G1 X116.460 Y137.540 F2400.000 E3.15193
G1 X103.460 Y137.540 E3.80189
G1 X103.460 Y133.460 E4.00588
G1 X142.540 Y133.460 E5.95976
G1 X142.540 Y137.540 E6.16375
G1 X129.540 Y137.540 E6.81371
G1 X129.540 Y151.040 E7.48866
G1 X116.598 Y151.040 E8.13572
G1 F600.000 E7.63572
G92 E0
G1 X118.040 Y124.960 F7800.000
G1 F600.000 E0.50000
G1 X118.040 Y115.040 F2400.000 E0.99597
G1 X127.960 Y115.040 E1.49194
G1 X127.960 Y124.960 E1.98791
G1 X118.178 Y124.960 E2.47698
G1 X116.460 Y126.540 F7800.000
G1 X116.460 Y113.040 F2400.000 E3.15193
G1 X103.460 Y113.040 E3.80189
G1 X103.460 Y108.960 E4.00588
G1 X142.540 Y108.960 E5.95976
G1 X142.540 Y113.040 E6.16375
G1 X129.540 Y113.040 E6.81371
G1 X129.540 Y126.540 E7.48866
G1 X116.598 Y126.540 E8.13572
G1 F600.000 E7.63572
G92 E0
G1 X118.040 Y102.960 F7800.000
G1 F600.000 E0.50000
G1 X118.040 Y93.040 F2400.000 E0.99597
G1 X127.960 Y93.040 E1.49194
G1 X127.960 Y102.960 E1.98791
G1 X118.178 Y102.960 E2.47698
G1 X116.460 Y104.540 F7800.000
G1 X116.460 Y91.040 F2400.000 E3.15193
G1 X103.460 Y91.040 E3.80189
G1 X103.460 Y86.960 E4.00588
G1 X142.540 Y86.960 E5.95976
G1 X142.540 Y91.040 E6.16375
G1 X129.540 Y91.040 E6.81371
G1 X129.540 Y104.540 E7.48866
G1 X116.598 Y104.540 E8.13572
G1 F600.000 E7.63572
G92 E0
G1 X81.960 Y102.960 F7800.000
G1 F600.000 E0.50000
G1 X72.040 Y102.960 F2400.000 E0.99597
G1 X72.040 Y93.040 E1.49194
G1 X81.960 Y93.040 E1.98791
G1 X81.960 Y102.822 E2.47698
G1 X83.540 Y104.540 F7800.000
G1 X70.460 Y104.540 F2400.000 E3.13094
G1 X70.460 Y91.040 E3.80589
G1 X57.460 Y91.040 E4.45585
G1 X57.460 Y86.960 E4.65984
G1 X96.540 Y86.960 E6.61372
G1 X96.540 Y91.040 E6.81770
G1 X83.540 Y91.040 E7.46766
G1 X83.540 Y104.402 E8.13572
G1 F600.000 E7.63572
G92 E0
G1 X81.960 Y115.040 F7800.000
G1 F600.000 E0.50000
G1 X81.960 Y124.960 F2400.000 E0.99597
G1 X72.040 Y124.960 E1.49194
G1 X72.040 Y115.040 E1.98791
G1 X81.822 Y115.040 E2.47698
G1 X83.540 Y113.040 F7800.000
G1 X83.540 Y126.540 F2400.000 E3.15193
G1 X70.460 Y126.540 E3.80589
G1 X70.460 Y113.040 E4.48085
G1 X57.460 Y113.040 E5.13081
G1 X57.460 Y108.960 E5.33480
G1 X96.540 Y108.960 E7.28868
G1 X96.540 Y113.040 E7.49266
G1 X83.678 Y113.040 E8.13572
G1 F600.000 E7.63572
G92 E0
G1 X81.960 Y139.540 F7800.000
G1 F600.000 E0.50000
G1 X81.960 Y149.460 F2400.000 E0.99597
G1 X72.040 Y149.460 E1.49194
G1 X72.040 Y139.540 E1.98791
G1 X81.822 Y139.540 E2.47698
G1 X83.540 Y137.540 F7800.000
G1 X83.540 Y151.040 F2400.000 E3.15193
G1 X70.460 Y151.040 E3.80589
G1 X70.460 Y137.540 E4.48085
G1 X57.460 Y137.540 E5.13081
G1 X57.460 Y133.460 E5.33480
G1 X96.540 Y133.460 E7.28868
G1 X96.540 Y137.540 E7.49266
G1 X83.678 Y137.540 E8.13572
G1 F600.000 E7.63572
G92 E0
G1 X81.960 Y161.540 F7800.000
G1 F600.000 E0.50000
G1 X81.960 Y171.460 F2400.000 E0.99597
G1 X72.040 Y171.460 E1.49194
G1 X72.040 Y161.540 E1.98791
G1 X81.822 Y161.540 E2.47698
G1 X83.540 Y159.540 F7800.000
G1 X83.540 Y173.040 F2400.000 E3.15193
G1 X70.460 Y173.040 E3.80589
G1 X70.460 Y159.540 E4.48085
G1 X57.460 Y159.540 E5.13081
G1 X57.460 Y155.460 E5.33480
G1 X96.540 Y155.460 E7.28868
G1 X96.540 Y159.540 E7.49266
G1 X83.678 Y159.540 E8.13572
G1 X83.976 Y158.947 F7800.000
G1 X81.082 Y156.053 F3840.000 E8.34603
G1 X79.853 Y156.054 F7800.000
G1 X82.947 Y159.147 F3840.000 E8.57082
G1 X82.947 Y160.375 F7800.000
G1 X78.625 Y156.053 F3840.000 E8.88487
G1 X77.396 Y156.053 F7800.000
G1 X82.290 Y160.947 F3840.000 E9.24048
G1 X81.061 Y160.947 F7800.000
G1 X76.167 Y156.053 F3840.000 E9.59610
G1 X74.938 Y156.053 F7800.000
G1 X79.833 Y160.947 F3840.000 E9.95176
G1 X78.604 Y160.947 F7800.000
G1 X73.710 Y156.054 F3840.000 E10.30738
G1 X72.481 Y156.054 F7800.000
G1 X77.375 Y160.947 F3840.000 E10.66299
G1 X76.147 Y160.947 F7800.000
G1 X71.253 Y156.053 F3840.000 E11.01861
G1 X70.024 Y156.053 F7800.000
G1 X74.918 Y160.947 F3840.000 E11.37422
G1 X73.689 Y160.947 F7800.000
G1 X68.795 Y156.053 F3840.000 E11.72983
G1 X67.566 Y156.053 F7800.000
G1 X70.460 Y158.947 F3840.000 E11.94014
G1 X71.053 Y159.540 F7800.000
G1 X72.461 Y160.947 F3840.000 E12.04244
G1 X69.231 Y158.947 F7800.000
G1 X66.338 Y156.054 F3840.000 E12.25270
G1 X65.110 Y156.053 F7800.000
G1 X68.004 Y158.947 F3840.000 E12.46300
G1 X66.775 Y158.947 F7800.000
G1 X63.881 Y156.053 F3840.000 E12.67331
G1 X62.652 Y156.053 F7800.000
G1 X65.546 Y158.947 F3840.000 E12.88361
G1 X64.317 Y158.947 F7800.000
G1 X61.423 Y156.053 F3840.000 E13.09392
G1 X60.194 Y156.053 F7800.000
G1 X63.088 Y158.947 F3840.000 E13.30423
G1 X61.859 Y158.947 F7800.000
G1 X58.965 Y156.054 F3840.000 E13.51448
G1 X58.053 Y156.369 F7800.000
G1 X60.631 Y158.947 F3840.000 E13.70182
G1 X59.402 Y158.947 F7800.000
G1 X58.053 Y157.598 F3840.000 E13.79986
G1 F600.000 E13.29986
G92 E0
G1 X82.311 Y156.053 F7800.000
G1 F600.000 E0.50000
G1 X85.205 Y158.947 F3840.000 E0.71031
G1 X86.434 Y158.947 F7800.000
G1 X83.540 Y156.053 F3840.000 E0.92061
G1 X84.768 Y156.053 F7800.000
G1 X87.663 Y158.947 F3840.000 E1.13092
G1 X88.891 Y158.946 F7800.000
G1 X85.997 Y156.053 F3840.000 E1.34117
G1 X87.226 Y156.054 F7800.000
G1 X90.119 Y158.947 F3840.000 E1.55143
G1 X91.348 Y158.947 F7800.000
G1 X88.454 Y156.053 F3840.000 E1.76173
G1 X89.683 Y156.053 F7800.000
G1 X92.577 Y158.947 F3840.000 E1.97204
G1 X93.806 Y158.947 F7800.000
G1 X90.912 Y156.053 F3840.000 E2.18235
G1 X92.141 Y156.053 F7800.000
G1 X95.035 Y158.947 F3840.000 E2.39265
G1 X95.946 Y158.631 F7800.000
G1 X93.369 Y156.054 F3840.000 E2.57994
G1 X94.598 Y156.054 F7800.000
G1 X95.946 Y157.402 F3840.000 E2.67792
G1 F600.000 E2.17792
G92 E0
G1 X95.034 Y136.947 F7800.000
G1 F600.000 E0.50000
G1 X92.141 Y134.053 F3840.000 E0.71025
G1 X93.369 Y134.053 F7800.000
G1 X95.947 Y136.631 F3840.000 E0.89759
G1 X95.947 Y135.402 F7800.000
G1 X94.598 Y134.053 F3840.000 E0.99563
G1 X93.805 Y136.947 F7800.000
G1 X90.912 Y134.053 F3840.000 E1.20588
G1 X89.683 Y134.053 F7800.000
G1 X92.577 Y136.948 F3840.000 E1.41619
G1 X91.349 Y136.947 F7800.000
G1 X88.455 Y134.053 F3840.000 E1.62650
G1 X87.226 Y134.053 F7800.000
G1 X90.120 Y136.947 F3840.000 E1.83680
G1 X88.891 Y136.947 F7800.000
G1 X85.997 Y134.053 F3840.000 E2.04711
G1 X84.768 Y134.053 F7800.000
G1 X87.662 Y136.947 F3840.000 E2.25736
G1 X86.433 Y136.947 F7800.000
G1 X83.540 Y134.053 F3840.000 E2.46762
G1 X82.311 Y134.053 F7800.000
G1 X85.205 Y136.948 F3840.000 E2.67792
G1 X83.977 Y136.947 F7800.000
G1 X81.082 Y134.053 F3840.000 E2.88823
G1 X79.853 Y134.053 F7800.000
G1 X82.947 Y137.146 F3840.000 E3.11303
G1 X82.947 Y138.375 F7800.000
G1 X78.624 Y134.053 F3840.000 E3.42712
G1 X77.396 Y134.053 F7800.000
G1 X82.290 Y138.947 F3840.000 E3.78275
G1 X81.061 Y138.947 F7800.000
G1 X76.167 Y134.053 F3840.000 E4.13838
G1 X74.938 Y134.053 F7800.000
G1 X79.832 Y138.947 F3840.000 E4.49399
G1 X78.604 Y138.947 F7800.000
G1 X73.710 Y134.053 F3840.000 E4.84959
G1 X72.481 Y134.053 F7800.000
G1 X77.376 Y138.947 F3840.000 E5.20524
G1 X76.147 Y138.947 F7800.000
G1 X71.253 Y134.053 F3840.000 E5.56088
G1 X70.024 Y134.053 F7800.000
G1 X74.918 Y138.947 F3840.000 E5.91651
G1 X73.689 Y138.947 F7800.000
G1 X68.795 Y134.053 F3840.000 E6.27213
G1 X67.567 Y134.053 F7800.000
G1 X70.461 Y136.947 F3840.000 E6.48242
G1 X71.053 Y137.539 F7800.000
G1 X72.461 Y138.947 F3840.000 E6.58469
G1 X69.232 Y136.947 F7800.000
G1 X66.338 Y134.053 F3840.000 E6.79498
G1 X65.109 Y134.053 F7800.000
G1 X68.003 Y136.947 F3840.000 E7.00527
G1 X66.774 Y136.947 F7800.000
G1 X63.880 Y134.053 F3840.000 E7.21557
G1 X62.651 Y134.053 F7800.000
G1 X65.545 Y136.947 F3840.000 E7.42586
G1 X64.317 Y136.947 F7800.000
G1 X61.423 Y134.053 F3840.000 E7.63615
G1 X60.194 Y134.053 F7800.000
G1 X63.089 Y136.947 F3840.000 E7.84644
G1 X61.860 Y136.947 F7800.000
G1 X58.966 Y134.053 F3840.000 E8.05673
G1 X58.053 Y134.369 F7800.000
G1 X60.631 Y136.947 F3840.000 E8.24405
G1 X59.402 Y136.947 F7800.000
G1 X58.053 Y135.598 F3840.000 E8.34209
G1 F600.000 E7.84209
G92 E0
G1 X59.402 Y112.447 F7800.000
G1 F600.000 E0.50000
G1 X58.053 Y111.098 F3840.000 E0.59804
G1 X58.053 Y109.869 F7800.000
G1 X60.631 Y112.447 F3840.000 E0.78535
G1 X61.860 Y112.447 F7800.000
G1 X58.966 Y109.553 F3840.000 E0.99565
G1 X60.194 Y109.553 F7800.000
G1 X63.088 Y112.447 F3840.000 E1.20594
G1 X64.317 Y112.447 F7800.000
G1 X61.423 Y109.553 F3840.000 E1.41623
G1 X62.651 Y109.553 F7800.000
G1 X65.545 Y112.447 F3840.000 E1.62652
G1 X66.774 Y112.447 F7800.000
G1 X63.880 Y109.553 F3840.000 E1.83681
G1 X65.109 Y109.553 F7800.000
G1 X68.003 Y112.447 F3840.000 E2.04710
G1 X69.232 Y112.447 F7800.000
G1 X66.338 Y109.553 F3840.000 E2.25739
G1 X67.567 Y109.553 F7800.000
G1 X70.461 Y112.447 F3840.000 E2.46768
G1 X71.053 Y113.039 F7800.000
G1 X72.461 Y114.447 F3840.000 E2.56996
G1 X73.689 Y114.447 F7800.000
G1 X68.795 Y109.553 F3840.000 E2.92557
G1 X70.024 Y109.553 F7800.000
G1 X74.918 Y114.447 F3840.000 E3.28120
G1 X76.146 Y114.447 F7800.000
G1 X71.252 Y109.553 F3840.000 E3.63682
G1 X72.481 Y109.553 F7800.000
G1 X77.375 Y114.447 F3840.000 E3.99244
G1 X78.604 Y114.447 F7800.000
G1 X73.710 Y109.553 F3840.000 E4.34806
G1 X74.939 Y109.553 F7800.000
G1 X79.833 Y114.447 F3840.000 E4.70368
G1 X81.061 Y114.447 F7800.000
G1 X76.167 Y109.553 F3840.000 E5.05930
G1 X77.396 Y109.553 F7800.000
G1 X82.290 Y114.447 F3840.000 E5.41493
G1 X82.947 Y113.875 F7800.000
G1 X78.625 Y109.553 F3840.000 E5.72900
G1 X79.854 Y109.553 F7800.000
G1 X82.947 Y112.646 F3840.000 E5.95379
G1 X83.976 Y112.447 F7800.000
G1 X81.082 Y109.553 F3840.000 E6.16408
G1 X82.311 Y109.553 F7800.000
G1 X85.205 Y112.447 F3840.000 E6.37438
G1 X86.433 Y112.447 F7800.000
G1 X83.539 Y109.553 F3840.000 E6.58467
G1 X84.768 Y109.553 F7800.000
G1 X87.662 Y112.447 F3840.000 E6.79496
G1 X88.891 Y112.447 F7800.000
G1 X85.997 Y109.553 F3840.000 E7.00525
G1 X87.226 Y109.553 F7800.000
G1 X90.120 Y112.447 F3840.000 E7.21554
G1 X91.349 Y112.447 F7800.000
G1 X88.455 Y109.553 F3840.000 E7.42584
G1 X89.683 Y109.553 F7800.000
G1 X92.577 Y112.447 F3840.000 E7.63613
G1 X93.806 Y112.447 F7800.000
G1 X90.912 Y109.553 F3840.000 E7.84642
G1 X92.140 Y109.553 F7800.000
G1 X95.034 Y112.447 F3840.000 E8.05671
G1 X95.947 Y112.131 F7800.000
G1 X93.369 Y109.553 F3840.000 E8.24403
G1 X94.598 Y109.553 F7800.000
G1 X95.947 Y110.902 F3840.000 E8.34206
G1 F600.000 E7.84206
G92 E0
G1 X95.034 Y90.447 F7800.000
G1 F600.000 E0.50000
G1 X92.140 Y87.553 F3840.000 E0.71029
G1 X90.912 Y87.553 F7800.000
G1 X93.806 Y90.447 F3840.000 E0.92059
G1 X92.577 Y90.447 F7800.000
G1 X89.683 Y87.553 F3840.000 E1.13088
G1 X88.454 Y87.553 F7800.000
G1 X91.348 Y90.447 F3840.000 E1.34117
G1 X90.120 Y90.447 F7800.000
G1 X87.226 Y87.553 F3840.000 E1.55146
G1 X85.997 Y87.553 F7800.000
G1 X88.891 Y90.447 F3840.000 E1.76175
G1 X87.663 Y90.447 F7800.000
G1 X84.769 Y87.553 F3840.000 E1.97204
G1 X83.540 Y87.553 F7800.000
G1 X86.434 Y90.447 F3840.000 E2.18233
G1 X85.205 Y90.447 F7800.000
G1 X82.311 Y87.553 F3840.000 E2.39262
G1 X81.082 Y87.553 F7800.000
G1 X83.976 Y90.447 F3840.000 E2.60291
G1 X82.947 Y90.647 F7800.000
G1 X79.853 Y87.553 F3840.000 E2.82771
G1 X78.624 Y87.553 F7800.000
G1 X82.947 Y91.876 F3840.000 E3.14178
G1 X82.290 Y92.447 F7800.000
G1 X77.396 Y87.553 F3840.000 E3.49740
G1 X76.168 Y87.553 F7800.000
G1 X81.061 Y92.447 F3840.000 E3.85302
G1 X79.833 Y92.447 F7800.000
G1 X74.939 Y87.553 F3840.000 E4.20864
G1 X73.710 Y87.553 F7800.000
G1 X78.604 Y92.447 F3840.000 E4.56427
G1 X77.375 Y92.447 F7800.000
G1 X72.481 Y87.553 F3840.000 E4.91989
G1 X71.252 Y87.553 F7800.000
G1 X76.146 Y92.447 F3840.000 E5.27551
G1 X74.918 Y92.447 F7800.000
G1 X70.024 Y87.553 F3840.000 E5.63113
G1 X68.795 Y87.553 F7800.000
G1 X73.689 Y92.447 F3840.000 E5.98675
G1 X72.460 Y92.447 F7800.000
G1 X71.053 Y91.040 F3840.000 E6.08903
G1 X70.460 Y90.447 F7800.000
G1 X67.566 Y87.553 F3840.000 E6.29932
G1 X66.338 Y87.553 F7800.000
G1 X69.232 Y90.447 F3840.000 E6.50961
G1 X68.003 Y90.447 F7800.000
G1 X65.109 Y87.553 F3840.000 E6.71990
G1 X63.881 Y87.553 F7800.000
G1 X66.775 Y90.447 F3840.000 E6.93019
G1 X65.546 Y90.447 F7800.000
G1 X62.652 Y87.553 F3840.000 E7.14048
G1 X61.423 Y87.553 F7800.000
G1 X64.317 Y90.447 F3840.000 E7.35077
G1 X63.088 Y90.447 F7800.000
G1 X60.194 Y87.553 F3840.000 E7.56106
G1 X58.965 Y87.553 F7800.000
G1 X61.859 Y90.447 F3840.000 E7.77135
