; generated by Slic3r 0.7.3-dev on 2012-05-07 at 05:52:30

; layer_height = 0.4
; perimeters = 2
; solid_layers = 3
; fill_density = 0.25
; nozzle_diameter = 0.75
; filament_diameter = 3
; extrusion_multiplier = 1
; perimeter_speed = 30
; infill_speed = 30
; travel_speed = 130
; extrusion_width_ratio = 2.3
; scale = 1
; single wall width = 0.92mm

M104 S230 ; set temperature
M92 E380
G92 X0 Y0 Z0  E0.0
G1 Z2.0 F150.0
G1 X-250.0 F2100.0
G1 X-249.0 F300.0
G1 X-251.0 F100.0
G92 X3.0
G1 Y-250.0 F2100.0
G1 Y-249.0 F300.0
G1 Y-251.0 F300.0
G92 Y10.0
G1 Y70.0 F2100.0
G1 Z-250.0 F150.0
G1 Z-249.0 F50.0
G1 Z-251.0 F50.0
G1 Y75.0 E2.0  F1000.0
G1 Y100.0 E2.3  F1000.0
G92 Z0.3
G92 E0.0
M106 S70
M107
M109 S230 ; wait for temperature to be reached
G90 ; use absolute coordinates
G21 ; set units to millimeters
G92 E0 ; reset extrusion distance
M82 ; use absolute distances for extrusion
G1 Z0.400 F7800.000
G1 X72.720 Y87.850
G1 F600.000 E0.50000
G1 X75.730 Y84.860 F1440.000 E0.71212
G1 X76.370 Y84.400 E0.75153
G1 X76.590 Y84.260 E0.76456
G1 X77.050 Y84.020 E0.79050
G1 X77.540 Y83.820 E0.81696
G1 X78.040 Y83.660 E0.84321
G1 X78.550 Y83.550 E0.86930
G1 X79.070 Y83.480 E0.89553
G1 X79.590 Y83.460 E0.92155
G1 X120.920 Y83.480 E2.98792
G1 X121.440 Y83.550 E3.01415
G1 X121.950 Y83.660 E3.04024
G1 X122.690 Y83.910 E3.07929
G1 X123.160 Y84.130 E3.10523
G1 X123.620 Y84.400 E3.13190
G1 X124.050 Y84.690 E3.15783
G1 X124.450 Y85.030 E3.18408
G1 X127.460 Y88.030 E3.39655
G1 X127.950 Y88.640 E3.43567
G1 X128.100 Y88.860 E3.44898
G1 X128.360 Y89.310 E3.47497
G1 X128.480 Y89.550 E3.48838
G1 X128.680 Y90.030 E3.51438
G1 X128.900 Y90.790 E3.55394
G1 X128.990 Y91.300 E3.57983
G1 X129.020 Y91.570 E3.59341
G1 X129.020 Y108.420 E4.43586
G1 X128.950 Y108.940 E4.46209
G1 X128.840 Y109.450 E4.48818
G1 X128.680 Y109.950 E4.51443
G1 X128.480 Y110.440 E4.54089
G1 X128.240 Y110.900 E4.56683
G1 X127.800 Y111.550 E4.60607
G1 X127.640 Y111.760 E4.61927
G1 X124.260 Y115.140 E4.85826
G1 X123.620 Y115.600 E4.89766
G1 X123.400 Y115.740 E4.91070
G1 X122.940 Y115.980 E4.93664
G1 X122.450 Y116.180 E4.96310
G1 X121.950 Y116.340 E4.98935
G1 X121.440 Y116.450 E5.01543
G1 X120.920 Y116.520 E5.04167
G1 X120.400 Y116.540 E5.06768
G1 X79.070 Y116.520 E7.13405
G1 X78.550 Y116.450 E7.16029
G1 X78.290 Y116.400 E7.17353
G1 X77.530 Y116.180 E7.21308
G1 X77.050 Y115.980 E7.23908
G1 X76.360 Y115.600 E7.27846
G1 X76.140 Y115.450 E7.29178
G1 X75.530 Y114.960 E7.33090
G1 X72.530 Y111.950 E7.54337
G1 X72.190 Y111.550 E7.56962
G1 X71.760 Y110.890 E7.60900
G1 X71.630 Y110.660 E7.62221
G1 X71.410 Y110.190 E7.64815
G1 X71.160 Y109.450 E7.68721
G1 X71.050 Y108.940 E7.71329
G1 X70.980 Y108.420 E7.73952
G1 X70.980 Y91.570 E8.58197
G1 X71.050 Y91.050 E8.60820
G1 X71.160 Y90.540 E8.63429
G1 X71.320 Y90.040 E8.66054
G1 X71.520 Y89.550 E8.68700
G1 X71.760 Y89.090 E8.71294
G1 X72.200 Y88.440 E8.75218
G1 X72.360 Y88.230 E8.76538
G1 X72.625 Y87.950 E8.78465
G1 F600.000 E8.28465
G92 E0
G1 X102.813 Y92.452 F7800.000
G1 F600.000 E0.50000
G1 X104.952 Y90.313 F1440.000 E0.65123
G1 X120.048 Y90.313 E1.40598
G1 X122.187 Y92.452 E1.55720
G1 X122.187 Y107.548 E2.31195
G1 X120.048 Y109.687 E2.46318
G1 X104.952 Y109.687 E3.21792
G1 X102.813 Y107.548 E3.36915
G1 X102.813 Y92.590 E4.11700
G1 X101.960 Y92.099 F7800.000
G1 X104.599 Y89.460 F1440.000 E4.30357
G1 X120.401 Y89.460 E5.09365
G1 X123.040 Y92.099 E5.28022
G1 X123.040 Y107.901 E6.07031
G1 X120.401 Y110.540 E6.25688
G1 X104.599 Y110.540 E7.04696
G1 X101.960 Y107.901 E7.23353
G1 X101.960 Y92.237 E8.01672
G1 F600.000 E7.51672
G92 E0
G1 X97.187 Y92.452 F7800.000
G1 F600.000 E0.50000
G1 X97.187 Y107.548 F1440.000 E1.25475
G1 X95.048 Y109.687 E1.40597
G1 X79.952 Y109.687 E2.16072
G1 X77.813 Y107.548 E2.31195
G1 X77.813 Y92.452 E3.06669
G1 X79.952 Y90.313 E3.21792
G1 X95.048 Y90.313 E3.97267
G1 X97.089 Y92.355 E4.11700
G1 X98.040 Y92.099 F7800.000
G1 X98.040 Y107.901 F1440.000 E4.90708
G1 X95.401 Y110.540 E5.09365
G1 X79.599 Y110.540 E5.88374
G1 X76.960 Y107.901 E6.07031
G1 X76.960 Y92.099 E6.86039
G1 X79.599 Y89.460 E7.04696
G1 X95.401 Y89.460 E7.83705
G1 X97.942 Y92.001 E8.01672
G1 X96.594 Y93.991 F7800.000
G1 X93.509 Y90.906 F1920.000 E8.23526
G1 X92.301 Y90.906 F7800.000
G1 X96.594 Y95.199 F1920.000 E8.53939
G1 X96.594 Y96.407 F7800.000
G1 X91.093 Y90.906 F1920.000 E8.92913
G1 X89.884 Y90.906 F7800.000
G1 X96.594 Y97.616 F1920.000 E9.40445
G1 X96.594 Y98.824 F7800.000
G1 X88.676 Y90.906 F1920.000 E9.96537
G1 X87.468 Y90.906 F7800.000
G1 X96.594 Y100.032 F1920.000 E10.61189
G1 X96.594 Y101.240 F7800.000
G1 X86.260 Y90.906 F1920.000 E11.34399
G1 X85.051 Y90.906 F7800.000
G1 X96.594 Y102.449 F1920.000 E12.16170
G1 X96.594 Y103.657 F7800.000
G1 X83.843 Y90.906 F1920.000 E13.06500
G1 X82.635 Y90.906 F7800.000
G1 X96.594 Y104.865 F1920.000 E14.05389
G1 X96.594 Y106.073 F7800.000
G1 X81.427 Y90.906 F1920.000 E15.12838
G1 X80.219 Y90.906 F7800.000
G1 X96.594 Y107.281 F1920.000 E16.28846
G1 X96.076 Y107.972 F7800.000
G1 X79.528 Y91.424 F1920.000 E17.46082
G1 X78.924 Y92.028 F7800.000
G1 X95.472 Y108.576 F1920.000 E18.63318
G1 X94.781 Y109.094 F7800.000
G1 X78.406 Y92.719 F1920.000 E19.79327
G1 X78.406 Y93.927 F7800.000
G1 X93.573 Y109.094 F1920.000 E20.86776
G1 X92.365 Y109.094 F7800.000
G1 X78.406 Y95.135 F1920.000 E21.85665
G1 X78.406 Y96.343 F7800.000
G1 X91.157 Y109.094 F1920.000 E22.75995
G1 X89.949 Y109.094 F7800.000
G1 X78.406 Y97.551 F1920.000 E23.57765
G1 X78.406 Y98.760 F7800.000
G1 X88.740 Y109.094 F1920.000 E24.30976
G1 X87.532 Y109.094 F7800.000
G1 X78.406 Y99.968 F1920.000 E24.95627
G1 X78.406 Y101.176 F7800.000
G1 X86.324 Y109.094 F1920.000 E25.51719
G1 X85.116 Y109.094 F7800.000
G1 X78.406 Y102.384 F1920.000 E25.99252
G1 X78.406 Y103.592 F7800.000
G1 X83.908 Y109.094 F1920.000 E26.38225
G1 X82.699 Y109.094 F7800.000
G1 X78.406 Y104.801 F1920.000 E26.68638
G1 X78.406 Y106.009 F7800.000
G1 X81.491 Y109.094 F1920.000 E26.90492
G1 F600.000 E26.40492
G92 E0
G1 X103.406 Y106.009 F7800.000
G1 F600.000 E0.50000
G1 X106.491 Y109.094 F1920.000 E0.71854
G1 X107.699 Y109.094 F7800.000
G1 X103.406 Y104.801 F1920.000 E1.02268
G1 X103.406 Y103.593 F7800.000
G1 X108.907 Y109.094 F1920.000 E1.41241
G1 X110.115 Y109.094 F7800.000
G1 X103.406 Y102.385 F1920.000 E1.88774
G1 X103.406 Y101.176 F7800.000
G1 X111.324 Y109.094 F1920.000 E2.44866
G1 X112.532 Y109.094 F7800.000
G1 X103.406 Y99.968 F1920.000 E3.09517
G1 X103.406 Y98.760 F7800.000
G1 X113.740 Y109.094 F1920.000 E3.82728
G1 X114.949 Y109.094 F7800.000
G1 X103.406 Y97.551 F1920.000 E4.64499
G1 X103.406 Y96.343 F7800.000
G1 X116.157 Y109.094 F1920.000 E5.54829
G1 X117.365 Y109.094 F7800.000
G1 X103.406 Y95.135 F1920.000 E6.53718
G1 X103.406 Y93.927 F7800.000
G1 X118.573 Y109.094 F1920.000 E7.61166
G1 X119.781 Y109.094 F7800.000
G1 X103.406 Y92.719 F1920.000 E8.77175
G1 X103.923 Y92.028 F7800.000
G1 X120.472 Y108.577 F1920.000 E9.94411
G1 X121.076 Y107.972 F7800.000
G1 X104.528 Y91.424 F1920.000 E11.11647
G1 X105.218 Y90.906 F7800.000
G1 X121.594 Y107.282 F1920.000 E12.27655
G1 X121.594 Y106.073 F7800.000
G1 X106.427 Y90.906 F1920.000 E13.35104
G1 X107.635 Y90.906 F7800.000
G1 X121.594 Y104.865 F1920.000 E14.33994
G1 X121.594 Y103.657 F7800.000
G1 X108.843 Y90.906 F1920.000 E15.24324
G1 X110.052 Y90.906 F7800.000
G1 X121.594 Y102.448 F1920.000 E16.06094
G1 X121.594 Y101.240 F7800.000
G1 X111.260 Y90.906 F1920.000 E16.79305
G1 X112.468 Y90.906 F7800.000
G1 X121.594 Y100.032 F1920.000 E17.43957
G1 X121.594 Y98.824 F7800.000
G1 X113.676 Y90.906 F1920.000 E18.00049
G1 X114.884 Y90.906 F7800.000
G1 X121.594 Y97.616 F1920.000 E18.47581
G1 X121.594 Y96.408 F7800.000
G1 X116.092 Y90.906 F1920.000 E18.86555
G1 X117.301 Y90.906 F7800.000
G1 X121.594 Y95.199 F1920.000 E19.16968
G1 X121.594 Y93.991 F7800.000
G1 X118.509 Y90.906 F1920.000 E19.38822
G1 F600.000 E18.88822
G92 E0
G1 Z0.800 F7800.000
G1 X120.048 Y90.313
G1 F600.000 E0.50000
G1 X122.187 Y92.452 F1800.000 E0.65123
G1 X122.187 Y107.548 E1.40597
G1 X120.048 Y109.687 E1.55720
G1 X104.952 Y109.687 E2.31195
G1 X102.813 Y107.548 E2.46318
G1 X102.813 Y92.452 E3.21792
G1 X104.952 Y90.313 E3.36915
G1 X119.910 Y90.313 E4.11700
G1 X120.401 Y89.460 F7800.000
G1 X123.040 Y92.099 F1800.000 E4.30357
G1 X123.040 Y107.901 E5.09365
G1 X120.401 Y110.540 E5.28022
G1 X104.599 Y110.540 E6.07031
G1 X101.960 Y107.901 E6.25688
G1 X101.960 Y92.099 E7.04696
G1 X104.599 Y89.460 E7.23353
G1 X120.263 Y89.460 E8.01672
G1 F600.000 E7.51672
G92 E0
G1 X97.187 Y92.452 F7800.000
G1 F600.000 E0.50000
G1 X97.187 Y107.548 F1800.000 E1.25475
G1 X95.048 Y109.687 E1.40597
G1 X79.952 Y109.687 E2.16072
G1 X77.813 Y107.548 E2.31195
G1 X77.813 Y92.452 E3.06669
G1 X79.952 Y90.313 E3.21792
G1 X95.048 Y90.313 E3.97267
G1 X97.089 Y92.355 E4.11700
G1 X98.040 Y92.099 F7800.000
G1 X98.040 Y107.901 F1800.000 E4.90708
G1 X95.401 Y110.540 E5.09365
G1 X79.599 Y110.540 E5.88374
G1 X76.960 Y107.901 E6.07031
G1 X76.960 Y92.099 E6.86039
G1 X79.599 Y89.460 E7.04696
G1 X95.401 Y89.460 E7.83705
G1 X97.942 Y92.001 E8.01672
G1 X96.594 Y92.719 F7800.000
G1 X80.219 Y109.094 F2400.000 E9.17680
G1 X79.528 Y108.576 F7800.000
G1 X96.076 Y92.027 F2400.000 E10.34918
G1 X95.472 Y91.423 F7800.000
G1 X78.924 Y107.972 F2400.000 E11.52156
G1 X78.406 Y107.282 F7800.000
G1 X94.782 Y90.906 F2400.000 E12.68164
G1 X93.573 Y90.906 F7800.000
G1 X78.406 Y106.073 F2400.000 E13.75615
G1 X78.406 Y104.865 F7800.000
G1 X92.365 Y90.906 F2400.000 E14.74502
G1 X91.157 Y90.906 F7800.000
G1 X78.406 Y103.657 F2400.000 E15.64832
G1 X78.406 Y102.448 F7800.000
G1 X89.948 Y90.906 F2400.000 E16.46604
G1 X88.740 Y90.906 F7800.000
G1 X78.406 Y101.240 F2400.000 E17.19813
G1 X78.406 Y100.032 F7800.000
G1 X87.532 Y90.906 F2400.000 E17.84465
G1 X86.324 Y90.906 F7800.000
G1 X78.406 Y98.824 F2400.000 E18.40558
G1 X78.406 Y97.616 F7800.000
G1 X85.116 Y90.906 F2400.000 E18.88090
G1 X83.908 Y90.906 F7800.000
G1 X78.406 Y96.408 F2400.000 E19.27063
G1 X78.406 Y95.199 F7800.000
G1 X82.699 Y90.906 F2400.000 E19.57476
G1 X81.491 Y90.906 F7800.000
G1 X78.406 Y93.991 F2400.000 E19.79331
G1 F600.000 E19.29331
G92 E0
G1 X81.427 Y109.094 F7800.000
G1 F600.000 E0.50000
G1 X96.594 Y93.926 F2400.000 E1.57451
G1 X96.593 Y95.135 F7800.000
G1 X82.635 Y109.093 F2400.000 E2.56338
G1 X83.843 Y109.094 F7800.000
G1 X96.594 Y96.343 F2400.000 E3.46668
G1 X96.594 Y97.551 F7800.000
G1 X85.051 Y109.094 F2400.000 E4.28440
G1 X86.260 Y109.094 F7800.000
G1 X96.594 Y98.760 F2400.000 E5.01649
G1 X96.594 Y99.968 F7800.000
G1 X87.468 Y109.094 F2400.000 E5.66301
G1 X88.676 Y109.094 F7800.000
G1 X96.594 Y101.176 F2400.000 E6.22393
G1 X96.594 Y102.385 F7800.000
G1 X89.885 Y109.094 F2400.000 E6.69925
G1 X91.093 Y109.094 F7800.000
G1 X96.594 Y103.593 F2400.000 E7.08898
G1 X96.594 Y104.801 F7800.000
G1 X92.301 Y109.094 F2400.000 E7.39311
G1 X93.509 Y109.094 F7800.000
G1 X96.594 Y106.009 F2400.000 E7.61166
G1 X103.406 Y106.073 F7800.000
G1 X118.573 Y90.906 F2400.000 E8.68613
G1 X117.365 Y90.906 F7800.000
G1 X103.406 Y104.865 F2400.000 E9.67504
G1 X103.406 Y103.656 F7800.000
G1 X116.157 Y90.906 F2400.000 E10.57834
G1 X114.948 Y90.906 F7800.000
G1 X103.406 Y102.448 F2400.000 E11.39603
G1 X103.406 Y101.241 F7800.000
G1 X113.741 Y90.906 F2400.000 E12.12815
G1 X112.532 Y90.906 F7800.000
G1 X103.406 Y100.032 F2400.000 E12.77467
G1 X103.406 Y98.824 F7800.000
G1 X111.324 Y90.906 F2400.000 E13.33558
G1 X110.116 Y90.906 F7800.000
G1 X103.406 Y97.616 F2400.000 E13.81092
G1 X103.406 Y96.407 F7800.000
G1 X108.907 Y90.906 F2400.000 E14.20065
G1 X107.699 Y90.906 F7800.000
G1 X103.406 Y95.199 F2400.000 E14.50478
G1 X103.406 Y93.991 F7800.000
G1 X106.491 Y90.906 F2400.000 E14.72334
G1 F600.000 E14.22334
G92 E0
G1 X119.781 Y90.906 F7800.000
G1 F600.000 E0.50000
G1 X103.406 Y107.281 F2400.000 E1.66008
G1 X103.924 Y107.972 F7800.000
G1 X120.472 Y91.424 F2400.000 E2.83244
G1 X121.076 Y92.028 F7800.000
G1 X104.528 Y108.576 F2400.000 E4.00480
G1 X105.218 Y109.093 F7800.000
G1 X121.594 Y92.718 F2400.000 E5.16488
G1 X121.594 Y93.927 F7800.000
G1 X106.427 Y109.094 F2400.000 E6.23935
G1 X107.635 Y109.094 F7800.000
G1 X121.594 Y95.135 F2400.000 E7.22826
G1 X121.594 Y96.343 F7800.000
G1 X108.843 Y109.093 F2400.000 E8.13156
G1 X110.052 Y109.094 F7800.000
G1 X121.594 Y97.552 F2400.000 E8.94925
G1 X121.594 Y98.760 F7800.000
G1 X111.259 Y109.094 F2400.000 E9.68138
G1 X112.468 Y109.094 F7800.000
G1 X121.594 Y99.968 F2400.000 E10.32789
G1 X121.594 Y101.176 F7800.000
G1 X113.676 Y109.094 F2400.000 E10.88880
G1 X114.884 Y109.094 F7800.000
G1 X121.594 Y102.384 F2400.000 E11.36414
G1 X121.594 Y103.593 F7800.000
G1 X116.093 Y109.094 F2400.000 E11.75388
G1 X117.301 Y109.094 F7800.000
G1 X121.594 Y104.801 F2400.000 E12.05800
G1 X121.594 Y106.009 F7800.000
G1 X118.509 Y109.094 F2400.000 E12.27656
G1 F600.000 E11.77656
G92 E0
G1 Z1.200 F7800.000
G1 X120.048 Y109.687
G1 F600.000 E0.50000
G1 X104.952 Y109.687 F1800.000 E1.25475
G1 X102.813 Y107.548 E1.40597
G1 X102.813 Y92.452 E2.16072
G1 X104.952 Y90.313 E2.31195
G1 X120.048 Y90.313 E3.06670
G1 X122.187 Y92.452 E3.21792
G1 X122.187 Y107.548 E3.97267
G1 X120.146 Y109.589 E4.11700
G1 X120.401 Y110.540 F7800.000
G1 X104.599 Y110.540 F1800.000 E4.90709
G1 X101.960 Y107.901 E5.09365
G1 X101.960 Y92.099 E5.88374
G1 X104.599 Y89.460 E6.07031
G1 X120.401 Y89.460 E6.86039
G1 X123.040 Y92.099 E7.04696
G1 X123.040 Y107.901 E7.83705
G1 X120.499 Y110.442 E8.01672
G1 F600.000 E7.51672
G92 E0
G1 X97.187 Y107.548 F7800.000
G1 F600.000 E0.50000
G1 X95.048 Y109.687 F1800.000 E0.65123
G1 X79.952 Y109.687 E1.40597
G1 X77.813 Y107.548 E1.55720
G1 X77.813 Y92.452 E2.31195
G1 X79.952 Y90.313 E2.46318
G1 X95.048 Y90.313 E3.21792
G1 X97.187 Y92.452 E3.36915
G1 X97.187 Y107.410 E4.11700
G1 X98.040 Y107.901 F7800.000
G1 X95.401 Y110.540 F1800.000 E4.30357
G1 X79.599 Y110.540 E5.09365
G1 X76.960 Y107.901 E5.28022
G1 X76.960 Y92.099 E6.07031
G1 X79.599 Y89.460 E6.25688
G1 X95.401 Y89.460 E7.04696
G1 X98.040 Y92.099 E7.23353
G1 X98.040 Y107.763 E8.01672
G1 X96.594 Y107.281 F7800.000
G1 X80.219 Y90.906 F2400.000 E9.17680
G1 X79.528 Y91.424 F7800.000
G1 X96.076 Y107.972 F2400.000 E10.34916
G1 X95.472 Y108.576 F7800.000
G1 X78.924 Y92.028 F2400.000 E11.52152
G1 X78.406 Y92.719 F7800.000
G1 X94.781 Y109.094 F2400.000 E12.68160
G1 X93.573 Y109.094 F7800.000
G1 X78.406 Y93.927 F2400.000 E13.75609
G1 X78.406 Y95.135 F7800.000
G1 X92.365 Y109.094 F2400.000 E14.74498
G1 X91.157 Y109.094 F7800.000
G1 X78.406 Y96.343 F2400.000 E15.64828
G1 X78.406 Y97.551 F7800.000
G1 X89.949 Y109.094 F2400.000 E16.46598
G1 X88.740 Y109.094 F7800.000
G1 X78.406 Y98.760 F2400.000 E17.19809
G1 X78.406 Y99.968 F7800.000
G1 X87.532 Y109.094 F2400.000 E17.84461
G1 X86.324 Y109.094 F7800.000
G1 X78.406 Y101.176 F2400.000 E18.40553
G1 X78.406 Y102.384 F7800.000
G1 X85.116 Y109.094 F2400.000 E18.88085
G1 X83.908 Y109.094 F7800.000
G1 X78.406 Y103.592 F2400.000 E19.27058
G1 X78.406 Y104.801 F7800.000
G1 X82.699 Y109.094 F2400.000 E19.57471
G1 X81.491 Y109.094 F7800.000
G1 X78.406 Y106.009 F2400.000 E19.79326
G1 F600.000 E19.29326
G92 E0
G1 X81.427 Y90.906 F7800.000
G1 F600.000 E0.50000
G1 X96.594 Y106.073 F2400.000 E1.57449
G1 X96.594 Y104.865 F7800.000
G1 X82.635 Y90.906 F2400.000 E2.56338
G1 X83.843 Y90.906 F7800.000
G1 X96.594 Y103.657 F2400.000 E3.46668
G1 X96.594 Y102.449 F7800.000
G1 X85.051 Y90.906 F2400.000 E4.28439
G1 X86.260 Y90.906 F7800.000
G1 X96.594 Y101.240 F2400.000 E5.01649
G1 X96.594 Y100.032 F7800.000
G1 X87.468 Y90.906 F2400.000 E5.66301
G1 X88.676 Y90.906 F7800.000
G1 X96.594 Y98.824 F2400.000 E6.22393
G1 X96.594 Y97.616 F7800.000
G1 X89.884 Y90.906 F2400.000 E6.69925
G1 X91.093 Y90.906 F7800.000
G1 X96.594 Y96.407 F2400.000 E7.08899
G1 X96.594 Y95.199 F7800.000
G1 X92.301 Y90.906 F2400.000 E7.39312
G1 X93.509 Y90.906 F7800.000
G1 X96.594 Y93.991 F2400.000 E7.61167
G1 X103.406 Y93.927 F7800.000
G1 X118.573 Y109.094 F2400.000 E8.68615
G1 X119.781 Y109.094 F7800.000
G1 X103.406 Y92.719 F2400.000 E9.84624
G1 X103.923 Y92.028 F7800.000
G1 X120.472 Y108.577 F2400.000 E11.01860
G1 X121.076 Y107.972 F7800.000
