; generated by Slic3r 0.7.3-dev on 2012-05-20 at 00:45:22

; layer_height = 0.2
; perimeters = 3
; solid_layers = 3
; fill_density = 0.3
; nozzle_diameter = 0.35
; filament_diameter = 3
; extrusion_multiplier = 1
; perimeter_speed = 80
; infill_speed = 80
; travel_speed = 360
; extrusion_width_ratio = 2
; scale = 1
; single wall width = 0.40mm

M92 E860
M104 S190
M140 S60
G92 X0 Y0 Z0 E0
G0 Y-210 F21600
G0 X-200 F21600
G0 Z-100 F150
G28
M190 S60
G0 X0 Y210 F21600
M109 S185
G0 Z1 F100
G0 X100 Y105 F21600
G90 ; use absolute coordinates
G21 ; set units to millimeters
G92 E0 ; reset extrusion distance
M82 ; use absolute distances for extrusion
G1 Z0.200 F21600.000 ; move to next layer (0)
G1 X66.190 Y79.519 ; move to first skirt point
G1 F6000.000 E2.50000 ; compensate retraction
G1 X67.520 Y78.239 F2400.000 E2.52033 ; skirt
G1 X68.400 Y77.529 E2.53278 ; skirt
G1 X69.910 Y76.509 E2.55285 ; skirt
G1 X70.530 Y76.149 E2.56075 ; skirt
G1 X72.160 Y75.349 E2.58075 ; skirt
G1 X73.220 Y74.939 E2.59327 ; skirt
G1 X75.010 Y74.429 E2.61377 ; skirt
G1 X75.680 Y74.279 E2.62133 ; skirt
G1 X76.800 Y74.099 E2.63382 ; skirt
G1 X78.700 Y73.979 E2.65479 ; skirt
G1 X125.630 Y77.049 E3.17279 ; skirt
G1 X126.330 Y77.159 E3.18059 ; skirt
G1 X128.700 Y77.749 E3.20749 ; skirt
G1 X129.010 Y77.849 E3.21108 ; skirt
G1 X129.620 Y78.099 E3.21834 ; skirt
G1 X131.860 Y79.289 E3.24628 ; skirt
G1 X132.410 Y79.639 E3.25346 ; skirt
G1 X134.550 Y81.509 E3.28476 ; skirt
G1 X135.000 Y81.989 E3.29201 ; skirt
G1 X135.200 Y82.239 E3.29553 ; skirt
G1 X136.640 Y84.329 E3.32349 ; skirt
G1 X136.810 Y84.609 E3.32709 ; skirt
G1 X137.100 Y85.189 E3.33424 ; skirt
G1 X138.000 Y87.569 E3.36226 ; skirt
G1 X138.100 Y87.889 E3.36595 ; skirt
G1 X138.240 Y88.539 E3.37328 ; skirt
G1 X138.500 Y90.749 E3.39779 ; skirt
G1 X138.550 Y91.539 E3.40651 ; skirt
G1 X138.550 Y111.509 E3.62646 ; skirt
G1 X138.500 Y112.299 E3.63518 ; skirt
G1 X138.240 Y114.509 E3.65968 ; skirt
G1 X138.100 Y115.159 E3.66701 ; skirt
G1 X137.100 Y117.859 E3.69872 ; skirt
G1 X136.810 Y118.439 E3.70586 ; skirt
G1 X135.200 Y120.809 E3.73742 ; skirt
G1 X135.000 Y121.059 E3.74094 ; skirt
G1 X134.550 Y121.539 E3.74819 ; skirt
G1 X132.410 Y123.409 E3.77949 ; skirt
G1 X131.580 Y123.919 E3.79022 ; skirt
G1 X129.620 Y124.949 E3.81461 ; skirt
G1 X129.010 Y125.199 E3.82187 ; skirt
G1 X128.700 Y125.299 E3.82546 ; skirt
G1 X126.240 Y125.899 E3.85335 ; skirt
G1 X125.920 Y125.959 E3.85693 ; skirt
G1 X125.590 Y125.999 E3.86059 ; skirt
G1 X124.940 Y126.029 E3.86776 ; skirt
G1 X102.720 Y126.019 E4.11249 ; skirt
G1 X102.400 Y125.999 E4.11602 ; skirt
G1 X102.070 Y125.959 E4.11969 ; skirt
G1 X99.290 Y125.299 E4.15116 ; skirt
G1 X98.980 Y125.199 E4.15474 ; skirt
G1 X98.370 Y124.949 E4.16201 ; skirt
G1 X95.850 Y123.589 E4.19354 ; skirt
G1 X68.400 Y105.519 E4.55551 ; skirt
G1 X67.520 Y104.809 E4.56796 ; skirt
G1 X66.190 Y103.529 E4.58829 ; skirt
G1 X65.710 Y102.999 E4.59617 ; skirt
G1 X65.000 Y102.119 E4.60862 ; skirt
G1 X63.980 Y100.609 E4.62869 ; skirt
G1 X63.620 Y99.989 E4.63659 ; skirt
G1 X62.820 Y98.359 E4.65659 ; skirt
G1 X62.410 Y97.299 E4.66911 ; skirt
G1 X61.900 Y95.509 E4.68961 ; skirt
G1 X61.750 Y94.839 E4.69717 ; skirt
G1 X61.570 Y93.719 E4.70966 ; skirt
G1 X61.450 Y91.829 E4.73052 ; skirt
G1 X61.500 Y90.099 E4.74958 ; skirt
G1 X61.570 Y89.329 E4.75810 ; skirt
G1 X61.750 Y88.209 E4.77059 ; skirt
G1 X62.190 Y86.449 E4.79057 ; skirt
G1 X62.410 Y85.749 E4.79866 ; skirt
G1 X62.820 Y84.689 E4.81117 ; skirt
G1 X63.620 Y83.059 E4.83117 ; skirt
G1 X64.600 Y81.489 E4.85156 ; skirt
G1 X65.000 Y80.929 E4.85914 ; skirt
G1 X65.710 Y80.049 E4.87159 ; skirt
G1 X66.150 Y79.564 E4.87880 ; skirt
G1 X66.460 Y79.789 F21600.000 ; move to first skirt point
G1 X67.760 Y78.529 F2400.000 E4.89874 ; skirt
G1 X68.640 Y77.819 E4.91120 ; skirt
G1 X70.110 Y76.829 E4.93072 ; skirt
G1 X71.700 Y75.979 E4.95058 ; skirt
G1 X72.300 Y75.709 E4.95782 ; skirt
G1 X74.020 Y75.079 E4.97800 ; skirt
G1 X75.110 Y74.789 E4.99042 ; skirt
G1 X76.860 Y74.479 E5.01000 ; skirt
G1 X78.720 Y74.359 E5.03052 ; skirt
G1 X125.590 Y77.429 E5.54786 ; skirt
G1 X126.030 Y77.489 E5.55275 ; skirt
G1 X128.590 Y78.119 E5.58179 ; skirt
G1 X128.880 Y78.209 E5.58513 ; skirt
G1 X129.170 Y78.319 E5.58855 ; skirt
G1 X129.460 Y78.449 E5.59205 ; skirt
G1 X131.670 Y79.609 E5.61954 ; skirt
G1 X132.180 Y79.949 E5.62629 ; skirt
G1 X132.660 Y80.329 E5.63303 ; skirt
G1 X134.290 Y81.779 E5.65706 ; skirt
G1 X134.710 Y82.239 E5.66392 ; skirt
G1 X136.320 Y84.529 E5.69476 ; skirt
G1 X136.620 Y85.069 E5.70156 ; skirt
G1 X136.750 Y85.349 E5.70496 ; skirt
G1 X137.640 Y87.689 E5.73253 ; skirt
G1 X137.730 Y87.989 E5.73598 ; skirt
G1 X137.910 Y88.919 E5.74642 ; skirt
G1 X138.130 Y90.799 E5.76726 ; skirt
G1 X138.170 Y91.539 E5.77543 ; skirt
G1 X138.170 Y111.509 E5.99538 ; skirt
G1 X138.130 Y112.249 E6.00354 ; skirt
G1 X137.860 Y114.439 E6.02784 ; skirt
G1 X137.730 Y115.059 E6.03482 ; skirt
G1 X137.640 Y115.359 E6.03827 ; skirt
G1 X136.750 Y117.699 E6.06584 ; skirt
G1 X136.620 Y117.979 E6.06925 ; skirt
G1 X136.320 Y118.519 E6.07605 ; skirt
G1 X134.900 Y120.569 E6.10352 ; skirt
G1 X134.500 Y121.049 E6.11040 ; skirt
G1 X134.290 Y121.269 E6.11375 ; skirt
G1 X132.430 Y122.909 E6.14106 ; skirt
G1 X132.180 Y123.099 E6.14452 ; skirt
G1 X131.670 Y123.439 E6.15127 ; skirt
G1 X129.460 Y124.599 E6.17876 ; skirt
G1 X129.170 Y124.729 E6.18226 ; skirt
G1 X128.880 Y124.839 E6.18568 ; skirt
G1 X126.170 Y125.529 E6.21648 ; skirt
G1 X125.560 Y125.619 E6.22327 ; skirt
G1 X124.940 Y125.649 E6.23010 ; skirt
G1 X102.740 Y125.639 E6.47462 ; skirt
G1 X102.430 Y125.619 E6.47804 ; skirt
G1 X101.820 Y125.529 E6.48483 ; skirt
G1 X99.400 Y124.929 E6.51229 ; skirt
G1 X99.110 Y124.839 E6.51564 ; skirt
G1 X98.820 Y124.729 E6.51905 ; skirt
G1 X98.530 Y124.599 E6.52255 ; skirt
G1 X96.060 Y123.269 E6.55345 ; skirt
G1 X68.640 Y105.229 E6.91496 ; skirt
G1 X67.760 Y104.519 E6.92741 ; skirt
G1 X66.460 Y103.259 E6.94735 ; skirt
G1 X66.000 Y102.759 E6.95483 ; skirt
G1 X65.290 Y101.879 E6.96729 ; skirt
G1 X64.300 Y100.409 E6.98681 ; skirt
G1 X63.450 Y98.819 E7.00667 ; skirt
G1 X63.180 Y98.219 E7.01391 ; skirt
G1 X62.550 Y96.499 E7.03409 ; skirt
G1 X62.260 Y95.409 E7.04651 ; skirt
G1 X61.950 Y93.659 E7.06608 ; skirt
G1 X61.830 Y91.809 E7.08650 ; skirt
G1 X61.880 Y90.119 E7.10513 ; skirt
G1 X61.950 Y89.389 E7.11320 ; skirt
G1 X62.260 Y87.639 E7.13278 ; skirt
G1 X62.550 Y86.549 E7.14520 ; skirt
G1 X63.180 Y84.829 E7.16538 ; skirt
G1 X63.960 Y83.229 E7.18498 ; skirt
G1 X64.300 Y82.639 E7.19248 ; skirt
G1 X65.290 Y81.169 E7.21200 ; skirt
G1 X66.000 Y80.289 E7.22445 ; skirt
G1 X66.419 Y79.833 E7.23128 ; skirt
G1 X66.730 Y80.059 F21600.000 ; move to first skirt point
G1 X68.000 Y78.829 F2400.000 E7.25075 ; skirt
G1 X68.880 Y78.119 E7.26320 ; skirt
G1 X70.320 Y77.149 E7.28233 ; skirt
G1 X70.870 Y76.819 E7.28939 ; skirt
G1 X71.870 Y76.309 E7.30175 ; skirt
G1 X73.500 Y75.649 E7.32112 ; skirt
G1 X75.210 Y75.159 E7.34072 ; skirt
G1 X76.920 Y74.859 E7.35984 ; skirt
G1 X77.600 Y74.789 E7.36737 ; skirt
G1 X78.730 Y74.739 E7.37982 ; skirt
G1 X125.550 Y77.809 E7.89661 ; skirt
G1 X125.970 Y77.869 E7.90128 ; skirt
G1 X128.480 Y78.479 E7.92973 ; skirt
G1 X128.760 Y78.569 E7.93297 ; skirt
G1 X129.300 Y78.789 E7.93940 ; skirt
G1 X131.480 Y79.939 E7.96654 ; skirt
G1 X131.720 Y80.089 E7.96966 ; skirt
G1 X132.190 Y80.429 E7.97605 ; skirt
G1 X134.020 Y82.059 E8.00304 ; skirt
G1 X134.420 Y82.479 E8.00943 ; skirt
G1 X136.000 Y84.729 E8.03971 ; skirt
G1 X136.280 Y85.239 E8.04612 ; skirt
G1 X137.280 Y87.809 E8.07649 ; skirt
G1 X137.430 Y88.379 E8.08298 ; skirt
G1 X137.490 Y88.669 E8.08625 ; skirt
G1 X137.750 Y90.839 E8.11032 ; skirt
G1 X137.790 Y91.539 E8.11804 ; skirt
G1 X137.790 Y111.509 E8.33799 ; skirt
G1 X137.750 Y112.209 E8.34571 ; skirt
G1 X137.490 Y114.379 E8.36978 ; skirt
G1 X137.360 Y114.959 E8.37633 ; skirt
G1 X137.280 Y115.239 E8.37954 ; skirt
G1 X136.400 Y117.549 E8.40676 ; skirt
G1 X136.280 Y117.809 E8.40992 ; skirt
G1 X136.000 Y118.319 E8.41633 ; skirt
G1 X134.600 Y120.339 E8.44340 ; skirt
G1 X134.420 Y120.569 E8.44661 ; skirt
G1 X133.810 Y121.189 E8.45619 ; skirt
G1 X132.190 Y122.619 E8.47999 ; skirt
G1 X131.720 Y122.959 E8.48638 ; skirt
G1 X129.300 Y124.259 E8.51664 ; skirt
G1 X128.760 Y124.479 E8.52306 ; skirt
G1 X128.480 Y124.569 E8.52630 ; skirt
G1 X126.100 Y125.159 E8.55331 ; skirt
G1 X125.810 Y125.209 E8.55655 ; skirt
G1 X124.940 Y125.269 E8.56615 ; skirt
G1 X102.760 Y125.259 E8.81045 ; skirt
G1 X102.180 Y125.209 E8.81686 ; skirt
G1 X101.890 Y125.159 E8.82010 ; skirt
G1 X99.510 Y124.569 E8.84711 ; skirt
G1 X99.230 Y124.479 E8.85034 ; skirt
G1 X98.690 Y124.259 E8.85677 ; skirt
G1 X96.760 Y123.249 E8.88076 ; skirt
G1 X68.880 Y104.929 E9.24819 ; skirt
G1 X68.000 Y104.219 E9.26065 ; skirt
G1 X66.730 Y102.989 E9.28012 ; skirt
G1 X66.300 Y102.519 E9.28714 ; skirt
G1 X65.590 Y101.639 E9.29959 ; skirt
G1 X64.620 Y100.199 E9.31871 ; skirt
G1 X64.290 Y99.649 E9.32578 ; skirt
G1 X63.780 Y98.649 E9.33814 ; skirt
G1 X63.120 Y97.019 E9.35751 ; skirt
G1 X62.630 Y95.309 E9.37710 ; skirt
G1 X62.330 Y93.599 E9.39622 ; skirt
G1 X62.260 Y92.919 E9.40375 ; skirt
G1 X62.210 Y91.259 E9.42204 ; skirt
G1 X62.260 Y90.129 E9.43450 ; skirt
G1 X62.330 Y89.449 E9.44203 ; skirt
G1 X62.630 Y87.739 E9.46115 ; skirt
G1 X63.120 Y86.029 E9.48075 ; skirt
G1 X63.780 Y84.399 E9.50011 ; skirt
G1 X64.290 Y83.399 E9.51248 ; skirt
G1 X65.240 Y81.899 E9.53203 ; skirt
G1 X65.590 Y81.409 E9.53867 ; skirt
G1 X66.300 Y80.529 E9.55112 ; skirt
G1 X66.689 Y80.103 E9.55748 ; skirt
G1 F6000.000 E7.55748 ; retract
G1 Z0.400 F21600.000 ; lift plate during retraction
G92 E0
G1 X98.433 Y90.346 ; move to first perimeter point
G1 Z0.200 ; restore layer Z
G1 F6000.000 E2.50000 ; compensate retraction
G1 X99.396 Y88.184 F2400.000 E2.52606 ; perimeter
G1 X101.154 Y86.600 E2.55213 ; perimeter
G1 X103.405 Y85.869 E2.57820 ; perimeter
G1 X105.759 Y86.116 E2.60426 ; perimeter
G1 X107.808 Y87.300 E2.63033 ; perimeter
G1 X109.199 Y89.214 E2.65639 ; perimeter
G1 X109.691 Y91.529 E2.68246 ; perimeter
G1 X109.199 Y93.844 E2.70852 ; perimeter
G1 X107.808 Y95.759 E2.73459 ; perimeter
G1 X105.759 Y96.942 E2.76065 ; perimeter
G1 X103.405 Y97.189 E2.78672 ; perimeter
G1 X101.154 Y96.458 E2.81278 ; perimeter
G1 X99.396 Y94.874 E2.83885 ; perimeter
G1 X98.433 Y92.712 E2.86491 ; perimeter
G1 X98.433 Y90.406 E2.89032 ; perimeter
G1 X98.814 Y90.427 F21600.000 ; move to first perimeter point
G1 X99.710 Y88.413 F2400.000 E2.91460 ; perimeter
G1 X101.349 Y86.937 E2.93889 ; perimeter
G1 X103.446 Y86.256 E2.96317 ; perimeter
G1 X105.639 Y86.486 E2.98746 ; perimeter
G1 X107.548 Y87.589 E3.01174 ; perimeter
G1 X108.844 Y89.373 E3.03603 ; perimeter
G1 X109.302 Y91.529 E3.06031 ; perimeter
G1 X108.844 Y93.686 E3.08459 ; perimeter
G1 X107.548 Y95.470 E3.10888 ; perimeter
G1 X105.639 Y96.572 E3.13316 ; perimeter
G1 X103.446 Y96.802 E3.15745 ; perimeter
G1 X101.349 Y96.121 E3.18173 ; perimeter
G1 X99.710 Y94.646 E3.20602 ; perimeter
G1 X98.814 Y92.632 E3.23030 ; perimeter
G1 X98.814 Y90.487 E3.25392 ; perimeter
G1 X99.194 Y90.508 F21600.000 ; move to first perimeter point
G1 X100.025 Y88.641 F2400.000 E3.27643 ; perimeter
G1 X101.543 Y87.274 E3.29893 ; perimeter
G1 X103.486 Y86.643 E3.32143 ; perimeter
G1 X105.518 Y86.856 E3.34394 ; perimeter
G1 X107.288 Y87.878 E3.36644 ; perimeter
G1 X108.489 Y89.531 E3.38895 ; perimeter
G1 X108.913 Y91.529 E3.41145 ; perimeter
G1 X108.489 Y93.528 E3.43395 ; perimeter
G1 X107.288 Y95.181 E3.45646 ; perimeter
G1 X105.518 Y96.202 E3.47896 ; perimeter
G1 X103.486 Y96.416 E3.50146 ; perimeter
G1 X101.543 Y95.784 E3.52397 ; perimeter
G1 X100.025 Y94.417 E3.54647 ; perimeter
G1 X99.194 Y92.551 E3.56897 ; perimeter
G1 X99.194 Y90.568 E3.59081 ; perimeter
G1 F6000.000 E1.59081 ; retract
G1 Z0.400 F21600.000 ; lift plate during retraction
G92 E0
G1 X98.738 Y116.194 ; move to first perimeter point
G1 Z0.200 ; restore layer Z
G1 F6000.000 E2.50000 ; compensate retraction
G1 X97.760 Y114.763 F2400.000 E2.51908 ; perimeter
G1 X97.172 Y113.212 E2.53736 ; perimeter
G1 X96.961 Y111.471 E2.55667 ; perimeter
G1 X96.961 Y91.587 E2.77568 ; perimeter
G1 X97.172 Y89.846 E2.79499 ; perimeter
G1 X97.773 Y88.261 E2.81366 ; perimeter
G1 X98.736 Y86.866 E2.83234 ; perimeter
G1 X100.005 Y85.742 E2.85101 ; perimeter
G1 X101.474 Y84.971 E2.86928 ; perimeter
G1 X103.155 Y84.548 E2.88837 ; perimeter
G1 X104.848 Y84.548 E2.90701 ; perimeter
G1 X106.494 Y84.954 E2.92568 ; perimeter
G1 X107.995 Y85.742 E2.94436 ; perimeter
G1 X109.264 Y86.866 E2.96303 ; perimeter
G1 X110.227 Y88.261 E2.98170 ; perimeter
G1 X110.828 Y89.846 E3.00037 ; perimeter
G1 X111.039 Y91.587 E3.01969 ; perimeter
G1 X111.039 Y111.471 E3.23869 ; perimeter
G1 X110.828 Y113.212 E3.25801 ; perimeter
G1 X110.227 Y114.797 E3.27668 ; perimeter
G1 X109.264 Y116.192 E3.29535 ; perimeter
G1 X107.995 Y117.317 E3.31402 ; perimeter
G1 X106.494 Y118.104 E3.33269 ; perimeter
G1 X104.848 Y118.510 E3.35137 ; perimeter
G1 X103.152 Y118.510 E3.37004 ; perimeter
G1 X101.506 Y118.104 E3.38871 ; perimeter
G1 X100.005 Y117.317 E3.40738 ; perimeter
G1 X98.783 Y116.234 E3.42537 ; perimeter
G1 X98.451 Y116.447 F21600.000 ; move to first perimeter point
G1 X97.421 Y114.940 F2400.000 E3.44547 ; perimeter
G1 X96.800 Y113.304 E3.46475 ; perimeter
G1 X96.580 Y111.494 E3.48483 ; perimeter
G1 X96.580 Y91.564 E3.70434 ; perimeter
G1 X96.800 Y89.755 E3.72442 ; perimeter
G1 X97.434 Y88.083 E3.74410 ; perimeter
G1 X98.450 Y86.612 E3.76379 ; perimeter
G1 X99.788 Y85.426 E3.78348 ; perimeter
G1 X101.338 Y84.613 E3.80276 ; perimeter
G1 X103.108 Y84.168 E3.82287 ; perimeter
G1 X104.894 Y84.168 E3.84254 ; perimeter
G1 X106.629 Y84.596 E3.86223 ; perimeter
G1 X108.212 Y85.426 E3.88192 ; perimeter
G1 X109.550 Y86.612 E3.90161 ; perimeter
G1 X110.566 Y88.083 E3.92130 ; perimeter
G1 X111.200 Y89.755 E3.94099 ; perimeter
G1 X111.420 Y91.564 E3.96106 ; perimeter
G1 X111.420 Y111.494 E4.18057 ; perimeter
G1 X111.200 Y113.304 E4.20065 ; perimeter
G1 X110.566 Y114.975 E4.22034 ; perimeter
G1 X109.550 Y116.446 E4.24003 ; perimeter
G1 X108.212 Y117.632 E4.25972 ; perimeter
G1 X106.629 Y118.463 E4.27941 ; perimeter
G1 X104.894 Y118.890 E4.29910 ; perimeter
G1 X103.106 Y118.890 E4.31879 ; perimeter
G1 X101.370 Y118.463 E4.33848 ; perimeter
G1 X99.788 Y117.632 E4.35817 ; perimeter
G1 X98.495 Y116.487 E4.37718 ; perimeter
G1 X98.163 Y116.701 F21600.000 ; move to first perimeter point
G1 X97.081 Y115.118 F2400.000 E4.39830 ; perimeter
G1 X96.428 Y113.395 E4.41859 ; perimeter
G1 X96.200 Y111.517 E4.43943 ; perimeter
G1 X96.200 Y91.541 E4.65944 ; perimeter
G1 X96.428 Y89.663 E4.68028 ; perimeter
G1 X97.095 Y87.905 E4.70099 ; perimeter
G1 X98.163 Y86.358 E4.72170 ; perimeter
G1 X99.570 Y85.111 E4.74240 ; perimeter
G1 X101.201 Y84.255 E4.76269 ; perimeter
G1 X103.060 Y83.787 E4.78381 ; perimeter
G1 X104.940 Y83.787 E4.80451 ; perimeter
G1 X106.765 Y84.237 E4.82522 ; perimeter
G1 X108.430 Y85.111 E4.84592 ; perimeter
G1 X109.837 Y86.358 E4.86663 ; perimeter
G1 X110.905 Y87.905 E4.88734 ; perimeter
G1 X111.572 Y89.663 E4.90804 ; perimeter
G1 X111.800 Y91.541 E4.92888 ; perimeter
G1 X111.800 Y111.517 E5.14890 ; perimeter
G1 X111.572 Y113.395 E5.16974 ; perimeter
G1 X110.905 Y115.153 E5.19045 ; perimeter
G1 X109.837 Y116.701 E5.21115 ; perimeter
G1 X108.430 Y117.947 E5.23186 ; perimeter
G1 X106.765 Y118.821 E5.25257 ; perimeter
G1 X104.940 Y119.271 E5.27327 ; perimeter
G1 X103.060 Y119.271 E5.29398 ; perimeter
G1 X101.235 Y118.821 E5.31469 ; perimeter
G1 X99.570 Y117.947 E5.33539 ; perimeter
G1 X98.208 Y116.741 E5.35543 ; perimeter
G1 F6000.000 E3.35543 ; retract
G1 Z0.400 F21600.000 ; lift plate during retraction
G92 E0
G1 X119.396 Y94.874 ; move to first perimeter point
G1 Z0.200 ; restore layer Z
G1 F6000.000 E2.50000 ; compensate retraction
G1 X118.433 Y92.712 F2400.000 E2.52607 ; perimeter
G1 X118.433 Y90.346 E2.55213 ; perimeter
G1 X119.396 Y88.184 E2.57820 ; perimeter
G1 X121.154 Y86.600 E2.60426 ; perimeter
G1 X123.405 Y85.869 E2.63033 ; perimeter
G1 X125.759 Y86.116 E2.65639 ; perimeter
