; generated by Slic3r 0.7.3-dev on 2012-05-04 at 05:06:03

; layer_height = 0.4
; perimeters = 1
; solid_layers = 3
; fill_density = 0.2
; nozzle_diameter = 0.75
; filament_diameter = 3
; extrusion_multiplier = 1
; perimeter_speed = 50
; infill_speed = 80
; travel_speed = 130
; extrusion_width_ratio = 2.3
; scale = 1
; single wall width = 0.92mm

M104 S220 ; set temperature
M92 E380
G92 X0 Y0 Z0  E0.0
G1 Z2.0 F150.0
G1 X-250.0 F2100.0
G1 X-249.0 F300.0
G1 X-251.0 F100.0
G92 X3.0
G1 Y-250.0 F2100.0
G1 Y-249.0 F300.0
G1 Y-251.0 F300.0
G92 Y10.0
G1 Y70.0 F2100.0
G1 Z-250.0 F150.0
G1 Z-249.0 F50.0
G1 Z-251.0 F50.0
G1 Y75.0 E2.0  F1000.0
G1 Y100.0 E2.3  F1000.0
G92 Z0.3
G92 E0.0
M106 S70
M107
M109 S220 ; wait for temperature to be reached
G90 ; use absolute coordinates
G21 ; set units to millimeters
G92 E0 ; reset extrusion distance
M82 ; use absolute distances for extrusion
G1 Z0.400 F7800.000
G1 X66.920 Y80.229
G1 F600.000 E0.50000
G1 X67.700 Y79.449 F2400.000 E0.55515
G1 X68.190 Y79.009 E0.58808
G1 X69.550 Y77.959 E0.67398
G1 X71.000 Y77.059 E0.75930
G1 X72.540 Y76.309 E0.84495
G1 X73.570 Y75.909 E0.90019
G1 X74.210 Y75.699 E0.93387
G1 X75.820 Y75.299 E1.01681
G1 X76.910 Y75.119 E1.07204
G1 X77.620 Y75.049 E1.10771
G1 X78.730 Y74.999 E1.16327
G1 X125.510 Y78.069 E3.50715
G1 X126.140 Y78.169 E3.53904
G1 X128.390 Y78.729 E3.65497
G1 X128.930 Y78.919 E3.68359
G1 X129.190 Y79.029 E3.69770
G1 X131.310 Y80.139 E3.81735
G1 X131.810 Y80.469 E3.84730
G1 X133.840 Y82.239 E3.98195
G1 X134.230 Y82.659 E4.01061
G1 X135.770 Y84.849 E4.14446
G1 X135.920 Y85.109 E4.15947
G1 X136.180 Y85.629 E4.18854
G1 X137.020 Y87.869 E4.30815
G1 X137.170 Y88.419 E4.33665
G1 X137.490 Y90.799 E4.45671
G1 X137.540 Y91.549 E4.49429
G1 X137.540 Y111.499 E5.49173
G1 X137.490 Y112.249 E5.52931
G1 X137.220 Y114.359 E5.63567
G1 X137.170 Y114.629 E5.64939
G1 X137.020 Y115.179 E5.67790
G1 X136.180 Y117.419 E5.79751
G1 X135.920 Y117.939 E5.82657
G1 X135.770 Y118.199 E5.84158
G1 X134.410 Y120.159 E5.96085
G1 X134.230 Y120.389 E5.97546
G1 X133.840 Y120.809 E6.00411
G1 X132.040 Y122.399 E6.12419
G1 X131.810 Y122.579 E6.13879
G1 X131.310 Y122.909 E6.16874
G1 X129.190 Y124.019 E6.28839
G1 X128.660 Y124.229 E6.31689
G1 X128.390 Y124.319 E6.33112
G1 X126.060 Y124.899 E6.45117
G1 X125.770 Y124.949 E6.46588
G1 X124.900 Y125.009 E6.50948
G1 X102.800 Y124.999 E7.61441
G1 X102.220 Y124.949 E7.64352
G1 X101.930 Y124.899 E7.65823
G1 X99.600 Y124.319 E7.77828
G1 X99.060 Y124.129 E7.80690
G1 X98.800 Y124.019 E7.82101
G1 X96.930 Y123.049 E7.92634
G1 X69.050 Y104.729 E9.59425
G1 X68.190 Y104.039 E9.64938
G1 X67.700 Y103.599 E9.68230
G1 X66.920 Y102.819 E9.73745
G1 X66.480 Y102.329 E9.77038
G1 X65.430 Y100.969 E9.85628
G1 X64.530 Y99.519 E9.94161
G1 X63.780 Y97.979 E10.02725
G1 X63.380 Y96.949 E10.08249
G1 X63.170 Y96.309 E10.11617
G1 X62.770 Y94.699 E10.19911
G1 X62.590 Y93.609 E10.25435
G1 X62.520 Y92.899 E10.29002
G1 X62.470 Y91.259 E10.37205
G1 X62.520 Y90.149 E10.42760
G1 X62.590 Y89.439 E10.46327
G1 X62.890 Y87.799 E10.54663
G1 X63.170 Y86.739 E10.60144
G1 X63.380 Y86.099 E10.63512
G1 X64.030 Y84.509 E10.72100
G1 X64.830 Y83.009 E10.80599
G1 X65.790 Y81.579 E10.89211
G1 X66.480 Y80.719 E10.94723
G1 X66.828 Y80.332 E10.97326
G1 F600.000 E10.47326
G92 E0
G1 X98.657 Y90.393 F7800.000
G1 F600.000 E0.50000
G1 X99.581 Y88.318 F2400.000 E0.61356
G1 X101.269 Y86.798 E0.72713
G1 X103.429 Y86.097 E0.84070
G1 X105.688 Y86.334 E0.95426
G1 X107.655 Y87.470 E1.06783
G1 X108.990 Y89.307 E1.18140
G1 X109.463 Y91.529 E1.29497
G1 X108.990 Y93.751 E1.40853
G1 X107.655 Y95.589 E1.52210
G1 X105.688 Y96.724 E1.63567
G1 X103.429 Y96.962 E1.74924
G1 X101.269 Y96.260 E1.86280
G1 X99.581 Y94.740 E1.97637
G1 X98.657 Y92.665 E2.08993
G1 X98.657 Y90.531 E2.19660
G1 X96.682 Y89.726 F7800.000
G1 X97.327 Y88.027 F2400.000 E2.28744
G1 X98.359 Y86.531 E2.37828
G1 X99.719 Y85.327 E2.46912
G1 X101.327 Y84.482 E2.55995
G1 X103.092 Y84.047 E2.65079
G1 X104.908 Y84.047 E2.74163
G1 X106.672 Y84.482 E2.83247
G1 X108.281 Y85.327 E2.92331
G1 X109.641 Y86.531 E3.01415
G1 X110.673 Y88.027 E3.10498
G1 X111.318 Y89.726 E3.19582
G1 X111.540 Y91.557 E3.28806
G1 X111.540 Y111.501 E4.28522
G1 X111.318 Y113.333 E4.37745
G1 X110.673 Y115.032 E4.46830
G1 X109.641 Y116.527 E4.55913
G1 X108.281 Y117.732 E4.64997
G1 X106.672 Y118.576 E4.74081
G1 X104.908 Y119.011 E4.83165
G1 X103.092 Y119.011 E4.92248
G1 X101.327 Y118.576 E5.01332
G1 X99.719 Y117.732 E5.10416
G1 X98.359 Y116.527 E5.19500
G1 X97.327 Y115.032 E5.28584
G1 X96.682 Y113.333 E5.37668
G1 X96.460 Y111.501 E5.46892
G1 X96.460 Y91.557 E6.46607
G1 X96.666 Y89.863 E6.55141
G1 F600.000 E6.05141
G92 E0
G1 X118.657 Y90.393 F7800.000
G1 F600.000 E0.50000
G1 X119.581 Y88.318 F2400.000 E0.61357
G1 X121.269 Y86.798 E0.72713
G1 X123.429 Y86.097 E0.84070
G1 X125.688 Y86.334 E0.95427
G1 X127.655 Y87.470 E1.06783
G1 X128.990 Y89.307 E1.18140
G1 X129.463 Y91.529 E1.29497
G1 X128.990 Y93.751 E1.40853
G1 X127.655 Y95.589 E1.52210
G1 X125.688 Y96.724 E1.63567
G1 X123.429 Y96.962 E1.74924
G1 X121.269 Y96.260 E1.86280
G1 X119.581 Y94.740 E1.97637
G1 X118.657 Y92.665 E2.08994
G1 X118.657 Y90.531 E2.19660
G1 X116.682 Y89.726 F7800.000
G1 X117.327 Y88.027 F2400.000 E2.28744
G1 X118.359 Y86.531 E2.37828
G1 X119.719 Y85.327 E2.46912
G1 X121.328 Y84.482 E2.55996
G1 X123.092 Y84.047 E2.65079
G1 X124.908 Y84.047 E2.74163
G1 X126.672 Y84.482 E2.83247
G1 X128.281 Y85.327 E2.92331
G1 X129.641 Y86.531 E3.01415
G1 X130.673 Y88.027 E3.10498
G1 X131.318 Y89.726 E3.19582
G1 X131.540 Y91.557 E3.28806
G1 X131.540 Y111.501 E4.28522
G1 X131.318 Y113.333 E4.37746
G1 X130.673 Y115.032 E4.46830
G1 X129.641 Y116.527 E4.55913
G1 X128.281 Y117.732 E4.64997
G1 X126.672 Y118.576 E4.74081
G1 X124.908 Y119.011 E4.83165
G1 X123.092 Y119.011 E4.92249
G1 X121.328 Y118.576 E5.01332
G1 X119.719 Y117.732 E5.10416
G1 X118.359 Y116.527 E5.19500
G1 X117.327 Y115.032 E5.28584
G1 X116.682 Y113.333 E5.37668
G1 X116.460 Y111.501 E5.46892
G1 X116.460 Y91.557 E6.46607
G1 X116.666 Y89.863 E6.55141
G1 F600.000 E6.05141
G92 E0
G1 X84.463 Y91.529 F7800.000
G1 F600.000 E0.50000
G1 X83.990 Y93.751 F2400.000 E0.61356
G1 X82.655 Y95.589 E0.72714
G1 X80.688 Y96.724 E0.84070
G1 X78.429 Y96.962 E0.95427
G1 X76.269 Y96.260 E1.06783
G1 X74.581 Y94.740 E1.18140
G1 X73.657 Y92.665 E1.29497
G1 X73.657 Y90.393 E1.40853
G1 X74.581 Y88.318 E1.52210
G1 X76.269 Y86.798 E1.63567
G1 X78.429 Y86.097 E1.74923
G1 X80.688 Y86.334 E1.86280
G1 X82.655 Y87.470 E1.97637
G1 X83.990 Y89.307 E2.08994
G1 X84.434 Y91.394 E2.19660
G1 F600.000 E1.69660
G92 E0
G1 X89.539 Y91.529 F7800.000
G1 F600.000 E0.50000
G1 X89.482 Y92.631 F2400.000 E0.55515
G1 X89.309 Y93.720 E0.61031
G1 X89.024 Y94.786 E0.66547
G1 X88.628 Y95.816 E0.72062
G1 X88.127 Y96.799 E0.77578
G1 X87.527 Y97.724 E0.83093
G1 X86.832 Y98.581 E0.88609
G1 X86.052 Y99.361 E0.94124
G1 X85.195 Y100.056 E0.99640
G1 X84.270 Y100.657 E1.05155
G1 X83.287 Y101.157 E1.10671
G1 X82.257 Y101.553 E1.16186
G1 X81.191 Y101.838 E1.21702
G1 X80.102 Y102.011 E1.27218
G1 X79.000 Y102.069 E1.32733
G1 X77.898 Y102.011 E1.38248
G1 X76.809 Y101.838 E1.43764
G1 X75.743 Y101.553 E1.49280
G1 X74.713 Y101.157 E1.54795
G1 X73.730 Y100.657 E1.60311
G1 X72.805 Y100.056 E1.65826
G1 X71.948 Y99.361 E1.71342
G1 X71.168 Y98.581 E1.76857
G1 X70.473 Y97.724 E1.82373
G1 X69.873 Y96.799 E1.87888
G1 X69.372 Y95.816 E1.93404
G1 X68.976 Y94.786 E1.98919
G1 X68.691 Y93.720 E2.04435
G1 X68.518 Y92.631 E2.09950
G1 X68.461 Y91.529 E2.15466
G1 X68.518 Y90.428 E2.20981
G1 X68.691 Y89.338 E2.26497
G1 X68.976 Y88.272 E2.32013
G1 X69.372 Y87.242 E2.37528
G1 X69.873 Y86.259 E2.43043
G1 X70.473 Y85.334 E2.48559
G1 X71.168 Y84.477 E2.54075
G1 X71.948 Y83.697 E2.59590
G1 X72.805 Y83.003 E2.65106
G1 X73.730 Y82.402 E2.70621
G1 X74.713 Y81.901 E2.76137
G1 X75.743 Y81.506 E2.81652
G1 X76.809 Y81.220 E2.87168
G1 X77.898 Y81.048 E2.92683
G1 X79.000 Y80.990 E2.98199
G1 X80.102 Y81.048 E3.03714
G1 X81.191 Y81.220 E3.09230
G1 X82.257 Y81.506 E3.14745
G1 X83.287 Y81.901 E3.20261
G1 X84.270 Y82.402 E3.25776
G1 X85.195 Y83.003 E3.31292
G1 X86.052 Y83.697 E3.36808
G1 X86.832 Y84.477 E3.42323
G1 X87.527 Y85.334 E3.47839
G1 X88.127 Y86.259 E3.53354
G1 X88.628 Y87.242 E3.58870
G1 X89.024 Y88.272 E3.64385
G1 X89.309 Y89.338 E3.69901
G1 X89.482 Y90.427 E3.75416
G1 X89.532 Y91.391 E3.80242
G1 F600.000 E3.30242
G92 E0
G1 X117.053 Y92.118 F7800.000
G1 F600.000 E0.50000
G1 X118.082 Y93.147 F1920.000 E0.57506
G1 X117.053 Y93.350 F7800.000
G1 X119.071 Y95.368 F1920.000 E0.72223
G1 X119.422 Y95.719 F7800.000
G1 X130.947 Y107.244 F1920.000 E1.56294
G1 X130.947 Y108.476 F7800.000
G1 X117.053 Y94.582 F1920.000 E2.57647
G1 X117.053 Y95.814 F7800.000
G1 X130.947 Y109.708 F1920.000 E3.59000
G1 X130.947 Y110.939 F7800.000
G1 X117.053 Y97.046 F1920.000 E4.60352
G1 X117.053 Y98.277 F7800.000
G1 X130.898 Y112.122 F1920.000 E5.61342
G1 X130.763 Y113.221 F7800.000
G1 X117.053 Y99.510 F1920.000 E6.61358
G1 X117.053 Y100.742 F7800.000
G1 X130.456 Y114.145 F1920.000 E7.59129
G1 X130.090 Y115.011 F7800.000
G1 X117.053 Y101.974 F1920.000 E8.54233
G1 X117.053 Y103.205 F7800.000
G1 X129.587 Y115.740 F1920.000 E9.45669
G1 X129.032 Y116.417 F7800.000
G1 X117.053 Y104.437 F1920.000 E10.33056
G1 X117.053 Y105.669 F7800.000
G1 X128.380 Y116.996 F1920.000 E11.15681
G1 X127.648 Y117.496 F7800.000
G1 X117.053 Y106.901 F1920.000 E11.92972
G1 X117.053 Y108.133 F7800.000
G1 X126.841 Y117.921 F1920.000 E12.64373
G1 X125.900 Y118.212 F7800.000
G1 X117.053 Y109.365 F1920.000 E13.28912
G1 X117.053 Y110.597 F7800.000
G1 X124.874 Y118.418 F1920.000 E13.85967
G1 X123.643 Y118.418 F7800.000
G1 X117.141 Y111.917 F1920.000 E14.33392
G1 X117.500 Y113.507 F7800.000
G1 X122.069 Y118.076 F1920.000 E14.66722
G1 F600.000 E14.16722
G92 E0
G1 X130.947 Y106.012 F7800.000
G1 F600.000 E0.50000
G1 X122.228 Y97.293 F1920.000 E1.13607
G1 X123.673 Y97.506 F7800.000
G1 X130.947 Y104.780 F1920.000 E1.66670
G1 X130.947 Y103.549 F7800.000
G1 X124.788 Y97.389 F1920.000 E2.11600
G1 X125.841 Y97.211 F7800.000
G1 X130.947 Y102.317 F1920.000 E2.48846
G1 X130.947 Y101.085 F7800.000
G1 X126.622 Y96.760 F1920.000 E2.80395
G1 X127.403 Y96.309 F7800.000
G1 X130.947 Y99.853 F1920.000 E3.06248
G1 X130.947 Y98.621 F7800.000
G1 X128.115 Y95.789 F1920.000 E3.26907
G1 X128.633 Y95.076 F7800.000
G1 X130.947 Y97.390 F1920.000 E3.43784
G1 X130.947 Y96.158 F7800.000
G1 X129.151 Y94.362 F1920.000 E3.56880
G1 X129.587 Y93.565 F7800.000
G1 X130.947 Y94.925 F1920.000 E3.66804
G1 X130.947 Y93.693 F7800.000
G1 X129.803 Y92.549 F1920.000 E3.75152
G1 X130.019 Y91.533 F7800.000
G1 X130.947 Y92.461 F1920.000 E3.81925
G1 X130.859 Y91.141 F7800.000
G1 X129.829 Y90.111 F1920.000 E3.89439
G1 X130.501 Y89.551 F7800.000
G1 X129.223 Y88.274 F1920.000 E3.98756
G1 X127.391 Y86.441 F7800.000
G1 X125.931 Y84.982 F1920.000 E4.09402
G1 X125.395 Y85.678 F7800.000
G1 X124.358 Y84.640 F1920.000 E4.16970
G1 X124.019 Y85.533 F7800.000
G1 X123.126 Y84.640 F1920.000 E4.23484
G1 X122.100 Y84.846 F7800.000
G1 X122.953 Y85.699 F1920.000 E4.29704
G1 X122.023 Y86.001 F7800.000
G1 X121.159 Y85.137 F1920.000 E4.36003
G1 X120.351 Y85.562 F7800.000
G1 X121.093 Y86.304 F1920.000 E4.41413
G1 X120.444 Y86.887 F7800.000
G1 X119.620 Y86.063 F1920.000 E4.47425
G1 X118.967 Y86.642 F7800.000
G1 X119.796 Y87.471 F1920.000 E4.53473
G1 X119.148 Y88.054 F7800.000
G1 X118.412 Y87.319 F1920.000 E4.58839
G1 X117.909 Y88.047 F7800.000
G1 X118.763 Y88.901 F1920.000 E4.65068
G1 X118.384 Y89.754 F7800.000
G1 X117.544 Y88.914 F1920.000 E4.71194
G1 X117.236 Y89.838 F7800.000
G1 X118.064 Y90.665 F1920.000 E4.77229
G1 X117.103 Y90.937 F7800.000
G1 X118.064 Y91.897 F1920.000 E4.84237
G1 X110.947 Y92.461 F7800.000
G1 X110.019 Y91.533 F1920.000 E4.91010
G1 X110.859 Y91.141 F7800.000
G1 X109.829 Y90.111 F1920.000 E4.98524
G1 X110.501 Y89.551 F7800.000
G1 X109.224 Y88.274 F1920.000 E5.07841
G1 X107.391 Y86.441 F7800.000
G1 X105.932 Y84.982 F1920.000 E5.18487
G1 X105.396 Y85.678 F7800.000
G1 X104.358 Y84.640 F1920.000 E5.26056
G1 X104.019 Y85.533 F7800.000
G1 X103.126 Y84.640 F1920.000 E5.32570
G1 X102.099 Y84.847 F7800.000
G1 X102.952 Y85.699 F1920.000 E5.38790
G1 X102.022 Y86.001 F7800.000
G1 X101.159 Y85.138 F1920.000 E5.45090
G1 X100.351 Y85.562 F7800.000
G1 X101.093 Y86.303 F1920.000 E5.50500
G1 X100.444 Y86.887 F7800.000
G1 X99.620 Y86.063 F1920.000 E5.56511
G1 X98.967 Y86.642 F7800.000
G1 X99.796 Y87.471 F1920.000 E5.62559
G1 X99.148 Y88.054 F7800.000
G1 X98.412 Y87.318 F1920.000 E5.67926
G1 X97.909 Y88.047 F7800.000
G1 X98.763 Y88.901 F1920.000 E5.74155
G1 X98.384 Y89.753 F7800.000
G1 X97.544 Y88.914 F1920.000 E5.80281
G1 X97.237 Y89.838 F7800.000
G1 X98.064 Y90.665 F1920.000 E5.86316
G1 X97.103 Y90.936 F7800.000
G1 X98.064 Y91.897 F1920.000 E5.93325
G1 X97.053 Y92.118 F7800.000
G1 X98.082 Y93.147 F1920.000 E6.00831
G1 X97.053 Y93.350 F7800.000
G1 X99.071 Y95.368 F1920.000 E6.15549
G1 X99.422 Y95.719 F7800.000
G1 X110.947 Y107.244 F1920.000 E6.99621
G1 X110.947 Y108.476 F7800.000
G1 X97.053 Y94.582 F1920.000 E8.00974
G1 X97.053 Y95.814 F7800.000
G1 X110.947 Y109.708 F1920.000 E9.02327
G1 X110.947 Y110.940 F7800.000
G1 X97.053 Y97.046 F1920.000 E10.03680
G1 X97.053 Y98.278 F7800.000
G1 X110.897 Y112.122 F1920.000 E11.04668
G1 X110.763 Y113.221 F7800.000
G1 X97.053 Y99.510 F1920.000 E12.04684
G1 X97.053 Y100.742 F7800.000
G1 X110.456 Y114.145 F1920.000 E13.02456
G1 X110.091 Y115.011 F7800.000
G1 X97.053 Y101.974 F1920.000 E13.97562
G1 X97.053 Y103.205 F7800.000
G1 X109.587 Y115.740 F1920.000 E14.88999
G1 X109.033 Y116.417 F7800.000
G1 X97.053 Y104.437 F1920.000 E15.76387
G1 X97.053 Y105.669 F7800.000
G1 X108.380 Y116.996 F1920.000 E16.59011
G1 X107.649 Y117.497 F7800.000
G1 X97.053 Y106.901 F1920.000 E17.36305
G1 X97.053 Y108.133 F7800.000
G1 X106.841 Y117.921 F1920.000 E18.07706
G1 X105.900 Y118.212 F7800.000
G1 X97.053 Y109.365 F1920.000 E18.72244
G1 X97.053 Y110.596 F7800.000
G1 X104.874 Y118.418 F1920.000 E19.29298
G1 X103.643 Y118.418 F7800.000
G1 X97.142 Y111.917 F1920.000 E19.76722
G1 X97.500 Y113.506 F7800.000
G1 X102.069 Y118.076 F1920.000 E20.10054
G1 F600.000 E19.60054
G92 E0
G1 X110.947 Y106.012 F7800.000
G1 F600.000 E0.50000
G1 X102.228 Y97.293 F1920.000 E1.13607
G1 X103.673 Y97.506 F7800.000
G1 X110.947 Y104.780 F1920.000 E1.66670
G1 X110.947 Y103.549 F7800.000
G1 X104.788 Y97.389 F1920.000 E2.11600
G1 X105.841 Y97.211 F7800.000
G1 X110.947 Y102.317 F1920.000 E2.48846
G1 X110.947 Y101.085 F7800.000
G1 X106.622 Y96.760 F1920.000 E2.80395
G1 X107.403 Y96.309 F7800.000
G1 X110.947 Y99.853 F1920.000 E3.06247
G1 X110.947 Y98.621 F7800.000
G1 X108.115 Y95.789 F1920.000 E3.26906
G1 X108.633 Y95.076 F7800.000
G1 X110.947 Y97.389 F1920.000 E3.43784
G1 X110.947 Y96.158 F7800.000
G1 X109.152 Y94.362 F1920.000 E3.56880
G1 X109.586 Y93.565 F7800.000
G1 X110.947 Y94.926 F1920.000 E3.66803
G1 X110.947 Y93.694 F7800.000
G1 X109.802 Y92.549 F1920.000 E3.75152
G1 F600.000 E3.25152
G92 E0
G1 X88.916 Y92.341 F7800.000
G1 F600.000 E0.50000
G1 X78.188 Y81.613 F1920.000 E1.26549
G1 X77.099 Y81.736 F7800.000
G1 X81.116 Y85.754 F1920.000 E1.55213
G1 X79.759 Y85.611 F7800.000
G1 X76.109 Y81.961 F1920.000 E1.81259
G1 X75.201 Y82.267 F7800.000
G1 X78.466 Y85.532 F1920.000 E2.04555
G1 X77.549 Y85.830 F7800.000
G1 X74.363 Y82.644 F1920.000 E2.27288
G1 X73.588 Y83.082 F7800.000
G1 X76.633 Y86.128 F1920.000 E2.49018
G1 X75.831 Y86.539 F7800.000
G1 X72.870 Y83.577 F1920.000 E2.70149
G1 X72.204 Y84.127 F7800.000
G1 X75.192 Y87.114 F1920.000 E2.91468
G1 X74.553 Y87.689 F7800.000
G1 X71.598 Y84.733 F1920.000 E3.12560
G1 X71.048 Y85.399 F7800.000
G1 X74.006 Y88.356 F1920.000 E3.33665
G1 X73.632 Y89.196 F7800.000
G1 X70.553 Y86.117 F1920.000 E3.55634
G1 X70.115 Y86.892 F7800.000
G1 X73.258 Y90.036 F1920.000 E3.78063
G1 X73.064 Y91.056 F7800.000
G1 X69.738 Y87.730 F1920.000 E4.01792
G1 X69.432 Y88.638 F7800.000
G1 X73.064 Y92.270 F1920.000 E4.27708
G1 X73.366 Y93.787 F7800.000
G1 X69.207 Y89.628 F1920.000 E4.57384
G1 X69.084 Y90.718 F7800.000
G1 X79.812 Y101.445 F1920.000 E5.33933
G1 X80.901 Y101.322 F7800.000
