; generated by Slic3r 0.7.3-dev on 2012-05-08 at 20:56:23

; layer_height = 0.4
; perimeters = 1
; solid_layers = 3
; fill_density = 0.25
; nozzle_diameter = 0.75
; filament_diameter = 3
; extrusion_multiplier = 1
; perimeter_speed = 40
; infill_speed = 50
; travel_speed = 130
; extrusion_width_ratio = 2.3
; scale = 1
; single wall width = 0.92mm

M104 S230 ; set temperature
M92 E380
G92 X0 Y0 Z0  E0.0
G1 Z2.0 F150.0
G1 X-250.0 F2100.0
G1 X-249.0 F300.0
G1 X-251.0 F100.0
G92 X3.0
G1 Y-250.0 F2100.0
G1 Y-249.0 F300.0
G1 Y-251.0 F300.0
G92 Y10.0
G1 Y70.0 F2100.0
G1 Z-250.0 F150.0
G1 Z-249.0 F50.0
G1 Z-251.0 F50.0
G1 Y75.0 E2.0  F1000.0
G1 Y100.0 E2.3  F1000.0
G92 Z0.3
G92 E0.0
M106 S70
M107
M109 S230 ; wait for temperature to be reached
G90 ; use absolute coordinates
G21 ; set units to millimeters
G92 E0 ; reset extrusion distance
M82 ; use absolute distances for extrusion
G1 Z0.400 F7800.000
G1 X90.450 Y82.828
G1 F600.000 E0.50000
G1 X90.960 Y82.808 F1920.000 E0.52552
G1 X109.550 Y82.828 E1.45496
G1 X110.300 Y82.938 E1.49286
G1 X110.800 Y83.068 E1.51869
G1 X111.280 Y83.238 E1.54415
G1 X111.740 Y83.448 E1.56943
G1 X111.970 Y83.568 E1.58240
G1 X112.190 Y83.698 E1.59518
G1 X112.810 Y84.138 E1.63319
G1 X113.190 Y84.478 E1.65868
G1 X113.370 Y84.658 E1.67141
G1 X113.710 Y85.038 E1.69690
G1 X114.150 Y85.658 E1.73491
G1 X114.280 Y85.878 E1.74769
G1 X114.510 Y86.338 E1.77340
G1 X114.700 Y86.808 E1.79875
G1 X114.850 Y87.298 E1.82437
G1 X114.910 Y87.548 E1.83722
G1 X115.020 Y88.298 E1.87512
G1 X115.020 Y111.688 E3.04455
G1 X114.910 Y112.438 E3.08245
G1 X114.780 Y112.938 E3.10828
G1 X114.610 Y113.418 E3.13374
G1 X114.400 Y113.878 E3.15902
G1 X114.280 Y114.108 E3.17199
G1 X114.150 Y114.328 E3.18476
G1 X113.710 Y114.948 E3.22277
G1 X113.370 Y115.328 E3.24827
G1 X113.190 Y115.508 E3.26099
G1 X112.810 Y115.848 E3.28649
G1 X112.190 Y116.288 E3.32450
G1 X111.970 Y116.418 E3.33728
G1 X111.510 Y116.648 E3.36299
G1 X111.040 Y116.838 E3.38833
G1 X110.550 Y116.988 E3.41396
G1 X110.300 Y117.048 E3.42681
G1 X109.550 Y117.158 E3.46471
G1 X109.040 Y117.178 E3.49023
G1 X90.450 Y117.158 E4.41967
G1 X89.700 Y117.048 E4.45757
G1 X89.200 Y116.918 E4.48340
G1 X88.720 Y116.748 E4.50886
G1 X88.260 Y116.538 E4.53414
G1 X88.030 Y116.418 E4.54711
G1 X87.810 Y116.288 E4.55988
G1 X87.190 Y115.848 E4.59790
G1 X86.810 Y115.508 E4.62339
G1 X86.630 Y115.328 E4.63612
G1 X86.290 Y114.948 E4.66161
G1 X85.850 Y114.328 E4.69962
G1 X85.720 Y114.108 E4.71240
G1 X85.490 Y113.648 E4.73811
G1 X85.300 Y113.178 E4.76346
G1 X85.150 Y112.688 E4.78908
G1 X85.090 Y112.438 E4.80193
G1 X84.980 Y111.688 E4.83983
G1 X84.980 Y88.298 E6.00926
G1 X85.090 Y87.548 E6.04715
G1 X85.220 Y87.048 E6.07298
G1 X85.390 Y86.568 E6.09844
G1 X85.600 Y86.108 E6.12373
G1 X85.720 Y85.878 E6.13670
G1 X85.850 Y85.658 E6.14947
G1 X86.290 Y85.038 E6.18748
G1 X86.630 Y84.658 E6.21298
G1 X86.810 Y84.478 E6.22570
G1 X87.190 Y84.138 E6.25120
G1 X87.810 Y83.698 E6.28921
G1 X88.030 Y83.568 E6.30198
G1 X88.490 Y83.338 E6.32770
G1 X88.960 Y83.148 E6.35304
G1 X89.450 Y82.998 E6.37866
G1 X89.700 Y82.938 E6.39152
G1 X90.313 Y82.845 E6.42252
G1 F600.000 E5.92252
G92 E0
G1 X90.960 Y88.813 F7800.000
G1 F600.000 E0.50000
G1 X94.040 Y88.813 F1920.000 E0.65399
G1 X94.040 Y99.544 E1.19053
G1 X105.960 Y99.544 E1.78649
G1 X105.960 Y88.813 E2.32303
G1 X109.040 Y88.813 E2.47702
G1 X109.040 Y111.187 E3.59564
G1 X90.960 Y111.187 E4.49958
G1 X90.960 Y88.951 E5.61130
G1 X91.553 Y89.722 F7800.000
G1 X93.447 Y91.616 F1920.000 E5.74757
G1 X93.447 Y90.395 F7800.000
G1 X92.458 Y89.406 F1920.000 E5.81875
G1 X91.553 Y90.943 F7800.000
G1 X93.447 Y92.837 F1920.000 E5.95503
G1 X93.447 Y94.057 F7800.000
G1 X91.553 Y92.163 F1920.000 E6.09130
G1 X91.553 Y93.384 F7800.000
G1 X93.447 Y95.278 F1920.000 E6.22758
G1 X93.447 Y96.499 F7800.000
G1 X91.553 Y94.605 F1920.000 E6.36385
G1 X91.553 Y95.825 F7800.000
G1 X93.447 Y97.719 F1920.000 E6.50013
G1 X93.447 Y98.940 F7800.000
G1 X91.553 Y97.046 F1920.000 E6.63640
G1 X91.553 Y98.267 F7800.000
G1 X93.447 Y100.161 F1920.000 E6.77268
G1 X93.424 Y100.137 F7800.000
G1 X103.880 Y110.594 F1920.000 E7.52503
G1 X105.101 Y110.594 F7800.000
G1 X94.644 Y100.138 F1920.000 E8.27738
G1 X95.865 Y100.137 F7800.000
G1 X106.322 Y110.594 F1920.000 E9.02974
G1 X107.542 Y110.594 F7800.000
G1 X97.086 Y100.138 F1920.000 E9.78209
G1 X98.307 Y100.137 F7800.000
G1 X108.447 Y110.278 F1920.000 E10.51171
G1 X108.447 Y109.057 F7800.000
G1 X99.527 Y100.138 F1920.000 E11.15351
G1 X100.748 Y100.137 F7800.000
G1 X108.447 Y107.837 F1920.000 E11.70748
G1 X108.447 Y106.616 F7800.000
G1 X101.969 Y100.138 F1920.000 E12.17361
G1 X103.189 Y100.138 F7800.000
G1 X108.447 Y105.395 F1920.000 E12.55192
G1 X108.447 Y104.175 F7800.000
G1 X104.410 Y100.138 F1920.000 E12.84239
G1 X105.631 Y100.138 F7800.000
G1 X108.447 Y102.954 F1920.000 E13.04504
G1 X108.447 Y101.733 F7800.000
G1 X106.553 Y99.839 F1920.000 E13.18132
G1 X106.553 Y98.619 F7800.000
G1 X108.447 Y100.513 F1920.000 E13.31759
G1 X108.447 Y99.292 F7800.000
G1 X106.553 Y97.398 F1920.000 E13.45387
G1 X106.553 Y96.177 F7800.000
G1 X108.447 Y98.071 F1920.000 E13.59014
G1 X108.447 Y96.851 F7800.000
G1 X106.553 Y94.957 F1920.000 E13.72642
G1 X106.553 Y93.736 F7800.000
G1 X108.447 Y95.630 F1920.000 E13.86269
G1 X108.447 Y94.409 F7800.000
G1 X106.553 Y92.515 F1920.000 E13.99897
G1 X106.553 Y91.295 F7800.000
G1 X108.447 Y93.189 F1920.000 E14.13524
G1 X108.447 Y91.968 F7800.000
G1 X106.553 Y90.074 F1920.000 E14.27152
G1 X107.106 Y89.406 F7800.000
G1 X108.447 Y90.747 F1920.000 E14.36801
G1 F600.000 E13.86801
G92 E0
G1 X91.553 Y99.487 F7800.000
G1 F600.000 E0.50000
G1 X102.660 Y110.594 F1920.000 E1.29913
G1 X101.439 Y110.594 F7800.000
G1 X91.553 Y100.708 F1920.000 E2.01043
G1 X91.553 Y101.929 F7800.000
G1 X100.218 Y110.594 F1920.000 E2.63391
G1 X98.997 Y110.594 F7800.000
G1 X91.553 Y103.149 F1920.000 E3.16955
G1 X91.553 Y104.370 F7800.000
G1 X97.777 Y110.594 F1920.000 E3.61736
G1 X96.556 Y110.594 F7800.000
G1 X91.553 Y105.591 F1920.000 E3.97734
G1 X91.553 Y106.811 F7800.000
G1 X95.335 Y110.594 F1920.000 E4.24950
G1 X94.115 Y110.594 F7800.000
G1 X91.553 Y108.032 F1920.000 E4.43382
G1 X91.553 Y109.253 F7800.000
G1 X92.894 Y110.594 F1920.000 E4.53031
G1 F600.000 E4.03031
G92 E0
G1 Z0.800 F7800.000
G1 X90.960 Y112.424
G1 F600.000 E0.50000
G1 X90.960 Y87.576 F2400.000 E1.74227
G1 X94.040 Y87.576 E1.89626
G1 X94.040 Y99.835 E2.50916
G1 X105.960 Y99.835 E3.10512
G1 X105.960 Y87.576 E3.71802
G1 X109.040 Y87.576 E3.87201
G1 X109.040 Y112.424 E5.11428
G1 X91.098 Y112.424 E6.01132
G1 X91.553 Y111.501 F7800.000
G1 X102.626 Y100.428 F2400.000 E6.80899
G1 X103.848 Y100.428 F7800.000
G1 X92.445 Y111.830 F2400.000 E7.63039
G1 X93.667 Y111.830 F7800.000
G1 X105.069 Y100.428 F2400.000 E8.45178
G1 X106.291 Y100.428 F7800.000
G1 X94.889 Y111.830 F2400.000 E9.27318
G1 X96.110 Y111.830 F7800.000
G1 X108.447 Y99.494 F2400.000 E10.16189
G1 X108.447 Y100.715 F7800.000
G1 X97.332 Y111.830 F2400.000 E10.96260
G1 X98.553 Y111.830 F7800.000
G1 X108.447 Y101.937 F2400.000 E11.67531
G1 X108.447 Y103.159 F7800.000
G1 X99.775 Y111.830 F2400.000 E12.30000
G1 X100.997 Y111.830 F7800.000
G1 X108.447 Y104.380 F2400.000 E12.83670
G1 X108.447 Y105.602 F7800.000
G1 X102.218 Y111.830 F2400.000 E13.28540
G1 X103.440 Y111.830 F7800.000
G1 X108.447 Y106.823 F2400.000 E13.64609
G1 X108.447 Y108.045 F7800.000
G1 X104.662 Y111.830 F2400.000 E13.91878
G1 X105.883 Y111.830 F7800.000
G1 X108.447 Y109.267 F2400.000 E14.10346
G1 X108.447 Y110.488 F7800.000
G1 X107.105 Y111.830 F2400.000 E14.20014
G1 F600.000 E13.70014
G92 E0
G1 X106.553 Y100.166 F7800.000
G1 F600.000 E0.50000
G1 X108.447 Y98.272 F2400.000 E0.63644
G1 X108.447 Y97.050 F7800.000
G1 X106.553 Y98.944 F2400.000 E0.77288
G1 X106.553 Y97.723 F7800.000
G1 X108.447 Y95.829 F2400.000 E0.90931
G1 X108.447 Y94.607 F7800.000
G1 X106.553 Y96.501 F2400.000 E1.04576
G1 X106.553 Y95.279 F7800.000
G1 X108.447 Y93.385 F2400.000 E1.18219
G1 X108.447 Y92.164 F7800.000
G1 X106.553 Y94.058 F2400.000 E1.31863
G1 X106.553 Y92.836 F7800.000
G1 X108.447 Y90.942 F2400.000 E1.45507
G1 X108.447 Y89.721 F7800.000
G1 X106.553 Y91.615 F2400.000 E1.59151
G1 X106.553 Y90.393 F7800.000
G1 X108.447 Y88.499 F2400.000 E1.72794
G1 X107.555 Y88.169 F7800.000
G1 X106.553 Y89.171 F2400.000 E1.80011
G1 F600.000 E1.30011
G92 E0
G1 X101.404 Y100.428 F7800.000
G1 F600.000 E0.50000
G1 X91.553 Y110.279 F2400.000 E1.20966
G1 X91.553 Y109.058 F7800.000
G1 X100.183 Y100.428 F2400.000 E1.83132
G1 X98.961 Y100.428 F7800.000
G1 X91.553 Y107.836 F2400.000 E2.36498
G1 X91.553 Y106.615 F7800.000
G1 X97.739 Y100.428 F2400.000 E2.81063
G1 X96.518 Y100.428 F7800.000
G1 X91.553 Y105.393 F2400.000 E3.16828
G1 X91.553 Y104.171 F7800.000
G1 X95.296 Y100.428 F2400.000 E3.43792
G1 X94.074 Y100.428 F7800.000
G1 X91.553 Y102.949 F2400.000 E3.61956
G1 X91.553 Y101.728 F7800.000
G1 X93.447 Y99.834 F2400.000 E3.75600
G1 X93.447 Y98.612 F7800.000
G1 X91.553 Y100.506 F2400.000 E3.89244
G1 X91.553 Y99.285 F7800.000
G1 X93.447 Y97.391 F2400.000 E4.02887
G1 X93.447 Y96.169 F7800.000
G1 X91.553 Y98.063 F2400.000 E4.16531
G1 X91.553 Y96.841 F7800.000
G1 X93.447 Y94.947 F2400.000 E4.30175
G1 X93.447 Y93.725 F7800.000
G1 X91.553 Y95.619 F2400.000 E4.43819
G1 X91.553 Y94.398 F7800.000
G1 X93.447 Y92.504 F2400.000 E4.57463
G1 X93.447 Y91.283 F7800.000
G1 X91.553 Y93.177 F2400.000 E4.71106
G1 X91.553 Y91.955 F7800.000
G1 X93.447 Y90.061 F2400.000 E4.84750
G1 X93.447 Y88.839 F7800.000
G1 X91.553 Y90.733 F2400.000 E4.98394
G1 X91.553 Y89.511 F7800.000
G1 X92.895 Y88.169 F2400.000 E5.08062
G1 F600.000 E4.58062
G92 E0
G1 Z1.200 F7800.000
G1 X94.040 Y86.621
G1 F600.000 E0.50000
G1 X94.040 Y100.126 F2400.000 E1.17519
G1 X105.960 Y100.126 E1.77115
G1 X105.960 Y86.621 E2.44635
G1 X109.040 Y86.621 E2.60034
G1 X109.040 Y113.379 E3.93814
G1 X90.960 Y113.379 E4.84209
G1 X90.960 Y86.621 E6.17990
G1 X93.902 Y86.621 E6.32699
G1 X92.553 Y88.913 F7800.000
G1 X93.447 Y89.807 F2400.000 E6.39075
G1 X93.447 Y91.020 F7800.000
G1 X91.553 Y89.126 F2400.000 E6.52579
G1 X91.553 Y90.340 F7800.000
G1 X93.447 Y92.234 F2400.000 E6.66083
G1 X93.447 Y93.447 F7800.000
G1 X91.553 Y91.553 F2400.000 E6.79588
G1 X91.553 Y92.766 F7800.000
G1 X93.447 Y94.660 F2400.000 E6.93092
G1 X93.447 Y95.874 F7800.000
G1 X91.553 Y93.980 F2400.000 E7.06597
G1 X91.553 Y95.193 F7800.000
G1 X93.447 Y97.087 F2400.000 E7.20101
G1 X93.447 Y98.300 F7800.000
G1 X91.553 Y96.406 F2400.000 E7.33606
G1 X91.553 Y97.620 F7800.000
G1 X93.447 Y99.514 F2400.000 E7.47110
G1 X93.439 Y100.719 F7800.000
G1 X103.807 Y111.087 F2400.000 E8.21040
G1 X105.020 Y111.087 F7800.000
G1 X94.652 Y100.719 F2400.000 E8.94969
G1 X93.447 Y100.727 F7800.000
G1 X91.553 Y98.833 F2400.000 E9.08473
G1 X91.553 Y100.047 F7800.000
G1 X102.594 Y111.087 F2400.000 E9.87196
G1 X101.380 Y111.087 F7800.000
G1 X91.553 Y101.260 F2400.000 E10.57266
G1 X91.553 Y102.473 F7800.000
G1 X100.167 Y111.087 F2400.000 E11.18686
G1 X98.954 Y111.087 F7800.000
G1 X91.553 Y103.687 F2400.000 E11.71454
G1 X91.553 Y104.900 F7800.000
G1 X97.740 Y111.087 F2400.000 E12.15570
G1 X96.527 Y111.087 F7800.000
G1 X91.553 Y106.113 F2400.000 E12.51034
G1 X91.553 Y107.327 F7800.000
G1 X95.314 Y111.087 F2400.000 E12.77848
G1 X94.100 Y111.087 F7800.000
G1 X91.553 Y108.540 F2400.000 E12.96010
G1 X91.553 Y109.753 F7800.000
G1 X92.887 Y111.087 F2400.000 E13.05520
G1 F600.000 E12.55520
G92 E0
G1 X95.865 Y100.719 F7800.000
G1 F600.000 E0.50000
G1 X106.234 Y111.087 F2400.000 E1.23930
G1 X107.447 Y111.087 F7800.000
G1 X97.079 Y100.719 F2400.000 E1.97859
G1 X98.292 Y100.719 F7800.000
G1 X108.447 Y110.874 F2400.000 E2.70266
G1 X108.447 Y109.660 F7800.000
G1 X99.505 Y100.719 F2400.000 E3.34021
G1 X100.719 Y100.719 F7800.000
G1 X108.447 Y108.447 F2400.000 E3.89125
G1 X108.447 Y107.234 F7800.000
G1 X101.932 Y100.719 F2400.000 E4.35577
G1 X103.145 Y100.719 F7800.000
G1 X108.447 Y106.020 F2400.000 E4.73378
G1 X108.447 Y104.807 F7800.000
G1 X104.359 Y100.719 F2400.000 E5.02527
G1 X105.572 Y100.719 F7800.000
G1 X108.447 Y103.593 F2400.000 E5.23025
G1 X108.447 Y102.380 F7800.000
G1 X106.553 Y100.486 F2400.000 E5.36529
G1 X106.553 Y99.273 F7800.000
G1 X108.447 Y101.167 F2400.000 E5.50034
G1 X108.447 Y99.953 F7800.000
G1 X106.553 Y98.059 F2400.000 E5.63538
G1 X106.553 Y96.846 F7800.000
G1 X108.447 Y98.740 F2400.000 E5.77042
G1 X108.447 Y97.527 F7800.000
G1 X106.553 Y95.633 F2400.000 E5.90547
G1 X106.553 Y94.419 F7800.000
G1 X108.447 Y96.313 F2400.000 E6.04051
G1 X108.447 Y95.100 F7800.000
G1 X106.553 Y93.206 F2400.000 E6.17556
G1 X106.553 Y91.993 F7800.000
G1 X108.447 Y93.887 F2400.000 E6.31060
G1 X108.447 Y92.673 F7800.000
G1 X106.553 Y90.779 F2400.000 E6.44565
G1 X106.553 Y89.566 F7800.000
G1 X108.447 Y91.460 F2400.000 E6.58069
G1 X108.447 Y90.247 F7800.000
G1 X107.113 Y88.913 F2400.000 E6.67580
G1 F600.000 E6.17580
G92 E0
G1 X100.490 Y111.420 F7800.000
G1 F600.000 E0.50000
G1 X101.327 Y112.257 F3000.000 E0.55918
G1 X93.956 Y112.257 F7800.000
G1 X92.672 Y111.420 F3000.000 E0.63583
G1 F600.000 E0.13583
G92 E0
G1 Z1.600 F7800.000
G1 X90.960 Y113.958
G1 F600.000 E0.50000
G1 X90.960 Y86.042 F2400.000 E1.89576
G1 X94.040 Y86.042 E2.04975
G1 X94.040 Y100.416 E2.76844
G1 X105.960 Y100.416 E3.36441
G1 X105.960 Y86.042 E4.08310
G1 X109.040 Y86.042 E4.23709
G1 X109.040 Y113.958 E5.63285
G1 X91.098 Y113.958 E6.52989
G1 X91.553 Y110.832 F7800.000
G1 X101.376 Y101.009 F3000.000 E7.22444
G1 X97.262 Y101.009 F7800.000
G1 X91.553 Y108.797 F3000.000 E7.70718
G1 X96.564 Y113.365 F7800.000
G1 X105.534 Y101.009 F3000.000 E8.47059
G1 X106.553 Y99.374 F7800.000
G1 X108.447 Y96.930 F3000.000 E8.62519
G1 X106.553 Y95.832 F7800.000
G1 X108.447 Y93.938 F3000.000 E8.75911
G1 X106.553 Y87.787 F7800.000
G1 X107.525 Y86.635 F3000.000 E8.83449
G1 F600.000 E8.33449
G92 E0
G1 X93.447 Y89.632 F7800.000
G1 F600.000 E0.50000
G1 X91.553 Y91.526 F3000.000 E0.63392
G1 X93.447 Y94.765 F7800.000
G1 X91.553 Y97.210 F3000.000 E0.78852
G1 X93.447 Y99.285 F7800.000
G1 X91.553 Y101.179 F3000.000 E0.92244
G1 F600.000 E0.42244
G92 E0
G1 X98.673 Y113.365 F7800.000
G1 F600.000 E0.50000
G1 X108.447 Y103.592 F3000.000 E1.19107
G1 X108.447 Y108.517 F7800.000
G1 X104.836 Y113.365 F3000.000 E1.49331
G1 F600.000 E0.99331
G92 E0
G1 Z2.000 F7800.000
G1 X109.040 Y114.538
G1 F600.000 E0.50000
G1 X90.960 Y114.538 F2400.000 E1.40394
G1 X90.960 Y85.462 E2.85765
G1 X94.040 Y85.462 E3.01164
G1 X94.040 Y100.707 E3.77384
G1 X105.960 Y100.707 E4.36980
G1 X105.960 Y85.462 E5.13200
G1 X109.040 Y85.462 E5.28600
G1 X109.040 Y114.400 E6.73280
G1 X108.447 Y112.860 F7800.000
G1 X91.553 Y100.544 F3000.000 E7.77806
G1 X91.553 Y104.171 F7800.000
G1 X101.327 Y113.945 F3000.000 E8.46912
G1 X98.426 Y113.945 F7800.000
G1 X91.553 Y108.848 F3000.000 E8.89694
G1 X98.335 Y101.300 F7800.000
G1 X108.447 Y111.412 F3000.000 E9.61192
G1 X108.447 Y104.556 F7800.000
G1 X104.129 Y101.300 F3000.000 E9.88232
G1 X106.553 Y99.865 F7800.000
G1 X108.447 Y101.759 F3000.000 E10.01624
G1 X108.447 Y96.253 F7800.000
G1 X106.553 Y94.743 F3000.000 E10.13734
G1 X108.447 Y92.105 F7800.000
G1 X106.553 Y90.211 F3000.000 E10.27125
G1 X108.447 Y87.949 F7800.000
G1 X106.553 Y86.439 F3000.000 E10.39236
G1 F600.000 E9.89236
G92 E0
G1 X93.447 Y86.759 F7800.000
G1 F600.000 E0.50000
G1 X92.743 Y86.055 F3000.000 E0.54975
G1 X91.553 Y92.241 F7800.000
G1 X93.447 Y93.751 F3000.000 E0.67085
G1 X91.553 Y94.518 F7800.000
G1 X93.447 Y96.412 F3000.000 E0.80476
G1 F600.000 E0.30476
G92 E0
G1 Z2.400 F7800.000
G1 X94.040 Y100.941
G1 F600.000 E0.50000
G1 X105.960 Y100.941 F2400.000 E1.09596
G1 X105.960 Y84.988 E1.89356
G1 X109.040 Y84.988 E2.04755
G1 X109.040 Y115.012 E3.54862
G1 X90.960 Y115.012 E4.45256
G1 X90.960 Y84.988 E5.95363
G1 X94.040 Y84.988 E6.10762
G1 X94.040 Y100.803 E6.89832
G1 X93.447 Y100.338 F7800.000
G1 X91.553 Y102.232 F3000.000 E7.03224
G1 X91.553 Y98.415 F7800.000
G1 X93.447 Y96.001 F3000.000 E7.18565
G1 X91.553 Y92.579 F7800.000
G1 X93.447 Y90.685 F3000.000 E7.31956
G1 X91.553 Y86.934 F7800.000
G1 X92.677 Y85.581 F3000.000 E7.40752
G1 F600.000 E6.90752
G92 E0
G1 X106.553 Y87.232 F7800.000
