; generated by Slic3r 0.7.3-dev on 2012-05-20 at 00:13:59

; layer_height = 0.2
; perimeters = 3
; solid_layers = 3
; fill_density = 0.3
; nozzle_diameter = 0.35
; filament_diameter = 3
; extrusion_multiplier = 1
; perimeter_speed = 80
; infill_speed = 80
; travel_speed = 360
; extrusion_width_ratio = 2
; scale = 1
; single wall width = 0.40mm

M92 E860
M104 S190
M140 S60
G92 X0 Y0 Z0 E0
G0 Y-210 F21600
G0 X-200 F21600
G0 Z-100 F150
G28
M190 S60
G0 X0 Y210 F21600
M109 S185
G0 Z1 F100
G0 X100 Y105 F21600
G90 ; use absolute coordinates
G21 ; set units to millimeters
G92 E0 ; reset extrusion distance
M82 ; use absolute distances for extrusion
G1 Z0.200 F21600.000 ; move to next layer (0)
G1 X85.821 Y77.521 ; move to first skirt point
G1 F6000.000 E2.50000 ; compensate retraction
G1 X86.021 Y77.321 F2400.000 E2.50312 ; skirt
G1 X86.421 Y76.961 E2.50904 ; skirt
G1 X87.091 Y76.491 E2.51806 ; skirt
G1 X87.561 Y76.211 E2.52408 ; skirt
G1 X88.051 Y75.981 E2.53004 ; skirt
G1 X88.561 Y75.791 E2.53604 ; skirt
G1 X89.081 Y75.641 E2.54200 ; skirt
G1 X89.621 Y75.531 E2.54807 ; skirt
G1 X90.161 Y75.461 E2.55407 ; skirt
G1 X90.431 Y75.441 E2.55705 ; skirt
G1 X109.561 Y75.441 E2.76775 ; skirt
G1 X110.101 Y75.491 E2.77372 ; skirt
G1 X110.641 Y75.581 E2.77975 ; skirt
G1 X111.171 Y75.711 E2.78576 ; skirt
G1 X111.691 Y75.881 E2.79179 ; skirt
G1 X112.191 Y76.091 E2.79776 ; skirt
G1 X112.431 Y76.211 E2.80071 ; skirt
G1 X113.131 Y76.641 E2.80976 ; skirt
G1 X113.571 Y76.961 E2.81576 ; skirt
G1 X113.971 Y77.321 E2.82168 ; skirt
G1 X114.171 Y77.521 E2.82480 ; skirt
G1 X114.531 Y77.921 E2.83073 ; skirt
G1 X115.001 Y78.591 E2.83974 ; skirt
G1 X115.281 Y79.061 E2.84576 ; skirt
G1 X115.511 Y79.551 E2.85173 ; skirt
G1 X115.701 Y80.061 E2.85772 ; skirt
G1 X115.851 Y80.581 E2.86368 ; skirt
G1 X115.961 Y81.121 E2.86975 ; skirt
G1 X116.031 Y81.661 E2.87575 ; skirt
G1 X116.051 Y81.931 E2.87873 ; skirt
G1 X116.051 Y118.061 E3.27667 ; skirt
G1 X116.001 Y118.601 E3.28264 ; skirt
G1 X115.911 Y119.141 E3.28867 ; skirt
G1 X115.781 Y119.671 E3.29468 ; skirt
G1 X115.611 Y120.191 E3.30071 ; skirt
G1 X115.401 Y120.691 E3.30668 ; skirt
G1 X115.281 Y120.931 E3.30964 ; skirt
G1 X114.851 Y121.631 E3.31869 ; skirt
G1 X114.531 Y122.071 E3.32468 ; skirt
G1 X114.171 Y122.471 E3.33060 ; skirt
G1 X113.971 Y122.671 E3.33372 ; skirt
G1 X113.571 Y123.031 E3.33965 ; skirt
G1 X112.901 Y123.501 E3.34866 ; skirt
G1 X112.431 Y123.781 E3.35469 ; skirt
G1 X111.941 Y124.011 E3.36065 ; skirt
G1 X111.431 Y124.201 E3.36664 ; skirt
G1 X110.911 Y124.351 E3.37260 ; skirt
G1 X110.371 Y124.461 E3.37867 ; skirt
G1 X109.831 Y124.531 E3.38467 ; skirt
G1 X109.561 Y124.551 E3.38765 ; skirt
G1 X90.431 Y124.551 E3.59835 ; skirt
G1 X89.891 Y124.501 E3.60433 ; skirt
G1 X89.351 Y124.411 E3.61036 ; skirt
G1 X88.821 Y124.281 E3.61637 ; skirt
G1 X88.301 Y124.111 E3.62239 ; skirt
G1 X87.801 Y123.901 E3.62836 ; skirt
G1 X87.561 Y123.781 E3.63132 ; skirt
G1 X86.861 Y123.351 E3.64037 ; skirt
G1 X86.421 Y123.031 E3.64636 ; skirt
G1 X86.021 Y122.671 E3.65229 ; skirt
G1 X85.821 Y122.471 E3.65540 ; skirt
G1 X85.461 Y122.071 E3.66133 ; skirt
G1 X84.991 Y121.401 E3.67034 ; skirt
G1 X84.711 Y120.931 E3.67637 ; skirt
G1 X84.481 Y120.441 E3.68233 ; skirt
G1 X84.291 Y119.931 E3.68833 ; skirt
G1 X84.141 Y119.411 E3.69429 ; skirt
G1 X84.031 Y118.871 E3.70036 ; skirt
G1 X83.961 Y118.331 E3.70635 ; skirt
G1 X83.941 Y118.061 E3.70934 ; skirt
G1 X83.941 Y81.931 E4.10727 ; skirt
G1 X83.991 Y81.391 E4.11325 ; skirt
G1 X84.081 Y80.851 E4.11928 ; skirt
G1 X84.211 Y80.321 E4.12529 ; skirt
G1 X84.381 Y79.801 E4.13131 ; skirt
G1 X84.591 Y79.301 E4.13729 ; skirt
G1 X84.711 Y79.061 E4.14024 ; skirt
G1 X85.141 Y78.361 E4.14929 ; skirt
G1 X85.461 Y77.921 E4.15528 ; skirt
G1 X85.781 Y77.566 E4.16055 ; skirt
G1 X86.011 Y77.881 F21600.000 ; move to first skirt point
G1 X86.191 Y77.691 F2400.000 E4.16343 ; skirt
G1 X86.781 Y77.161 E4.17217 ; skirt
G1 X87.431 Y76.721 E4.18081 ; skirt
G1 X87.901 Y76.471 E4.18668 ; skirt
G1 X88.381 Y76.261 E4.19245 ; skirt
G1 X88.881 Y76.081 E4.19830 ; skirt
G1 X89.131 Y76.011 E4.20116 ; skirt
G1 X89.911 Y75.871 E4.20989 ; skirt
G1 X90.171 Y75.841 E4.21277 ; skirt
G1 X90.701 Y75.821 E4.21861 ; skirt
G1 X109.821 Y75.841 E4.42920 ; skirt
G1 X110.341 Y75.911 E4.43498 ; skirt
G1 X110.861 Y76.011 E4.44081 ; skirt
G1 X111.111 Y76.081 E4.44367 ; skirt
G1 X111.851 Y76.361 E4.45239 ; skirt
G1 X112.331 Y76.591 E4.45825 ; skirt
G1 X112.781 Y76.861 E4.46403 ; skirt
G1 X113.211 Y77.161 E4.46980 ; skirt
G1 X113.801 Y77.691 E4.47854 ; skirt
G1 X114.331 Y78.281 E4.48727 ; skirt
G1 X114.771 Y78.931 E4.49592 ; skirt
G1 X115.021 Y79.401 E4.50178 ; skirt
G1 X115.231 Y79.881 E4.50755 ; skirt
G1 X115.411 Y80.381 E4.51341 ; skirt
G1 X115.481 Y80.631 E4.51626 ; skirt
G1 X115.621 Y81.411 E4.52499 ; skirt
G1 X115.651 Y81.671 E4.52788 ; skirt
G1 X115.651 Y118.321 E4.93154 ; skirt
G1 X115.581 Y118.841 E4.93732 ; skirt
G1 X115.481 Y119.361 E4.94315 ; skirt
G1 X115.411 Y119.611 E4.94601 ; skirt
G1 X115.131 Y120.351 E4.95473 ; skirt
G1 X114.901 Y120.831 E4.96059 ; skirt
G1 X114.631 Y121.281 E4.96637 ; skirt
G1 X114.331 Y121.711 E4.97214 ; skirt
G1 X113.801 Y122.301 E4.98088 ; skirt
G1 X113.211 Y122.831 E4.98961 ; skirt
G1 X112.561 Y123.271 E4.99826 ; skirt
G1 X112.091 Y123.521 E5.00412 ; skirt
G1 X111.611 Y123.731 E5.00989 ; skirt
G1 X111.111 Y123.911 E5.01575 ; skirt
G1 X110.861 Y123.981 E5.01861 ; skirt
G1 X110.081 Y124.121 E5.02733 ; skirt
G1 X109.821 Y124.151 E5.03022 ; skirt
G1 X109.291 Y124.171 E5.03606 ; skirt
G1 X90.171 Y124.151 E5.24665 ; skirt
G1 X89.651 Y124.081 E5.25243 ; skirt
G1 X89.131 Y123.981 E5.25826 ; skirt
G1 X88.881 Y123.911 E5.26112 ; skirt
G1 X88.141 Y123.631 E5.26983 ; skirt
G1 X87.661 Y123.401 E5.27570 ; skirt
G1 X87.211 Y123.131 E5.28148 ; skirt
G1 X86.781 Y122.831 E5.28725 ; skirt
G1 X86.191 Y122.301 E5.29599 ; skirt
G1 X85.661 Y121.711 E5.30472 ; skirt
G1 X85.221 Y121.061 E5.31337 ; skirt
G1 X84.971 Y120.591 E5.31923 ; skirt
G1 X84.761 Y120.111 E5.32500 ; skirt
G1 X84.581 Y119.611 E5.33085 ; skirt
G1 X84.511 Y119.361 E5.33371 ; skirt
G1 X84.371 Y118.581 E5.34244 ; skirt
G1 X84.341 Y118.321 E5.34532 ; skirt
G1 X84.341 Y81.671 E5.74899 ; skirt
G1 X84.411 Y81.151 E5.75477 ; skirt
G1 X84.511 Y80.631 E5.76060 ; skirt
G1 X84.581 Y80.381 E5.76346 ; skirt
G1 X84.861 Y79.641 E5.77217 ; skirt
G1 X85.091 Y79.161 E5.77804 ; skirt
G1 X85.361 Y78.711 E5.78382 ; skirt
G1 X85.661 Y78.281 E5.78959 ; skirt
G1 X85.971 Y77.926 E5.79479 ; skirt
G1 X86.371 Y78.051 F21600.000 ; move to first skirt point
G1 X86.551 Y77.871 F2400.000 E5.79759 ; skirt
G1 X86.931 Y77.531 E5.80320 ; skirt
G1 X87.551 Y77.091 E5.81158 ; skirt
G1 X87.771 Y76.961 E5.81439 ; skirt
G1 X88.231 Y76.731 E5.82006 ; skirt
G1 X88.701 Y76.541 E5.82564 ; skirt
G1 X89.191 Y76.391 E5.83129 ; skirt
G1 X89.441 Y76.331 E5.83412 ; skirt
G1 X90.191 Y76.221 E5.84247 ; skirt
G1 X90.701 Y76.201 E5.84809 ; skirt
G1 X109.801 Y76.221 E6.05846 ; skirt
G1 X110.551 Y76.331 E6.06681 ; skirt
G1 X111.051 Y76.461 E6.07250 ; skirt
G1 X111.531 Y76.631 E6.07810 ; skirt
G1 X111.991 Y76.841 E6.08367 ; skirt
G1 X112.221 Y76.961 E6.08653 ; skirt
G1 X112.441 Y77.091 E6.08935 ; skirt
G1 X113.061 Y77.531 E6.09772 ; skirt
G1 X113.441 Y77.871 E6.10334 ; skirt
G1 X113.621 Y78.051 E6.10614 ; skirt
G1 X113.961 Y78.431 E6.11175 ; skirt
G1 X114.401 Y79.051 E6.12013 ; skirt
G1 X114.531 Y79.271 E6.12294 ; skirt
G1 X114.761 Y79.731 E6.12861 ; skirt
G1 X114.951 Y80.201 E6.13419 ; skirt
G1 X115.101 Y80.691 E6.13984 ; skirt
G1 X115.161 Y80.941 E6.14267 ; skirt
G1 X115.271 Y81.691 E6.15102 ; skirt
G1 X115.271 Y118.301 E6.55424 ; skirt
G1 X115.161 Y119.051 E6.56259 ; skirt
G1 X115.031 Y119.551 E6.56828 ; skirt
G1 X114.861 Y120.031 E6.57389 ; skirt
G1 X114.651 Y120.491 E6.57946 ; skirt
G1 X114.531 Y120.721 E6.58232 ; skirt
G1 X114.401 Y120.941 E6.58513 ; skirt
G1 X113.961 Y121.561 E6.59350 ; skirt
G1 X113.621 Y121.941 E6.59912 ; skirt
G1 X113.441 Y122.121 E6.60192 ; skirt
G1 X113.061 Y122.461 E6.60754 ; skirt
G1 X112.441 Y122.901 E6.61591 ; skirt
G1 X112.221 Y123.031 E6.61873 ; skirt
G1 X111.761 Y123.261 E6.62439 ; skirt
G1 X111.291 Y123.451 E6.62998 ; skirt
G1 X110.801 Y123.601 E6.63562 ; skirt
G1 X110.551 Y123.661 E6.63845 ; skirt
G1 X109.801 Y123.771 E6.64680 ; skirt
G1 X109.291 Y123.791 E6.65242 ; skirt
G1 X90.191 Y123.771 E6.86279 ; skirt
G1 X89.441 Y123.661 E6.87114 ; skirt
G1 X88.941 Y123.531 E6.87683 ; skirt
G1 X88.461 Y123.361 E6.88244 ; skirt
G1 X88.001 Y123.151 E6.88801 ; skirt
G1 X87.771 Y123.031 E6.89087 ; skirt
G1 X87.551 Y122.901 E6.89368 ; skirt
G1 X86.931 Y122.461 E6.90205 ; skirt
G1 X86.551 Y122.121 E6.90767 ; skirt
G1 X86.371 Y121.941 E6.91047 ; skirt
G1 X86.031 Y121.561 E6.91609 ; skirt
G1 X85.591 Y120.941 E6.92446 ; skirt
G1 X85.461 Y120.721 E6.92728 ; skirt
G1 X85.231 Y120.261 E6.93294 ; skirt
G1 X85.041 Y119.791 E6.93853 ; skirt
G1 X84.891 Y119.301 E6.94417 ; skirt
G1 X84.831 Y119.051 E6.94700 ; skirt
G1 X84.721 Y118.301 E6.95535 ; skirt
G1 X84.721 Y81.691 E7.35858 ; skirt
G1 X84.831 Y80.941 E7.36693 ; skirt
G1 X84.961 Y80.441 E7.37262 ; skirt
G1 X85.131 Y79.961 E7.37822 ; skirt
G1 X85.341 Y79.501 E7.38379 ; skirt
G1 X85.461 Y79.271 E7.38665 ; skirt
G1 X85.591 Y79.051 E7.38947 ; skirt
G1 X86.031 Y78.431 E7.39784 ; skirt
G1 X86.331 Y78.096 E7.40279 ; skirt
G1 F6000.000 E5.40279 ; retract
G1 Z0.400 F21600.000 ; lift plate during retraction
G92 E0
G1 X91.462 Y117.038 ; move to first perimeter point
G1 Z0.200 ; restore layer Z
G1 F6000.000 E2.50000 ; compensate retraction
G1 X91.462 Y82.962 F2400.000 E2.87532 ; perimeter
G1 X93.540 Y82.962 E2.89822 ; perimeter
G1 X93.540 Y99.972 E3.08557 ; perimeter
G1 X106.462 Y99.972 E3.22789 ; perimeter
G1 X106.462 Y82.962 E3.41525 ; perimeter
G1 X108.538 Y82.962 E3.43812 ; perimeter
G1 X108.538 Y117.038 E3.81344 ; perimeter
G1 X91.522 Y117.038 E4.00086 ; perimeter
G1 X91.081 Y117.419 F21600.000 ; move to first perimeter point
G1 X91.081 Y82.581 F2400.000 E4.38456 ; perimeter
G1 X93.921 Y82.581 E4.41584 ; perimeter
G1 X93.921 Y99.592 E4.60319 ; perimeter
G1 X106.081 Y99.592 E4.73713 ; perimeter
G1 X106.081 Y82.581 E4.92449 ; perimeter
G1 X108.919 Y82.581 E4.95574 ; perimeter
G1 X108.919 Y117.419 E5.33944 ; perimeter
G1 X91.141 Y117.419 E5.53524 ; perimeter
G1 X90.701 Y117.799 F21600.000 ; move to first perimeter point
G1 X90.701 Y82.201 F2400.000 E5.92732 ; perimeter
G1 X94.301 Y82.201 E5.96697 ; perimeter
G1 X94.301 Y99.212 E6.15433 ; perimeter
G1 X105.701 Y99.212 E6.27989 ; perimeter
G1 X105.701 Y82.201 E6.46725 ; perimeter
G1 X109.299 Y82.201 E6.50687 ; perimeter
G1 X109.299 Y117.799 E6.89895 ; perimeter
G1 X90.761 Y117.799 E7.10313 ; perimeter
G1 X91.955 Y116.771 F21600.000 ; move to first fill point
G1 X91.729 Y116.545 F2400.000 E7.10668 ; fill
G1 X91.729 Y116.005 E7.11264 ; fill
G1 X92.495 Y116.771 E7.12463 ; fill
G1 X93.034 Y116.771 E7.13060 ; fill
G1 X91.729 Y115.466 E7.15102 ; fill
G1 X91.729 Y114.926 E7.15699 ; fill
G1 X93.574 Y116.771 E7.18585 ; fill
G1 X94.113 Y116.771 E7.19182 ; fill
G1 X91.729 Y114.387 E7.22912 ; fill
G1 X91.729 Y113.847 E7.23509 ; fill
G1 X94.653 Y116.771 E7.28084 ; fill
G1 X95.192 Y116.771 E7.28681 ; fill
G1 X91.729 Y113.308 E7.34099 ; fill
G1 X91.729 Y112.768 E7.34696 ; fill
G1 X95.732 Y116.771 E7.40959 ; fill
G1 X96.271 Y116.771 E7.41555 ; fill
G1 X91.729 Y112.229 E7.48662 ; fill
G1 X91.729 Y111.689 E7.49259 ; fill
G1 X96.811 Y116.771 E7.57209 ; fill
G1 X97.350 Y116.771 E7.57806 ; fill
G1 X91.729 Y111.150 E7.66601 ; fill
G1 X91.729 Y110.610 E7.67198 ; fill
G1 X97.890 Y116.771 E7.76836 ; fill
G1 X98.429 Y116.771 E7.77433 ; fill
G1 X91.729 Y110.071 E7.87916 ; fill
G1 X91.729 Y109.532 E7.88513 ; fill
G1 X98.969 Y116.771 E7.99840 ; fill
G1 X99.508 Y116.771 E8.00436 ; fill
G1 X91.729 Y108.992 E8.12607 ; fill
G1 X91.729 Y108.453 E8.13204 ; fill
G1 X100.047 Y116.771 E8.26219 ; fill
G1 X100.587 Y116.771 E8.26816 ; fill
G1 X91.729 Y107.913 E8.40675 ; fill
G1 X91.729 Y107.374 E8.41272 ; fill
G1 X101.126 Y116.771 E8.55974 ; fill
G1 X101.666 Y116.771 E8.56571 ; fill
G1 X91.729 Y106.834 E8.72118 ; fill
G1 X91.729 Y106.295 E8.72715 ; fill
G1 X102.205 Y116.771 E8.89106 ; fill
G1 X102.745 Y116.771 E8.89703 ; fill
G1 X91.729 Y105.755 E9.06938 ; fill
G1 X91.729 Y105.216 E9.07535 ; fill
G1 X103.284 Y116.771 E9.25614 ; fill
G1 X103.824 Y116.771 E9.26211 ; fill
G1 X91.729 Y104.676 E9.45134 ; fill
G1 X91.729 Y104.137 E9.45731 ; fill
G1 X104.363 Y116.771 E9.65498 ; fill
G1 X104.903 Y116.771 E9.66094 ; fill
G1 X91.729 Y103.597 E9.86706 ; fill
G1 X91.729 Y103.058 E9.87303 ; fill
G1 X105.442 Y116.771 E10.08758 ; fill
G1 X105.982 Y116.771 E10.09355 ; fill
G1 X91.729 Y102.518 E10.31654 ; fill
G1 X91.729 Y101.979 E10.32251 ; fill
G1 X106.521 Y116.771 E10.55394 ; fill
G1 X107.061 Y116.771 E10.55991 ; fill
G1 X91.729 Y101.439 E10.79978 ; fill
G1 X91.729 Y100.900 E10.80575 ; fill
G1 X107.600 Y116.771 E11.05406 ; fill
G1 X108.140 Y116.771 E11.06003 ; fill
G1 X91.729 Y100.360 E11.31678 ; fill
G1 X91.729 Y99.821 E11.32275 ; fill
G1 X108.271 Y116.363 E11.58156 ; fill
G1 X108.271 Y115.824 E11.58753 ; fill
G1 X91.729 Y99.281 E11.84635 ; fill
G1 X91.729 Y98.742 E11.85231 ; fill
G1 X93.273 Y100.286 E11.87648 ; fill
G1 X93.226 Y100.240 F21600.000 ; move to first fill point
G1 X108.271 Y115.284 F2400.000 E12.11186 ; fill
G1 X108.271 Y114.745 E12.11783 ; fill
G1 X93.766 Y100.240 E12.34477 ; fill
G1 X94.305 Y100.240 E12.35074 ; fill
G1 X108.271 Y114.205 E12.56924 ; fill
G1 X108.271 Y113.666 E12.57521 ; fill
G1 X94.845 Y100.240 E12.78527 ; fill
G1 X95.384 Y100.240 E12.79124 ; fill
G1 X108.271 Y113.126 E12.99286 ; fill
G1 X108.271 Y112.587 E12.99883 ; fill
G1 X95.924 Y100.240 E13.19201 ; fill
G1 X96.463 Y100.240 E13.19798 ; fill
G1 X108.271 Y112.047 E13.38272 ; fill
G1 X108.271 Y111.508 E13.38869 ; fill
G1 X97.003 Y100.240 E13.56499 ; fill
G1 X97.542 Y100.240 E13.57096 ; fill
G1 X108.271 Y110.969 E13.73882 ; fill
G1 X108.271 Y110.429 E13.74479 ; fill
G1 X98.082 Y100.240 E13.90420 ; fill
G1 X98.621 Y100.240 E13.91017 ; fill
G1 X108.271 Y109.890 E14.06115 ; fill
G1 X108.271 Y109.350 E14.06712 ; fill
G1 X99.161 Y100.240 E14.20966 ; fill
G1 X99.700 Y100.240 E14.21563 ; fill
G1 X108.271 Y108.811 E14.34973 ; fill
G1 X108.271 Y108.271 E14.35570 ; fill
G1 X100.240 Y100.240 E14.48136 ; fill
G1 X100.779 Y100.240 E14.48732 ; fill
G1 X108.271 Y107.732 E14.60454 ; fill
G1 X108.271 Y107.192 E14.61051 ; fill
G1 X101.319 Y100.240 E14.71929 ; fill
G1 X101.858 Y100.240 E14.72526 ; fill
G1 X108.271 Y106.653 E14.82559 ; fill
G1 X108.271 Y106.113 E14.83156 ; fill
G1 X102.397 Y100.240 E14.92346 ; fill
G1 X102.937 Y100.240 E14.92943 ; fill
G1 X108.271 Y105.574 E15.01288 ; fill
G1 X108.271 Y105.034 E15.01885 ; fill
G1 X103.476 Y100.240 E15.09387 ; fill
G1 X104.016 Y100.240 E15.09984 ; fill
G1 X108.271 Y104.495 E15.16642 ; fill
G1 X108.271 Y103.955 E15.17238 ; fill
G1 X104.555 Y100.240 E15.23052 ; fill
G1 X105.095 Y100.240 E15.23649 ; fill
G1 X108.271 Y103.416 E15.28618 ; fill
G1 X108.271 Y102.876 E15.29215 ; fill
G1 X105.634 Y100.240 E15.33341 ; fill
G1 X106.174 Y100.240 E15.33937 ; fill
G1 X108.271 Y102.337 E15.37219 ; fill
G1 X108.271 Y101.797 E15.37816 ; fill
G1 X106.713 Y100.240 E15.40253 ; fill
G1 X106.729 Y99.716 E15.40833 ; fill
G1 X108.271 Y101.258 E15.43246 ; fill
G1 X108.271 Y100.719 E15.43843 ; fill
G1 X106.729 Y99.176 E15.46256 ; fill
G1 X106.729 Y98.637 E15.46853 ; fill
G1 X108.271 Y100.179 E15.49266 ; fill
G1 X108.271 Y99.640 E15.49863 ; fill
G1 X106.729 Y98.097 E15.52276 ; fill
G1 X106.729 Y97.558 E15.52873 ; fill
G1 X108.271 Y99.100 E15.55286 ; fill
G1 X108.271 Y98.561 E15.55882 ; fill
G1 X106.729 Y97.018 E15.58295 ; fill
G1 X106.729 Y96.479 E15.58892 ; fill
G1 X108.271 Y98.021 E15.61305 ; fill
G1 X108.271 Y97.482 E15.61902 ; fill
G1 X106.729 Y95.939 E15.64315 ; fill
G1 X106.729 Y95.400 E15.64912 ; fill
G1 X108.271 Y96.942 E15.67325 ; fill
G1 X108.271 Y96.403 E15.67922 ; fill
G1 X106.729 Y94.860 E15.70335 ; fill
G1 X106.729 Y94.321 E15.70932 ; fill
G1 X108.271 Y95.863 E15.73345 ; fill
G1 X108.271 Y95.324 E15.73942 ; fill
