; generated by Slic3r 0.7.2b on 2012-05-11 at 21:41:58

; layer_height = 0.4
; perimeters = 1
; solid_layers = 3
; fill_density = 0.25
; nozzle_diameter = 0.75
; filament_diameter = 3
; extrusion_multiplier = 1
; perimeter_speed = 60
; infill_speed = 95
; travel_speed = 130
; extrusion_width_ratio = 2.3
; scale = 1
; single wall width = 0.92mm

M104 S230 ; set temperature
M92 E380
G92 X0 Y0 Z0  E0.0
G1 Z2.0 F150.0
G1 X-250.0 F2100.0
G1 X-249.0 F300.0
G1 X-251.0 F100.0
G92 X3.0
G1 Y-250.0 F2100.0
G1 Y-249.0 F300.0
G1 Y-251.0 F300.0
G92 Y10.0
G1 Y70.0 F2100.0
G1 Z-250.0 F150.0
G1 Z-249.0 F50.0
G1 Z-251.0 F50.0
G1 Y75.0 E2.0  F1000.0
G1 Y100.0 E2.3  F1000.0
G92 Z0.3
G92 E0.0
M106 S70
M107
M109 S230 ; wait for temperature to be reached
G90 ; use absolute coordinates
G21 ; set units to millimeters
G92 E0 ; reset extrusion distance
M82 ; use absolute distances for extrusion
G1 Z0.400 F7800.000
G1 X74.132 Y78.311
G1 F600.000 E0.50000
G1 X74.312 Y78.131 F2880.000 E0.51273
G1 X74.692 Y77.791 E0.53822
G1 X75.312 Y77.351 E0.57623
G1 X75.532 Y77.221 E0.58901
G1 X75.992 Y76.991 E0.61472
G1 X76.462 Y76.801 E0.64007
G1 X76.952 Y76.651 E0.66569
G1 X77.202 Y76.591 E0.67854
G1 X77.952 Y76.481 E0.71644
G1 X78.462 Y76.461 E0.74196
G1 X122.042 Y76.481 E2.92082
G1 X122.792 Y76.591 E2.95872
G1 X123.292 Y76.721 E2.98455
G1 X123.772 Y76.891 E3.01001
G1 X124.232 Y77.101 E3.03529
G1 X124.462 Y77.221 E3.04826
G1 X124.682 Y77.351 E3.06104
G1 X125.302 Y77.791 E3.09905
G1 X125.682 Y78.131 E3.12454
G1 X125.862 Y78.311 E3.13727
G1 X126.202 Y78.691 E3.16276
G1 X126.642 Y79.311 E3.20077
G1 X126.772 Y79.531 E3.21355
G1 X127.002 Y79.991 E3.23926
G1 X127.192 Y80.461 E3.26461
G1 X127.342 Y80.951 E3.29023
G1 X127.402 Y81.201 E3.30308
G1 X127.512 Y81.951 E3.34098
G1 X127.512 Y118.041 E5.14537
G1 X127.402 Y118.791 E5.18327
G1 X127.272 Y119.291 E5.20910
G1 X127.102 Y119.771 E5.23456
G1 X126.892 Y120.231 E5.25984
G1 X126.772 Y120.461 E5.27281
G1 X126.642 Y120.681 E5.28559
G1 X126.202 Y121.301 E5.32360
G1 X125.862 Y121.681 E5.34909
G1 X125.682 Y121.861 E5.36182
G1 X125.302 Y122.201 E5.38731
G1 X124.682 Y122.641 E5.42532
G1 X124.462 Y122.771 E5.43810
G1 X124.002 Y123.001 E5.46381
G1 X123.532 Y123.191 E5.48916
G1 X123.042 Y123.341 E5.51478
G1 X122.792 Y123.401 E5.52763
G1 X122.042 Y123.511 E5.56553
G1 X121.532 Y123.531 E5.59105
G1 X77.952 Y123.511 E7.76991
G1 X77.202 Y123.401 E7.80781
G1 X76.702 Y123.271 E7.83364
G1 X76.222 Y123.101 E7.85910
G1 X75.762 Y122.891 E7.88438
G1 X75.532 Y122.771 E7.89735
G1 X75.312 Y122.641 E7.91013
G1 X74.692 Y122.201 E7.94814
G1 X74.312 Y121.861 E7.97363
G1 X74.132 Y121.681 E7.98636
G1 X73.792 Y121.301 E8.01185
G1 X73.352 Y120.681 E8.04986
G1 X73.222 Y120.461 E8.06264
G1 X72.992 Y120.001 E8.08835
G1 X72.802 Y119.531 E8.11370
G1 X72.652 Y119.041 E8.13932
G1 X72.592 Y118.791 E8.15217
G1 X72.482 Y118.041 E8.19007
G1 X72.482 Y81.951 E9.99446
G1 X72.592 Y81.201 E10.03236
G1 X72.722 Y80.701 E10.05819
G1 X72.892 Y80.221 E10.08365
G1 X73.102 Y79.761 E10.10893
G1 X73.222 Y79.531 E10.12190
G1 X73.352 Y79.311 E10.13468
G1 X73.792 Y78.691 E10.17269
G1 X74.040 Y78.414 E10.19128
G1 F600.000 E9.69128
G92 E0
G1 X78.462 Y82.461 F7800.000
G1 F600.000 E0.50000
G1 X81.542 Y82.461 F2880.000 E0.65399
G1 X81.542 Y99.544 E1.50811
G1 X93.462 Y99.544 E2.10407
G1 X93.462 Y82.461 E2.95819
G1 X96.540 Y82.461 E3.11208
G1 X96.540 Y117.539 E4.86587
G1 X78.462 Y117.539 E5.76971
G1 X78.462 Y82.599 E7.51660
G1 X79.055 Y83.541 F7800.000
G1 X80.949 Y85.435 F4560.000 E7.65491
G1 X80.949 Y84.202 F7800.000
G1 X79.801 Y83.054 F4560.000 E7.73876
G1 X79.055 Y84.774 F7800.000
G1 X80.949 Y86.668 F4560.000 E7.87707
G1 X80.949 Y87.901 F7800.000
G1 X79.055 Y86.007 F4560.000 E8.01538
G1 X79.055 Y87.239 F7800.000
G1 X80.949 Y89.133 F4560.000 E8.15369
G1 X80.949 Y90.366 F7800.000
G1 X79.055 Y88.472 F4560.000 E8.29200
G1 X79.055 Y89.705 F7800.000
G1 X80.949 Y91.599 F4560.000 E8.43031
G1 X80.949 Y92.832 F7800.000
G1 X79.055 Y90.938 F4560.000 E8.56862
G1 X79.055 Y92.170 F7800.000
G1 X80.949 Y94.064 F4560.000 E8.70693
G1 X80.949 Y95.297 F7800.000
G1 X79.055 Y93.403 F4560.000 E8.84524
G1 X79.055 Y94.636 F7800.000
G1 X80.949 Y96.530 F4560.000 E8.98355
G1 X80.949 Y97.763 F7800.000
G1 X79.055 Y95.869 F4560.000 E9.12187
G1 X79.055 Y97.101 F7800.000
G1 X80.949 Y98.995 F4560.000 E9.26018
G1 X80.858 Y100.137 F7800.000
G1 X95.947 Y115.226 F4560.000 E10.36204
G1 X95.947 Y116.459 F7800.000
G1 X79.055 Y99.567 F4560.000 E11.59559
G1 X79.055 Y100.800 F7800.000
G1 X95.201 Y116.946 F4560.000 E12.77469
G1 X93.969 Y116.946 F7800.000
G1 X79.055 Y102.032 F4560.000 E13.86376
G1 X79.055 Y103.265 F7800.000
G1 X92.736 Y116.946 F4560.000 E14.86280
G1 X91.503 Y116.946 F7800.000
G1 X79.055 Y104.498 F4560.000 E15.77183
G1 X79.055 Y105.731 F7800.000
G1 X90.270 Y116.946 F4560.000 E16.59083
G1 X89.038 Y116.946 F7800.000
G1 X79.055 Y106.964 F4560.000 E17.31981
G1 X79.055 Y108.196 F7800.000
G1 X87.805 Y116.946 F4560.000 E17.95877
G1 X86.572 Y116.946 F7800.000
G1 X79.055 Y109.429 F4560.000 E18.50770
G1 X79.055 Y110.662 F7800.000
G1 X85.339 Y116.946 F4560.000 E18.96661
G1 X84.106 Y116.946 F7800.000
G1 X79.055 Y111.894 F4560.000 E19.33550
G1 X79.055 Y113.127 F7800.000
G1 X82.874 Y116.946 F4560.000 E19.61436
G1 X81.641 Y116.946 F7800.000
G1 X79.055 Y114.360 F4560.000 E19.80321
G1 X79.055 Y115.593 F7800.000
G1 X80.408 Y116.946 F4560.000 E19.90202
G1 F600.000 E19.40202
G92 E0
G1 X95.947 Y113.993 F7800.000
G1 F600.000 E0.50000
G1 X82.091 Y100.137 F4560.000 E1.51184
G1 X80.949 Y100.228 F7800.000
G1 X79.055 Y98.334 F4560.000 E1.65015
G1 X83.324 Y100.137 F7800.000
G1 X95.947 Y112.761 F4560.000 E2.57197
G1 X95.947 Y111.528 F7800.000
G1 X84.557 Y100.137 F4560.000 E3.40376
G1 X85.789 Y100.137 F7800.000
G1 X95.947 Y110.295 F4560.000 E4.14554
G1 X95.947 Y109.062 F7800.000
G1 X87.022 Y100.137 F4560.000 E4.79730
G1 X88.255 Y100.137 F7800.000
G1 X95.947 Y107.830 F4560.000 E5.35903
G1 X95.947 Y106.597 F7800.000
G1 X89.488 Y100.137 F4560.000 E5.83074
G1 X90.720 Y100.137 F7800.000
G1 X95.947 Y105.364 F4560.000 E6.21242
G1 X95.947 Y104.131 F7800.000
G1 X91.953 Y100.137 F4560.000 E6.50408
G1 X93.186 Y100.137 F7800.000
G1 X95.947 Y102.899 F4560.000 E6.70572
G1 X95.947 Y101.666 F7800.000
G1 X94.055 Y99.774 F4560.000 E6.84389
G1 X94.055 Y98.541 F7800.000
G1 X95.947 Y100.433 F4560.000 E6.98205
G1 X95.947 Y99.200 F7800.000
G1 X94.055 Y97.308 F4560.000 E7.12022
G1 X94.055 Y96.076 F7800.000
G1 X95.947 Y97.968 F4560.000 E7.25838
G1 X95.947 Y96.735 F7800.000
G1 X94.055 Y94.843 F4560.000 E7.39654
G1 X94.055 Y93.610 F7800.000
G1 X95.947 Y95.502 F4560.000 E7.53470
G1 X95.947 Y94.269 F7800.000
G1 X94.055 Y92.377 F4560.000 E7.67286
G1 X94.055 Y91.145 F7800.000
G1 X95.947 Y93.037 F4560.000 E7.81103
G1 X95.947 Y91.804 F7800.000
G1 X94.055 Y89.912 F4560.000 E7.94919
G1 X94.055 Y88.679 F7800.000
G1 X95.947 Y90.571 F4560.000 E8.08736
G1 X95.947 Y89.338 F7800.000
G1 X94.055 Y87.446 F4560.000 E8.22552
G1 X94.055 Y86.213 F7800.000
G1 X95.947 Y88.105 F4560.000 E8.36369
G1 X95.947 Y86.873 F7800.000
G1 X94.055 Y84.981 F4560.000 E8.50185
G1 X94.055 Y83.748 F7800.000
G1 X95.947 Y85.640 F4560.000 E8.64002
G1 X95.947 Y84.407 F7800.000
G1 X94.594 Y83.054 F4560.000 E8.73883
G1 F600.000 E8.23883
G92 E0
G1 X118.460 Y82.461 F7800.000
G1 F600.000 E0.50000
G1 X121.538 Y82.461 F2880.000 E0.65389
G1 X121.538 Y117.539 E2.40768
G1 X103.460 Y117.539 E3.31152
G1 X103.460 Y82.461 E5.06531
G1 X106.540 Y82.461 E5.21931
G1 X106.540 Y99.544 E6.07342
G1 X118.460 Y99.544 E6.66938
G1 X118.460 Y82.599 E7.51660
G1 X119.592 Y83.054 F7800.000
G1 X120.945 Y84.407 F4560.000 E7.61542
G1 X120.945 Y85.640 F7800.000
G1 X119.053 Y83.748 F4560.000 E7.75358
G1 X119.053 Y84.981 F7800.000
G1 X120.945 Y86.873 F4560.000 E7.89175
G1 X120.945 Y88.105 F7800.000
G1 X119.053 Y86.213 F4560.000 E8.02991
G1 X119.053 Y87.446 F7800.000
G1 X120.945 Y89.338 F4560.000 E8.16808
G1 X120.945 Y90.571 F7800.000
G1 X119.053 Y88.679 F4560.000 E8.30624
G1 X119.053 Y89.912 F7800.000
G1 X120.945 Y91.804 F4560.000 E8.44441
G1 X120.945 Y93.037 F7800.000
G1 X119.053 Y91.145 F4560.000 E8.58257
G1 X119.053 Y92.377 F7800.000
G1 X120.945 Y94.269 F4560.000 E8.72073
G1 X120.945 Y95.502 F7800.000
G1 X119.053 Y93.610 F4560.000 E8.85889
G1 X119.053 Y94.843 F7800.000
G1 X120.945 Y96.735 F4560.000 E8.99705
G1 X120.945 Y97.968 F7800.000
G1 X119.053 Y96.076 F4560.000 E9.13522
G1 X119.053 Y97.308 F7800.000
G1 X120.945 Y99.200 F4560.000 E9.27338
G1 X120.945 Y100.433 F7800.000
G1 X119.053 Y98.541 F4560.000 E9.41155
G1 X119.053 Y99.774 F7800.000
G1 X120.945 Y101.666 F4560.000 E9.54971
G1 X120.945 Y102.899 F7800.000
G1 X118.184 Y100.137 F4560.000 E9.75135
G1 X116.951 Y100.137 F7800.000
G1 X120.945 Y104.131 F4560.000 E10.04301
G1 X120.945 Y105.364 F7800.000
G1 X115.718 Y100.137 F4560.000 E10.42470
G1 X114.486 Y100.137 F7800.000
G1 X120.945 Y106.597 F4560.000 E10.89641
G1 X120.945 Y107.830 F7800.000
G1 X113.253 Y100.137 F4560.000 E11.45814
G1 X112.020 Y100.137 F7800.000
G1 X120.945 Y109.062 F4560.000 E12.10990
G1 X120.945 Y110.295 F7800.000
G1 X110.787 Y100.137 F4560.000 E12.85167
G1 X109.555 Y100.137 F7800.000
G1 X120.945 Y111.528 F4560.000 E13.68347
G1 X120.945 Y112.761 F7800.000
G1 X108.322 Y100.137 F4560.000 E14.60528
G1 X107.089 Y100.137 F7800.000
G1 X120.945 Y113.993 F4560.000 E15.61713
G1 X120.945 Y115.226 F7800.000
G1 X105.856 Y100.137 F4560.000 E16.71899
G1 X105.947 Y100.228 F7800.000
G1 X104.053 Y98.334 F4560.000 E16.85730
G1 X104.053 Y97.101 F7800.000
G1 X105.947 Y98.995 F4560.000 E16.99561
G1 X105.947 Y97.763 F7800.000
G1 X104.053 Y95.869 F4560.000 E17.13393
G1 X104.053 Y94.636 F7800.000
G1 X105.947 Y96.530 F4560.000 E17.27223
G1 X105.947 Y95.297 F7800.000
G1 X104.053 Y93.403 F4560.000 E17.41054
G1 X104.053 Y92.170 F7800.000
G1 X105.947 Y94.064 F4560.000 E17.54885
G1 X105.947 Y92.832 F7800.000
G1 X104.053 Y90.938 F4560.000 E17.68716
G1 X104.053 Y89.705 F7800.000
G1 X105.947 Y91.599 F4560.000 E17.82547
G1 X105.947 Y90.366 F7800.000
G1 X104.053 Y88.472 F4560.000 E17.96378
G1 X104.053 Y87.239 F7800.000
G1 X105.947 Y89.133 F4560.000 E18.10209
G1 X105.947 Y87.901 F7800.000
G1 X104.053 Y86.007 F4560.000 E18.24040
G1 X104.053 Y84.774 F7800.000
G1 X105.947 Y86.668 F4560.000 E18.37871
G1 X105.947 Y85.435 F7800.000
G1 X104.053 Y83.541 F4560.000 E18.51702
G1 X104.799 Y83.054 F7800.000
G1 X105.947 Y84.202 F4560.000 E18.60087
G1 F600.000 E18.10087
G92 E0
G1 X104.053 Y99.567 F7800.000
G1 F600.000 E0.50000
G1 X120.945 Y116.459 F4560.000 E1.73355
G1 X120.199 Y116.946 F7800.000
G1 X104.053 Y100.800 F4560.000 E2.91264
G1 X104.053 Y102.032 F7800.000
G1 X118.967 Y116.946 F4560.000 E4.00171
G1 X117.734 Y116.946 F7800.000
G1 X104.053 Y103.265 F4560.000 E5.00076
G1 X104.053 Y104.498 F7800.000
G1 X116.501 Y116.946 F4560.000 E5.90979
G1 X115.268 Y116.946 F7800.000
G1 X104.053 Y105.731 F4560.000 E6.72879
G1 X104.053 Y106.964 F7800.000
G1 X114.036 Y116.946 F4560.000 E7.45777
G1 X112.803 Y116.946 F7800.000
G1 X104.053 Y108.196 F4560.000 E8.09673
G1 X104.053 Y109.429 F7800.000
G1 X111.570 Y116.946 F4560.000 E8.64566
G1 X110.337 Y116.946 F7800.000
G1 X104.053 Y110.662 F4560.000 E9.10457
G1 X104.053 Y111.894 F7800.000
G1 X109.104 Y116.946 F4560.000 E9.47346
G1 X107.872 Y116.946 F7800.000
G1 X104.053 Y113.127 F4560.000 E9.75232
G1 X104.053 Y114.360 F7800.000
G1 X106.639 Y116.946 F4560.000 E9.94116
G1 X105.406 Y116.946 F7800.000
G1 X104.053 Y115.593 F4560.000 E10.03998
G1 F600.000 E9.53998
G92 E0
G1 Z0.800 F7800.000
G1 X78.462 Y117.539
G1 F600.000 E0.50000
G1 X78.462 Y82.461 F3600.000 E2.25379
G1 X81.542 Y82.461 E2.40778
G1 X81.542 Y99.835 E3.27644
G1 X93.462 Y99.835 E3.87240
G1 X93.462 Y82.461 E4.74105
G1 X96.540 Y82.461 E4.89495
G1 X96.540 Y117.539 E6.64874
G1 X78.600 Y117.539 E7.54568
G1 X79.055 Y116.459 F7800.000
G1 X95.947 Y99.567 F5700.000 E8.77922
G1 X95.947 Y100.800 F7800.000
G1 X79.801 Y116.946 F5700.000 E9.95832
G1 X81.033 Y116.946 F7800.000
G1 X95.947 Y102.032 F5700.000 E11.04739
G1 X95.947 Y103.265 F7800.000
G1 X82.266 Y116.946 F5700.000 E12.04645
G1 X83.499 Y116.946 F7800.000
G1 X95.947 Y104.498 F5700.000 E12.95547
G1 X95.947 Y105.731 F7800.000
G1 X84.732 Y116.946 F5700.000 E13.77448
G1 X85.964 Y116.946 F7800.000
G1 X95.947 Y106.963 F5700.000 E14.50346
G1 X95.947 Y108.196 F7800.000
G1 X87.197 Y116.946 F5700.000 E15.14241
G1 X88.430 Y116.946 F7800.000
G1 X95.947 Y109.429 F5700.000 E15.69134
G1 X95.947 Y110.662 F7800.000
G1 X89.663 Y116.946 F5700.000 E16.15025
G1 X90.896 Y116.946 F7800.000
G1 X95.947 Y111.895 F5700.000 E16.51914
G1 X95.947 Y113.127 F7800.000
G1 X92.128 Y116.946 F5700.000 E16.79800
G1 X93.361 Y116.946 F7800.000
G1 X95.947 Y114.360 F5700.000 E16.98684
G1 X95.947 Y115.593 F7800.000
G1 X94.594 Y116.946 F5700.000 E17.08566
G1 F600.000 E16.58566
G92 E0
G1 X79.055 Y115.226 F7800.000
G1 F600.000 E0.50000
G1 X93.853 Y100.428 F5700.000 E1.58063
G1 X94.055 Y100.226 F7800.000
G1 X95.947 Y98.334 F5700.000 E1.71880
G1 X95.947 Y97.101 F7800.000
G1 X94.055 Y98.993 F5700.000 E1.85696
G1 X94.055 Y97.761 F7800.000
G1 X95.947 Y95.869 F5700.000 E1.99513
G1 X95.947 Y94.636 F7800.000
G1 X94.055 Y96.528 F5700.000 E2.13329
G1 X94.055 Y95.295 F7800.000
G1 X95.947 Y93.403 F5700.000 E2.27146
G1 X95.947 Y92.170 F7800.000
G1 X94.055 Y94.062 F5700.000 E2.40962
G1 X94.055 Y92.829 F7800.000
G1 X95.947 Y90.937 F5700.000 E2.54779
G1 X95.947 Y89.705 F7800.000
G1 X94.055 Y91.597 F5700.000 E2.68595
G1 X94.055 Y90.364 F7800.000
G1 X95.947 Y88.472 F5700.000 E2.82412
G1 X95.947 Y87.239 F7800.000
G1 X94.055 Y89.131 F5700.000 E2.96228
G1 X94.055 Y87.899 F7800.000
G1 X95.947 Y86.007 F5700.000 E3.10044
G1 X95.947 Y84.774 F7800.000
G1 X94.055 Y86.666 F5700.000 E3.23860
G1 X94.055 Y85.433 F7800.000
G1 X95.947 Y83.541 F5700.000 E3.37676
G1 X95.201 Y83.054 F7800.000
G1 X94.055 Y84.200 F5700.000 E3.46048
G1 F600.000 E2.96048
G92 E0
G1 X80.949 Y83.746 F7800.000
G1 F600.000 E0.50000
G1 X79.055 Y85.640 F5700.000 E0.63831
G1 X79.055 Y86.873 F7800.000
G1 X80.949 Y84.979 F5700.000 E0.77662
G1 X80.949 Y86.211 F7800.000
G1 X79.055 Y88.105 F5700.000 E0.91493
G1 X79.055 Y89.338 F7800.000
G1 X80.949 Y87.444 F5700.000 E1.05324
G1 X80.949 Y88.677 F7800.000
G1 X79.055 Y90.571 F5700.000 E1.19155
G1 X79.055 Y91.804 F7800.000
G1 X80.949 Y89.910 F5700.000 E1.32986
G1 X80.949 Y91.143 F7800.000
G1 X79.055 Y93.037 F5700.000 E1.46817
G1 X79.055 Y94.269 F7800.000
G1 X80.949 Y92.376 F5700.000 E1.60648
G1 X80.949 Y93.608 F7800.000
G1 X79.055 Y95.502 F5700.000 E1.74479
G1 X79.055 Y96.735 F7800.000
G1 X80.949 Y94.841 F5700.000 E1.88310
G1 X80.949 Y96.074 F7800.000
G1 X79.055 Y97.968 F5700.000 E2.02141
G1 X79.055 Y99.200 F7800.000
G1 X80.949 Y97.306 F5700.000 E2.15972
G1 X80.949 Y98.539 F7800.000
G1 X79.055 Y100.433 F5700.000 E2.29803
G1 X79.055 Y101.666 F7800.000
G1 X80.949 Y99.772 F5700.000 E2.43633
G1 X81.526 Y100.429 F7800.000
G1 X79.055 Y102.899 F5700.000 E2.61673
G1 X79.055 Y104.131 F7800.000
G1 X82.758 Y100.428 F5700.000 E2.88716
G1 X83.991 Y100.428 F7800.000
G1 X79.055 Y105.364 F5700.000 E3.24760
G1 X79.055 Y106.597 F7800.000
G1 X85.224 Y100.428 F5700.000 E3.69807
G1 X86.456 Y100.428 F7800.000
G1 X79.055 Y107.829 F5700.000 E4.23857
G1 X79.055 Y109.062 F7800.000
G1 X87.689 Y100.428 F5700.000 E4.86909
G1 X88.922 Y100.428 F7800.000
G1 X79.055 Y110.295 F5700.000 E5.58963
G1 X79.055 Y111.528 F7800.000
G1 X90.154 Y100.428 F5700.000 E6.40020
G1 X91.387 Y100.428 F7800.000
G1 X79.055 Y112.761 F5700.000 E7.30078
G1 X79.055 Y113.993 F7800.000
G1 X92.620 Y100.428 F5700.000 E8.29139
G1 F600.000 E7.79139
G92 E0
G1 X79.055 Y84.407 F7800.000
G1 F600.000 E0.50000
G1 X80.408 Y83.054 F5700.000 E0.59882
G1 F600.000 E0.09882
G92 E0
G1 X106.540 Y82.461 F7800.000
G1 F600.000 E0.50000
G1 X106.540 Y99.835 F3600.000 E1.36866
G1 X118.460 Y99.835 E1.96462
G1 X118.460 Y82.461 E2.83327
G1 X121.538 Y82.461 E2.98716
G1 X121.538 Y117.539 E4.74095
G1 X103.460 Y117.539 E5.64480
G1 X103.460 Y82.461 E7.39859
G1 X106.402 Y82.461 E7.54568
G1 X105.406 Y83.054 F7800.000
G1 X104.053 Y84.407 F5700.000 E7.64450
G1 X104.053 Y85.640 F7800.000
G1 X105.947 Y83.746 F5700.000 E7.78281
G1 X105.947 Y84.979 F7800.000
