; generated by Slic3r 0.7.2b on 2012-05-11 at 22:16:31

; layer_height = 0.4
; perimeters = 1
; solid_layers = 3
; fill_density = 0.25
; nozzle_diameter = 0.75
; filament_diameter = 3
; extrusion_multiplier = 1
; perimeter_speed = 60
; infill_speed = 95
; travel_speed = 130
; extrusion_width_ratio = 2.3
; scale = 1
; single wall width = 0.92mm

M104 S230 ; set temperature
M92 E380
G92 X0 Y0 Z0  E0.0
G1 Z2.0 F150.0
G1 X-250.0 F2100.0
G1 X-249.0 F300.0
G1 X-251.0 F100.0
G92 X3.0
G1 Y-250.0 F2100.0
G1 Y-249.0 F300.0
G1 Y-251.0 F300.0
G92 Y10.0
G1 Y70.0 F2100.0
G1 Z-250.0 F150.0
G1 Z-249.0 F50.0
G1 Z-251.0 F50.0
G1 Y75.0 E2.0  F1000.0
G1 Y100.0 E2.3  F1000.0
G92 Z0.3
G92 E0.0
M106 S70
M107
M109 S230 ; wait for temperature to be reached
G90 ; use absolute coordinates
G21 ; set units to millimeters
G92 E0 ; reset extrusion distance
M82 ; use absolute distances for extrusion
G1 Z0.400 F7800.000
G1 X68.362 Y74.531
G1 F600.000 E0.50000
G1 X69.952 Y73.131 F2880.000 E0.60592
G1 X70.182 Y72.951 E0.62052
G1 X70.682 Y72.621 E0.65047
G1 X72.802 Y71.511 E0.77012
G1 X73.342 Y71.301 E0.79908
G1 X73.902 Y71.131 E0.82834
G1 X75.942 Y70.641 E0.93324
G1 X76.222 Y70.591 E0.94746
G1 X76.792 Y70.541 E0.97607
G1 X77.082 Y70.531 E0.99057
G1 X112.192 Y70.541 E2.74597
G1 X112.762 Y70.591 E2.77457
G1 X115.312 Y71.191 E2.90555
G1 X115.972 Y71.421 E2.94049
G1 X129.822 Y77.851 E3.70393
G1 X130.092 Y78.001 E3.71938
G1 X130.362 Y78.171 E3.73533
G1 X132.202 Y79.671 E3.85402
G1 X132.642 Y80.081 E3.88409
G1 X132.852 Y80.301 E3.89929
G1 X133.222 Y80.771 E3.92920
G1 X133.552 Y81.271 E3.95915
G1 X134.562 Y83.051 E4.06147
G1 X134.812 Y83.601 E4.09168
G1 X135.002 Y84.171 E4.12172
G1 X135.432 Y86.481 E4.23920
G1 X135.522 Y87.511 E4.29089
G1 X135.522 Y118.511 E5.84079
G1 X135.432 Y119.541 E5.89249
G1 X135.072 Y121.561 E5.99507
G1 X135.002 Y121.851 E6.00999
G1 X134.812 Y122.411 E6.03955
G1 X134.422 Y123.231 E6.08495
G1 X133.392 Y124.991 E6.18691
G1 X133.042 Y125.481 E6.21701
G1 X132.852 Y125.711 E6.23193
G1 X132.202 Y126.341 E6.27719
G1 X130.632 Y127.651 E6.37942
G1 X130.142 Y127.981 E6.40895
G1 X129.882 Y128.131 E6.42396
G1 X129.352 Y128.391 E6.45347
G1 X127.152 Y129.191 E6.57051
G1 X126.562 Y129.341 E6.60095
G1 X125.972 Y129.431 E6.63079
G1 X125.372 Y129.461 E6.66083
G1 X90.322 Y129.451 E8.41322
G1 X90.022 Y129.431 E8.42825
G1 X89.432 Y129.341 E8.45809
G1 X88.842 Y129.191 E8.48852
G1 X86.652 Y128.391 E8.60509
G1 X86.382 Y128.271 E8.61987
G1 X85.872 Y127.991 E8.64896
G1 X85.382 Y127.661 E8.67849
G1 X68.152 Y113.291 E9.80022
G1 X67.762 Y112.871 E9.82887
G1 X66.222 Y110.681 E9.96273
G1 X66.072 Y110.421 E9.97773
G1 X65.812 Y109.901 E10.00680
G1 X64.972 Y107.651 E10.12688
G1 X64.762 Y106.811 E10.17017
G1 X64.502 Y104.701 E10.27646
G1 X64.462 Y103.981 E10.31251
G1 X64.462 Y84.031 E11.30995
G1 X64.502 Y83.311 E11.34600
G1 X64.762 Y81.201 E11.45230
G1 X64.892 Y80.631 E11.48153
G1 X65.062 Y80.091 E11.50983
G1 X65.812 Y78.111 E11.61569
G1 X66.072 Y77.591 E11.64475
G1 X66.222 Y77.331 E11.65976
G1 X67.582 Y75.371 E11.77904
G1 X67.762 Y75.141 E11.79364
G1 X68.152 Y74.721 E11.82229
G1 X68.260 Y74.624 E11.82955
G1 F600.000 E11.32955
G92 E0
G1 X90.384 Y116.579 F7800.000
G1 F600.000 E0.50000
G1 X92.616 Y116.579 F2880.000 E0.61155
G1 X93.731 Y118.511 E0.72308
G1 X92.616 Y120.445 E0.83471
G1 X90.384 Y120.445 E0.94628
G1 X89.269 Y118.511 E1.05791
G1 X90.315 Y116.699 E1.16254
G1 F600.000 E0.66254
G92 E0
G1 X81.327 Y107.707 F7800.000
G1 F600.000 E0.50000
G1 X79.537 Y108.738 F2880.000 E0.60327
G1 X77.481 Y108.955 E0.70665
G1 X75.517 Y108.316 E0.80989
G1 X73.979 Y106.933 E0.91328
G1 X73.140 Y105.045 E1.01662
G1 X73.140 Y102.979 E1.11988
G1 X73.979 Y101.091 E1.22322
G1 X75.517 Y99.708 E1.32661
G1 X77.481 Y99.069 E1.42985
G1 X79.537 Y99.286 E1.53323
G1 X81.327 Y100.317 E1.63650
G1 X82.542 Y101.990 E1.73986
G1 X82.970 Y104.011 E1.84315
G1 X82.542 Y106.034 E1.94655
G1 X81.408 Y107.595 E2.04301
G1 F600.000 E1.54301
G92 E0
G1 X79.537 Y88.738 F7800.000
G1 F600.000 E0.50000
G1 X77.481 Y88.955 F2880.000 E0.60338
G1 X75.517 Y88.316 E0.70663
G1 X73.979 Y86.933 E0.81001
G1 X73.140 Y85.045 E0.91336
G1 X73.140 Y82.979 E1.01661
G1 X73.979 Y81.091 E1.11995
G1 X75.517 Y79.708 E1.22334
G1 X77.481 Y79.069 E1.32659
G1 X79.537 Y79.286 E1.42997
G1 X81.327 Y80.317 E1.53323
G1 X82.542 Y81.990 E1.63659
G1 X82.970 Y84.011 E1.73989
G1 X82.542 Y86.034 E1.84328
G1 X81.327 Y87.707 E1.94664
G1 X79.657 Y88.669 E2.04301
G1 F600.000 E1.54301
G92 E0
G1 X89.269 Y87.511 F7800.000
G1 F600.000 E0.50000
G1 X90.384 Y85.579 F2880.000 E0.61153
G1 X92.616 Y85.579 E0.72308
G1 X93.731 Y87.511 E0.83461
G1 X92.616 Y89.445 E0.94624
G1 X90.384 Y89.445 E1.05781
G1 X89.338 Y87.630 E1.16254
G1 F600.000 E0.66254
G92 E0
G1 X91.540 Y82.555 F7800.000
G1 F600.000 E0.50000
G1 X92.375 Y82.555 F2880.000 E0.54174
G1 X94.016 Y83.153 E0.62910
G1 X95.356 Y84.277 E0.71653
G1 X96.231 Y85.791 E0.80393
G1 X96.533 Y87.511 E0.89125
G1 X96.231 Y89.233 E0.97867
G1 X95.356 Y90.746 E1.06606
G1 X94.540 Y91.430 E1.11930
G1 X94.540 Y114.594 E2.27740
G1 X95.356 Y115.278 E2.33064
G1 X96.231 Y116.791 E2.41803
G1 X96.533 Y118.511 E2.50535
G1 X96.231 Y120.233 E2.59277
G1 X95.356 Y121.747 E2.68016
G1 X94.016 Y122.871 E2.76760
G1 X92.375 Y123.469 E2.85496
G1 X90.627 Y123.469 E2.94234
G1 X88.984 Y122.871 E3.02978
G1 X87.646 Y121.747 E3.11714
G1 X86.771 Y120.233 E3.20455
G1 X86.460 Y118.471 E3.29402
G1 X86.460 Y111.551 E3.63999
G1 X78.462 Y111.551 E4.03986
G1 X78.462 Y111.493 E4.04276
G1 X77.092 Y111.493 E4.11128
G1 X75.328 Y111.060 E4.20206
G1 X73.719 Y110.214 E4.29295
G1 X72.359 Y109.010 E4.38377
G1 X71.328 Y107.514 E4.47460
G1 X70.684 Y105.816 E4.56539
G1 X70.462 Y103.983 E4.65769
G1 X70.462 Y84.039 E5.65485
G1 X70.684 Y82.208 E5.74706
G1 X71.328 Y80.510 E5.83785
G1 X72.359 Y79.014 E5.92868
G1 X73.719 Y77.810 E6.01950
G1 X75.328 Y76.964 E6.11039
G1 X77.092 Y76.531 E6.20117
G1 X78.910 Y76.531 E6.29210
G1 X80.674 Y76.964 E6.38288
G1 X82.283 Y77.810 E6.47377
G1 X83.643 Y79.014 E6.56460
G1 X84.674 Y80.510 E6.65543
G1 X85.419 Y82.471 E6.76029
G1 X91.486 Y82.471 E7.06364
G1 X90.879 Y83.148 F7800.000
G1 X92.717 Y84.986 F4560.000 E7.19366
G1 X91.509 Y84.986 F7800.000
G1 X89.587 Y83.064 F4560.000 E7.32961
G1 X88.381 Y83.064 F7800.000
G1 X90.303 Y84.986 F4560.000 E7.46557
G1 X89.765 Y85.656 F7800.000
G1 X87.173 Y83.064 F4560.000 E7.64891
G1 X85.967 Y83.064 F7800.000
G1 X89.324 Y86.421 F4560.000 E7.88637
G1 X88.881 Y87.186 F7800.000
G1 X84.759 Y83.064 F4560.000 E8.17797
G1 X84.974 Y83.279 F7800.000
G1 X83.080 Y81.385 F4560.000 E8.31192
G1 X84.235 Y81.332 F7800.000
G1 X80.745 Y77.842 F4560.000 E8.55880
G1 X80.881 Y79.186 F7800.000
G1 X78.908 Y77.213 F4560.000 E8.69838
G1 X78.094 Y77.605 F7800.000
G1 X77.479 Y76.990 F4560.000 E8.74188
G1 X77.613 Y77.124 F7800.000
G1 X79.103 Y78.615 F4560.000 E8.84734
G1 X77.754 Y78.473 F7800.000
G1 X76.510 Y77.228 F4560.000 E8.93537
G1 X75.541 Y77.467 F7800.000
G1 X76.810 Y78.735 F4560.000 E9.02512
G1 X75.899 Y79.031 F7800.000
G1 X74.719 Y77.852 F4560.000 E9.10856
G1 X73.932 Y78.271 F7800.000
G1 X75.095 Y79.434 F4560.000 E9.19083
G1 X74.459 Y80.006 F7800.000
G1 X73.291 Y78.838 F4560.000 E9.27344
G1 X72.672 Y79.426 F7800.000
G1 X73.824 Y80.577 F4560.000 E9.35490
G1 X73.332 Y81.293 F7800.000
G1 X72.180 Y80.140 F4560.000 E9.43640
G1 X71.734 Y80.901 F7800.000
G1 X72.960 Y82.128 F4560.000 E9.52319
G1 X72.589 Y82.964 F7800.000
G1 X71.401 Y81.776 F4560.000 E9.60721
G1 X71.184 Y82.766 F7800.000
G1 X72.547 Y84.129 F4560.000 E9.70362
G1 X72.547 Y85.336 F7800.000
G1 X71.055 Y83.844 F4560.000 E9.80916
G1 X71.055 Y85.051 F7800.000
G1 X73.392 Y87.388 F4560.000 E9.97450
G1 X74.771 Y88.767 F7800.000
G1 X93.947 Y107.943 F4560.000 E11.33093
G1 X93.947 Y106.736 F7800.000
G1 X76.602 Y89.390 F4560.000 E12.55788
G1 X77.899 Y89.481 F7800.000
G1 X93.947 Y105.529 F4560.000 E13.69304
G1 X93.947 Y104.322 F7800.000
G1 X78.991 Y89.366 F4560.000 E14.75096
G1 X79.923 Y89.091 F7800.000
G1 X93.947 Y103.115 F4560.000 E15.74298
G1 X93.947 Y101.908 F7800.000
G1 X80.688 Y88.649 F4560.000 E16.68084
G1 X81.454 Y88.208 F7800.000
G1 X93.947 Y100.701 F4560.000 E17.56455
G1 X93.947 Y99.494 F7800.000
G1 X82.028 Y87.575 F4560.000 E18.40767
G1 X82.536 Y86.875 F7800.000
G1 X93.947 Y98.287 F4560.000 E19.21487
G1 X93.947 Y97.080 F7800.000
G1 X83.044 Y86.176 F4560.000 E19.98613
G1 X83.275 Y85.201 F7800.000
G1 X93.947 Y95.873 F4560.000 E20.74103
G1 X93.947 Y94.666 F7800.000
G1 X83.486 Y84.205 F4560.000 E21.48100
G1 X83.406 Y82.917 F7800.000
G1 X88.932 Y88.444 F4560.000 E21.87194
G1 X90.527 Y90.038 F7800.000
G1 X93.947 Y93.458 F4560.000 E22.11390
G1 X93.947 Y92.252 F7800.000
G1 X91.733 Y90.038 F4560.000 E22.27048
G1 X92.882 Y89.979 F7800.000
G1 X94.082 Y91.179 F4560.000 E22.35534
G1 X94.738 Y90.629 F7800.000
G1 X93.323 Y89.214 F4560.000 E22.45543
G1 X93.765 Y88.448 F7800.000
G1 X95.251 Y89.934 F4560.000 E22.56054
G1 X95.683 Y89.160 F7800.000
G1 X94.206 Y87.683 F4560.000 E22.66502
G1 X95.864 Y88.133 F7800.000
G1 X93.739 Y86.008 F4560.000 E22.81531
G1 X95.760 Y86.823 F7800.000
G1 X92.155 Y83.218 F4560.000 E23.07034
G1 F600.000 E22.57034
G92 E0
G1 X79.872 Y98.696 F7800.000
G1 F600.000 E0.50000
G1 X71.055 Y89.879 F4560.000 E1.12370
G1 X71.055 Y91.086 F7800.000
G1 X78.523 Y98.554 F4560.000 E1.65197
G1 X77.329 Y98.566 F7800.000
G1 X71.055 Y92.293 F4560.000 E2.09574
G1 X71.055 Y93.500 F7800.000
G1 X76.418 Y98.862 F4560.000 E2.47508
G1 X75.507 Y99.159 F7800.000
G1 X71.055 Y94.707 F4560.000 E2.78999
G1 X71.055 Y95.914 F7800.000
G1 X74.821 Y99.680 F4560.000 E3.05640
G1 X74.186 Y100.252 F7800.000
G1 X71.055 Y97.121 F4560.000 E3.27787
G1 X71.055 Y98.328 F7800.000
G1 X73.550 Y100.823 F4560.000 E3.45439
G1 X73.172 Y101.652 F7800.000
G1 X71.055 Y99.535 F4560.000 E3.60415
G1 X71.055 Y100.742 F7800.000
G1 X72.801 Y102.488 F4560.000 E3.72763
G1 X72.547 Y103.441 F7800.000
G1 X71.055 Y101.949 F4560.000 E3.83317
G1 X71.055 Y103.156 F7800.000
G1 X72.547 Y104.648 F4560.000 E3.93871
G1 X71.150 Y104.458 F7800.000
G1 X72.842 Y106.150 F4560.000 E4.05840
G1 X71.517 Y106.032 F7800.000
G1 X76.036 Y110.551 F4560.000 E4.37809
G1 X75.833 Y109.140 F7800.000
G1 X77.637 Y110.945 F4560.000 E4.50571
G1 X78.799 Y110.900 F7800.000
G1 X77.430 Y109.530 F4560.000 E4.60259
G1 X78.522 Y109.415 F7800.000
G1 X80.064 Y110.958 F4560.000 E4.71170
G1 X81.271 Y110.958 F7800.000
G1 X79.594 Y109.280 F4560.000 E4.83037
G1 X80.359 Y108.839 F7800.000
G1 X82.478 Y110.958 F4560.000 E4.98026
G1 X83.685 Y110.958 F7800.000
G1 X81.125 Y108.398 F4560.000 E5.16137
G1 X81.809 Y107.875 F7800.000
G1 X84.892 Y110.958 F4560.000 E5.37943
G1 X86.099 Y110.958 F7800.000
G1 X82.317 Y107.176 F4560.000 E5.64695
G1 X82.825 Y106.477 F7800.000
G1 X87.306 Y110.958 F4560.000 E5.96391
G1 X87.053 Y110.705 F7800.000
G1 X92.334 Y115.986 F4560.000 E6.33749
G1 X91.127 Y115.986 F7800.000
G1 X87.053 Y111.912 F4560.000 E6.62569
G1 X87.053 Y113.119 F7800.000
G1 X90.067 Y116.133 F4560.000 E6.83890
G1 X89.625 Y116.898 F7800.000
G1 X87.053 Y114.326 F4560.000 E7.02086
G1 X87.053 Y115.533 F7800.000
G1 X89.184 Y117.663 F4560.000 E7.17157
G1 X88.742 Y118.428 F7800.000
G1 X87.053 Y116.740 F4560.000 E7.29101
G1 X87.053 Y117.947 F7800.000
G1 X89.453 Y120.347 F4560.000 E7.46076
G1 X90.144 Y121.038 F7800.000
G1 X91.982 Y122.876 F4560.000 E7.59078
G1 X93.001 Y122.688 F7800.000
G1 X91.351 Y121.038 F4560.000 E7.70747
G1 X92.558 Y121.038 F7800.000
G1 X93.875 Y122.354 F4560.000 E7.80058
G1 X94.531 Y121.804 F7800.000
G1 X93.184 Y120.457 F4560.000 E7.89588
G1 X93.625 Y119.691 F7800.000
G1 X95.111 Y121.177 F4560.000 E8.00097
G1 X95.553 Y120.412 F7800.000
G1 X94.067 Y118.925 F4560.000 E8.10611
G1 X94.261 Y117.913 F7800.000
G1 X95.806 Y119.458 F4560.000 E8.21542
G1 X95.842 Y118.287 F7800.000
G1 X83.184 Y105.629 F4560.000 E9.11077
G1 X83.395 Y104.633 F7800.000
G1 X93.947 Y115.185 F4560.000 E9.85717
G1 X93.842 Y115.080 F7800.000
G1 X95.085 Y116.322 F4560.000 E9.94505
G1 X93.947 Y113.978 F7800.000
G1 X83.545 Y103.576 F4560.000 E10.68085
G1 X83.220 Y102.044 F7800.000
G1 X93.947 Y112.771 F4560.000 E11.43962
G1 X93.947 Y111.564 F7800.000
G1 X71.055 Y88.672 F4560.000 E13.05893
G1 X71.055 Y87.465 F7800.000
G1 X93.947 Y110.357 F4560.000 E14.67823
G1 X93.947 Y109.150 F7800.000
G1 X71.055 Y86.258 F4560.000 E16.29753
G1 F600.000 E15.79753
G92 E0
G1 X87.271 Y119.372 F7800.000
G1 F600.000 E0.50000
G1 X90.625 Y122.726 F4560.000 E0.73722
G1 F600.000 E0.23722
G92 E0
G1 X123.382 Y120.445 F7800.000
G1 F600.000 E0.50000
G1 X122.267 Y118.511 F2880.000 E0.61163
G1 X123.382 Y116.579 E0.72316
G1 X125.614 Y116.579 E0.83471
G1 X126.729 Y118.511 E0.94624
G1 X125.614 Y120.445 E1.05787
G1 X123.520 Y120.445 E1.16254
G1 F600.000 E0.66254
G92 E0
G1 X114.325 Y107.707 F7800.000
G1 F600.000 E0.50000
G1 X112.535 Y108.738 F2880.000 E0.60327
G1 X110.479 Y108.955 E0.70665
G1 X108.515 Y108.316 E0.80989
G1 X106.977 Y106.933 E0.91328
G1 X106.138 Y105.045 E1.01662
G1 X106.138 Y102.979 E1.11988
G1 X106.977 Y101.091 E1.22322
G1 X108.515 Y99.708 E1.32661
G1 X110.479 Y99.069 E1.42985
G1 X112.535 Y99.286 E1.53323
G1 X114.325 Y100.317 E1.63650
G1 X115.540 Y101.990 E1.73986
G1 X115.968 Y104.011 E1.84315
G1 X115.540 Y106.034 E1.94655
G1 X114.406 Y107.595 E2.04301
G1 F600.000 E1.54301
G92 E0
G1 X112.535 Y88.738 F7800.000
G1 F600.000 E0.50000
G1 X110.479 Y88.955 F2880.000 E0.60338
G1 X108.515 Y88.316 E0.70663
G1 X106.977 Y86.933 E0.81001
G1 X106.138 Y85.045 E0.91336
G1 X106.138 Y82.979 E1.01661
G1 X106.977 Y81.091 E1.11995
G1 X108.515 Y79.708 E1.22334
G1 X110.479 Y79.069 E1.32659
G1 X112.535 Y79.286 E1.42997
G1 X114.325 Y80.317 E1.53323
G1 X115.540 Y81.990 E1.63659
G1 X115.968 Y84.011 E1.73989
G1 X115.540 Y86.034 E1.84328
G1 X114.325 Y87.707 E1.94664
G1 X112.655 Y88.669 E2.04301
G1 F600.000 E1.54301
G92 E0
G1 X122.267 Y87.511 F7800.000
G1 F600.000 E0.50000
G1 X123.382 Y85.579 F2880.000 E0.61153
G1 X125.614 Y85.579 E0.72308
G1 X126.729 Y87.511 E0.83461
G1 X125.614 Y89.445 E0.94624
G1 X123.382 Y89.445 E1.05781
G1 X122.336 Y87.630 E1.16254
G1 F600.000 E0.66254
G92 E0
G1 X124.538 Y82.555 F7800.000
G1 F600.000 E0.50000
G1 X125.373 Y82.555 F2880.000 E0.54174
G1 X127.014 Y83.153 E0.62910
G1 X128.354 Y84.277 E0.71653
G1 X129.229 Y85.791 E0.80393
G1 X129.531 Y87.511 E0.89125
G1 X129.229 Y89.233 E0.97867
G1 X128.354 Y90.746 E1.06606
G1 X127.538 Y91.430 E1.11930
G1 X127.538 Y114.594 E2.27740
G1 X128.354 Y115.278 E2.33064
G1 X129.229 Y116.791 E2.41803
G1 X129.531 Y118.511 E2.50535
G1 X129.229 Y120.233 E2.59277
G1 X128.354 Y121.747 E2.68016
G1 X127.014 Y122.871 E2.76760
G1 X125.373 Y123.469 E2.85496
G1 X123.625 Y123.469 E2.94234
G1 X121.982 Y122.871 E3.02978
G1 X120.644 Y121.747 E3.11714
G1 X119.769 Y120.233 E3.20455
G1 X119.458 Y118.471 E3.29402
G1 X119.458 Y111.551 E3.63999
G1 X111.460 Y111.551 E4.03986
G1 X111.460 Y111.493 E4.04276
G1 X110.090 Y111.493 E4.11128
G1 X108.326 Y111.060 E4.20206
G1 X106.717 Y110.214 E4.29295
G1 X105.357 Y109.010 E4.38377
G1 X104.326 Y107.514 E4.47460
G1 X103.682 Y105.816 E4.56539
G1 X103.460 Y103.983 E4.65769
G1 X103.460 Y84.039 E5.65485
G1 X103.682 Y82.208 E5.74706
G1 X104.326 Y80.510 E5.83785
G1 X105.357 Y79.014 E5.92868
G1 X106.717 Y77.810 E6.01950
G1 X108.326 Y76.964 E6.11039
G1 X110.090 Y76.531 E6.20117
G1 X111.908 Y76.531 E6.29210
G1 X113.672 Y76.964 E6.38288
G1 X115.281 Y77.810 E6.47377
G1 X116.641 Y79.014 E6.56460
G1 X117.672 Y80.510 E6.65543
G1 X118.417 Y82.471 E6.76029
G1 X124.484 Y82.471 E7.06364
G1 X123.877 Y83.148 F7800.000
G1 X125.715 Y84.986 F4560.000 E7.19366
G1 X124.507 Y84.986 F7800.000
G1 X122.585 Y83.064 F4560.000 E7.32961
G1 X121.379 Y83.064 F7800.000
G1 X123.301 Y84.986 F4560.000 E7.46557
G1 X122.763 Y85.656 F7800.000
G1 X120.171 Y83.064 F4560.000 E7.64891
G1 X118.965 Y83.064 F7800.000
G1 X122.322 Y86.421 F4560.000 E7.88637
G1 X121.879 Y87.186 F7800.000
G1 X117.757 Y83.064 F4560.000 E8.17797
G1 X117.972 Y83.279 F7800.000
G1 X116.078 Y81.385 F4560.000 E8.31192
G1 X117.233 Y81.332 F7800.000
G1 X113.743 Y77.842 F4560.000 E8.55880
G1 X113.879 Y79.186 F7800.000
G1 X111.906 Y77.213 F4560.000 E8.69838
G1 X111.092 Y77.605 F7800.000
G1 X110.477 Y76.990 F4560.000 E8.74188
G1 X110.611 Y77.124 F7800.000
