; generated by Slic3r 0.7.3-dev on 2012-05-19 at 23:55:44

; layer_height = 0.2
; perimeters = 3
; solid_layers = 3
; fill_density = 0.3
; nozzle_diameter = 0.35
; filament_diameter = 3
; extrusion_multiplier = 1
; perimeter_speed = 80
; infill_speed = 80
; travel_speed = 360
; extrusion_width_ratio = 2
; scale = 1
; single wall width = 0.40mm

M92 E860
M104 S190
M140 S60
G92 X0 Y0 Z0 E0
G0 Y-210 F21600
G0 X-200 F21600
G0 Z-100 F150
G28
M190 S60
G0 X0 Y210 F21600
M109 S185
G0 Z1 F100
G0 X100 Y105 F21600
G90 ; use absolute coordinates
G21 ; set units to millimeters
G92 E0 ; reset extrusion distance
M82 ; use absolute distances for extrusion
G1 Z0.200 F21600.000 ; move to next layer (0)
G1 X84.181 Y73.771 ; move to first skirt point
G1 F6000.000 E2.50000 ; compensate retraction
G1 X86.081 Y72.121 F2400.000 E2.52772 ; skirt
G1 X86.911 Y71.611 E2.53845 ; skirt
G1 X88.881 Y70.581 E2.56293 ; skirt
G1 X89.501 Y70.331 E2.57029 ; skirt
G1 X92.271 Y69.631 E2.60176 ; skirt
G1 X92.911 Y69.541 E2.60888 ; skirt
G1 X93.551 Y69.511 E2.61594 ; skirt
G1 X95.751 Y69.521 E2.64017 ; skirt
G1 X96.071 Y69.541 E2.64370 ; skirt
G1 X96.701 Y69.631 E2.65071 ; skirt
G1 X99.101 Y70.201 E2.67788 ; skirt
G1 X99.611 Y70.371 E2.68380 ; skirt
G1 X113.801 Y76.951 E2.85607 ; skirt
G1 X114.111 Y77.121 E2.85997 ; skirt
G1 X114.701 Y77.511 E2.86776 ; skirt
G1 X116.611 Y79.111 E2.89520 ; skirt
G1 X117.031 Y79.531 E2.90174 ; skirt
G1 X117.411 Y79.981 E2.90823 ; skirt
G1 X117.751 Y80.461 E2.91471 ; skirt
G1 X119.101 Y82.831 E2.94475 ; skirt
G1 X119.221 Y83.101 E2.94800 ; skirt
G1 X119.421 Y83.661 E2.95455 ; skirt
G1 X119.571 Y84.231 E2.96105 ; skirt
G1 X119.991 Y86.571 E2.98723 ; skirt
G1 X120.051 Y87.271 E2.99497 ; skirt
G1 X120.051 Y118.751 E3.34169 ; skirt
G1 X119.951 Y119.691 E3.35210 ; skirt
G1 X119.571 Y121.791 E3.37561 ; skirt
G1 X119.421 Y122.361 E3.38210 ; skirt
G1 X119.211 Y122.911 E3.38858 ; skirt
G1 X118.961 Y123.451 E3.39514 ; skirt
G1 X117.751 Y125.551 E3.42183 ; skirt
G1 X117.411 Y126.031 E3.42831 ; skirt
G1 X117.031 Y126.481 E3.43480 ; skirt
G1 X116.611 Y126.901 E3.44134 ; skirt
G1 X114.751 Y128.461 E3.46808 ; skirt
G1 X114.021 Y128.951 E3.47776 ; skirt
G1 X113.501 Y129.221 E3.48422 ; skirt
G1 X113.231 Y129.341 E3.48747 ; skirt
G1 X110.941 Y130.171 E3.51430 ; skirt
G1 X110.371 Y130.321 E3.52079 ; skirt
G1 X110.081 Y130.381 E3.52405 ; skirt
G1 X109.211 Y130.471 E3.53368 ; skirt
G1 X108.911 Y130.481 E3.53699 ; skirt
G1 X106.771 Y130.471 E3.56056 ; skirt
G1 X105.901 Y130.381 E3.57019 ; skirt
G1 X105.321 Y130.251 E3.57674 ; skirt
G1 X105.041 Y130.171 E3.57995 ; skirt
G1 X102.721 Y129.321 E3.60716 ; skirt
G1 X102.421 Y129.191 E3.61076 ; skirt
G1 X102.121 Y129.041 E3.61446 ; skirt
G1 X101.551 Y128.691 E3.62182 ; skirt
G1 X101.281 Y128.501 E3.62546 ; skirt
G1 X83.941 Y114.021 E3.87428 ; skirt
G1 X83.491 Y113.541 E3.88152 ; skirt
G1 X83.291 Y113.291 E3.88505 ; skirt
G1 X81.851 Y111.201 E3.91301 ; skirt
G1 X81.681 Y110.921 E3.91661 ; skirt
G1 X81.391 Y110.341 E3.92376 ; skirt
G1 X80.491 Y107.961 E3.95178 ; skirt
G1 X80.391 Y107.641 E3.95547 ; skirt
G1 X80.251 Y106.991 E3.96280 ; skirt
G1 X79.991 Y104.781 E3.98731 ; skirt
G1 X79.941 Y103.991 E3.99602 ; skirt
G1 X79.941 Y84.021 E4.21598 ; skirt
G1 X79.991 Y83.231 E4.22469 ; skirt
G1 X80.251 Y81.021 E4.24920 ; skirt
G1 X80.391 Y80.371 E4.25653 ; skirt
G1 X81.391 Y77.671 E4.28824 ; skirt
G1 X81.681 Y77.091 E4.29538 ; skirt
G1 X83.291 Y74.721 E4.32694 ; skirt
G1 X83.491 Y74.471 E4.33046 ; skirt
G1 X83.941 Y73.991 E4.33771 ; skirt
G1 X84.137 Y73.812 E4.34064 ; skirt
G1 X84.431 Y74.051 F21600.000 ; move to first skirt point
G1 X86.061 Y72.621 F2400.000 E4.36452 ; skirt
G1 X86.311 Y72.431 E4.36798 ; skirt
G1 X86.821 Y72.091 E4.37473 ; skirt
G1 X89.041 Y70.921 E4.40237 ; skirt
G1 X89.621 Y70.691 E4.40924 ; skirt
G1 X92.351 Y70.001 E4.44025 ; skirt
G1 X92.641 Y69.951 E4.44349 ; skirt
G1 X93.551 Y69.891 E4.45354 ; skirt
G1 X95.731 Y69.901 E4.47755 ; skirt
G1 X96.331 Y69.951 E4.48418 ; skirt
G1 X96.631 Y70.001 E4.48753 ; skirt
G1 X99.241 Y70.641 E4.51713 ; skirt
G1 X99.951 Y70.921 E4.52554 ; skirt
G1 X113.631 Y77.281 E4.69170 ; skirt
G1 X114.201 Y77.631 E4.69906 ; skirt
G1 X114.471 Y77.821 E4.70270 ; skirt
G1 X116.381 Y79.421 E4.73014 ; skirt
G1 X116.831 Y79.871 E4.73715 ; skirt
G1 X117.231 Y80.371 E4.74420 ; skirt
G1 X117.411 Y80.631 E4.74769 ; skirt
G1 X118.651 Y82.771 E4.77493 ; skirt
G1 X118.911 Y83.361 E4.78203 ; skirt
G1 X119.021 Y83.661 E4.78555 ; skirt
G1 X119.191 Y84.271 E4.79252 ; skirt
G1 X119.641 Y86.841 E4.82126 ; skirt
G1 X119.671 Y87.291 E4.82623 ; skirt
G1 X119.671 Y118.731 E5.17251 ; skirt
G1 X119.641 Y119.181 E5.17748 ; skirt
G1 X119.191 Y121.741 E5.20611 ; skirt
G1 X119.021 Y122.361 E5.21319 ; skirt
G1 X118.911 Y122.661 E5.21671 ; skirt
G1 X118.651 Y123.241 E5.22371 ; skirt
G1 X117.411 Y125.381 E5.25095 ; skirt
G1 X117.231 Y125.641 E5.25443 ; skirt
G1 X116.831 Y126.141 E5.26148 ; skirt
G1 X116.381 Y126.591 E5.26849 ; skirt
G1 X114.491 Y128.181 E5.29570 ; skirt
G1 X113.961 Y128.541 E5.30275 ; skirt
G1 X113.411 Y128.841 E5.30965 ; skirt
G1 X110.791 Y129.821 E5.34046 ; skirt
G1 X109.861 Y130.031 E5.35096 ; skirt
G1 X109.551 Y130.071 E5.35441 ; skirt
G1 X108.911 Y130.101 E5.36146 ; skirt
G1 X106.751 Y130.091 E5.38525 ; skirt
G1 X106.431 Y130.071 E5.38878 ; skirt
G1 X106.121 Y130.031 E5.39223 ; skirt
G1 X105.491 Y129.901 E5.39931 ; skirt
G1 X105.191 Y129.821 E5.40273 ; skirt
G1 X102.871 Y128.971 E5.42995 ; skirt
G1 X102.301 Y128.701 E5.43689 ; skirt
G1 X102.031 Y128.551 E5.44029 ; skirt
G1 X101.511 Y128.201 E5.44720 ; skirt
G1 X84.201 Y113.751 E5.69555 ; skirt
G1 X83.781 Y113.291 E5.70241 ; skirt
G1 X82.171 Y111.001 E5.73324 ; skirt
G1 X81.871 Y110.461 E5.74005 ; skirt
G1 X81.741 Y110.181 E5.74345 ; skirt
G1 X80.851 Y107.841 E5.77102 ; skirt
G1 X80.761 Y107.541 E5.77447 ; skirt
G1 X80.581 Y106.611 E5.78490 ; skirt
G1 X80.361 Y104.731 E5.80575 ; skirt
G1 X80.321 Y103.991 E5.81391 ; skirt
G1 X80.321 Y84.021 E6.03386 ; skirt
G1 X80.361 Y83.281 E6.04203 ; skirt
G1 X80.631 Y81.091 E6.06633 ; skirt
G1 X80.761 Y80.471 E6.07331 ; skirt
G1 X80.851 Y80.171 E6.07676 ; skirt
G1 X81.741 Y77.831 E6.10433 ; skirt
G1 X81.871 Y77.551 E6.10773 ; skirt
G1 X82.171 Y77.011 E6.11454 ; skirt
G1 X83.591 Y74.961 E6.14200 ; skirt
G1 X83.991 Y74.481 E6.14888 ; skirt
G1 X84.201 Y74.261 E6.15223 ; skirt
G1 X84.387 Y74.091 E6.15500 ; skirt
G1 X84.681 Y74.341 F21600.000 ; move to first skirt point
G1 X86.301 Y72.911 F2400.000 E6.17880 ; skirt
G1 X86.771 Y72.571 E6.18519 ; skirt
G1 X89.201 Y71.271 E6.21555 ; skirt
G1 X89.471 Y71.151 E6.21880 ; skirt
G1 X90.031 Y70.961 E6.22531 ; skirt
G1 X92.421 Y70.381 E6.25240 ; skirt
G1 X92.701 Y70.331 E6.25553 ; skirt
G1 X93.551 Y70.271 E6.26492 ; skirt
G1 X95.711 Y70.281 E6.28871 ; skirt
G1 X96.281 Y70.331 E6.29501 ; skirt
G1 X98.891 Y70.941 E6.32453 ; skirt
G1 X99.351 Y71.081 E6.32983 ; skirt
G1 X113.451 Y77.621 E6.50102 ; skirt
G1 X113.721 Y77.771 E6.50442 ; skirt
G1 X113.991 Y77.941 E6.50794 ; skirt
G1 X116.131 Y79.701 E6.53845 ; skirt
G1 X116.541 Y80.121 E6.54492 ; skirt
G1 X116.741 Y80.351 E6.54828 ; skirt
G1 X117.091 Y80.841 E6.55491 ; skirt
G1 X118.311 Y82.951 E6.58175 ; skirt
G1 X118.441 Y83.221 E6.58505 ; skirt
G1 X118.661 Y83.781 E6.59168 ; skirt
G1 X118.751 Y84.071 E6.59502 ; skirt
G1 X119.261 Y86.881 E6.62648 ; skirt
G1 X119.291 Y87.301 E6.63112 ; skirt
G1 X119.281 Y118.931 E6.97949 ; skirt
G1 X118.821 Y121.661 E7.00999 ; skirt
G1 X118.661 Y122.231 E7.01651 ; skirt
G1 X118.441 Y122.791 E7.02313 ; skirt
G1 X118.311 Y123.061 E7.02643 ; skirt
G1 X117.091 Y125.171 E7.05328 ; skirt
G1 X116.741 Y125.661 E7.05991 ; skirt
G1 X116.131 Y126.311 E7.06973 ; skirt
G1 X114.261 Y127.881 E7.09662 ; skirt
G1 X113.771 Y128.211 E7.10313 ; skirt
G1 X113.241 Y128.501 E7.10978 ; skirt
G1 X110.681 Y129.451 E7.13986 ; skirt
G1 X110.101 Y129.601 E7.14646 ; skirt
G1 X109.511 Y129.691 E7.15303 ; skirt
G1 X108.911 Y129.721 E7.15965 ; skirt
G1 X106.771 Y129.711 E7.18322 ; skirt
G1 X106.471 Y129.691 E7.18653 ; skirt
G1 X105.881 Y129.601 E7.19310 ; skirt
G1 X105.301 Y129.451 E7.19970 ; skirt
G1 X103.011 Y128.621 E7.22653 ; skirt
G1 X102.481 Y128.371 E7.23298 ; skirt
G1 X101.981 Y128.061 E7.23946 ; skirt
G1 X84.681 Y113.671 E7.48731 ; skirt
G1 X84.271 Y113.271 E7.49361 ; skirt
G1 X84.071 Y113.051 E7.49689 ; skirt
G1 X82.491 Y110.801 E7.52717 ; skirt
G1 X82.211 Y110.291 E7.53358 ; skirt
G1 X81.211 Y107.721 E7.56395 ; skirt
G1 X81.061 Y107.151 E7.57044 ; skirt
G1 X81.001 Y106.861 E7.57371 ; skirt
G1 X80.741 Y104.691 E7.59778 ; skirt
G1 X80.701 Y103.991 E7.60550 ; skirt
G1 X80.701 Y84.021 E7.82545 ; skirt
G1 X80.741 Y83.321 E7.83317 ; skirt
G1 X81.001 Y81.151 E7.85724 ; skirt
G1 X81.131 Y80.571 E7.86379 ; skirt
G1 X81.211 Y80.291 E7.86700 ; skirt
G1 X82.091 Y77.981 E7.89422 ; skirt
G1 X82.211 Y77.721 E7.89738 ; skirt
G1 X82.491 Y77.211 E7.90379 ; skirt
G1 X83.891 Y75.191 E7.93086 ; skirt
G1 X84.071 Y74.961 E7.93407 ; skirt
G1 X84.638 Y74.382 E7.94299 ; skirt
G1 F6000.000 E5.94299 ; retract
G1 Z0.400 F21600.000 ; lift plate during retraction
G92 E0
G1 X104.945 Y87.511 ; move to first perimeter point
G1 Z0.200 ; restore layer Z
G1 F6000.000 E2.50000 ; compensate retraction
G1 X106.472 Y84.866 F2400.000 E2.53363 ; perimeter
G1 X109.526 Y84.866 E2.56727 ; perimeter
G1 X111.053 Y87.511 E2.60090 ; perimeter
G1 X109.527 Y90.158 E2.63456 ; perimeter
G1 X106.471 Y90.158 E2.66821 ; perimeter
G1 X104.975 Y87.563 E2.70120 ; perimeter
G1 X105.384 Y87.511 F21600.000 ; move to first perimeter point
G1 X106.692 Y85.247 F2400.000 E2.73000 ; perimeter
G1 X109.306 Y85.247 E2.75880 ; perimeter
G1 X110.614 Y87.511 E2.78760 ; perimeter
G1 X109.307 Y89.777 E2.81642 ; perimeter
G1 X106.691 Y89.777 E2.84522 ; perimeter
G1 X105.414 Y87.563 E2.87338 ; perimeter
G1 X105.823 Y87.511 F21600.000 ; move to first perimeter point
G1 X106.911 Y85.627 F2400.000 E2.89734 ; perimeter
G1 X109.087 Y85.627 E2.92131 ; perimeter
G1 X110.175 Y87.511 E2.94527 ; perimeter
G1 X109.087 Y89.397 E2.96925 ; perimeter
G1 X106.911 Y89.397 E2.99322 ; perimeter
G1 X105.853 Y87.563 E3.01654 ; perimeter
G1 F6000.000 E1.01654 ; retract
G1 Z0.400 F21600.000 ; lift plate during retraction
G92 E0
G1 X99.699 Y86.327 ; move to first perimeter point
G1 Z0.200 ; restore layer Z
G1 F6000.000 E2.50000 ; compensate retraction
G1 X98.308 Y88.243 F2400.000 E2.52608 ; perimeter
G1 X96.259 Y89.424 E2.55213 ; perimeter
G1 X93.904 Y89.672 E2.57820 ; perimeter
G1 X93.651 Y89.589 E2.58114 ; perimeter
G1 X93.651 Y89.589 E2.58114 ; perimeter
G1 X91.656 Y88.941 E2.60425 ; perimeter
G1 X89.895 Y87.357 E2.63033 ; perimeter
G1 X88.934 Y85.194 E2.65640 ; perimeter
G1 X88.934 Y82.830 E2.68244 ; perimeter
G1 X89.895 Y80.667 E2.70851 ; perimeter
G1 X91.656 Y79.083 E2.73459 ; perimeter
G1 X93.904 Y78.352 E2.76063 ; perimeter
G1 X96.259 Y78.600 E2.78671 ; perimeter
G1 X98.308 Y79.781 E2.81276 ; perimeter
G1 X99.699 Y81.697 E2.83883 ; perimeter
G1 X100.190 Y84.011 E2.86489 ; perimeter
G1 X99.712 Y86.268 E2.89030 ; perimeter
G1 X99.344 Y86.169 F21600.000 ; move to first perimeter point
G1 X98.048 Y87.953 F2400.000 E2.91460 ; perimeter
G1 X96.139 Y89.054 E2.93887 ; perimeter
G1 X93.945 Y89.285 E2.96316 ; perimeter
G1 X91.850 Y88.604 E2.98743 ; perimeter
G1 X90.210 Y87.129 E3.01172 ; perimeter
G1 X89.314 Y85.114 E3.03601 ; perimeter
G1 X89.314 Y82.910 E3.06028 ; perimeter
G1 X90.210 Y80.895 E3.08456 ; perimeter
G1 X91.850 Y79.420 E3.10886 ; perimeter
G1 X93.945 Y78.739 E3.13313 ; perimeter
G1 X96.139 Y78.970 E3.15742 ; perimeter
G1 X98.048 Y80.071 E3.18169 ; perimeter
G1 X99.344 Y81.855 E3.20598 ; perimeter
G1 X99.801 Y84.011 E3.23026 ; perimeter
G1 X99.357 Y86.110 E3.25390 ; perimeter
G1 X98.989 Y86.011 F21600.000 ; move to first perimeter point
G1 X97.788 Y87.664 F2400.000 E3.27640 ; perimeter
G1 X96.019 Y88.684 E3.29889 ; perimeter
G1 X93.986 Y88.898 E3.32141 ; perimeter
G1 X92.044 Y88.267 E3.34389 ; perimeter
G1 X90.524 Y86.900 E3.36641 ; perimeter
G1 X89.695 Y85.033 E3.38891 ; perimeter
G1 X89.695 Y82.991 E3.41140 ; perimeter
G1 X90.524 Y81.124 E3.43391 ; perimeter
G1 X92.044 Y79.757 E3.45642 ; perimeter
G1 X93.986 Y79.126 E3.47891 ; perimeter
G1 X96.019 Y79.340 E3.50142 ; perimeter
G1 X97.788 Y80.360 E3.52391 ; perimeter
G1 X98.989 Y82.013 E3.54642 ; perimeter
G1 X99.412 Y84.011 E3.56891 ; perimeter
G1 X99.001 Y85.952 E3.59077 ; perimeter
G1 F6000.000 E1.59077 ; retract
G1 Z0.400 F21600.000 ; lift plate during retraction
G92 E0
G1 X96.259 Y98.600 ; move to first perimeter point
G1 Z0.200 ; restore layer Z
G1 F6000.000 E2.50000 ; compensate retraction
G1 X98.308 Y99.781 F2400.000 E2.52605 ; perimeter
G1 X99.699 Y101.697 E2.55213 ; perimeter
G1 X100.190 Y104.011 E2.57818 ; perimeter
G1 X99.699 Y106.327 E2.60426 ; perimeter
G1 X98.308 Y108.243 E2.63033 ; perimeter
G1 X96.259 Y109.424 E2.65639 ; perimeter
G1 X94.647 Y109.594 E2.67424 ; perimeter
G1 X94.647 Y109.913 E2.67776 ; perimeter
G1 X93.885 Y109.665 E2.68658 ; perimeter
G1 X93.885 Y109.665 E2.68658 ; perimeter
G1 X91.656 Y108.941 E2.71240 ; perimeter
G1 X89.895 Y107.357 E2.73848 ; perimeter
G1 X88.934 Y105.194 E2.76455 ; perimeter
G1 X88.934 Y102.830 E2.79059 ; perimeter
G1 X89.895 Y100.667 E2.81666 ; perimeter
G1 X91.656 Y99.083 E2.84274 ; perimeter
G1 X93.904 Y98.352 E2.86879 ; perimeter
G1 X96.199 Y98.594 E2.89420 ; perimeter
G1 X96.139 Y98.970 F21600.000 ; move to first perimeter point
G1 X98.048 Y100.071 F2400.000 E2.91847 ; perimeter
G1 X99.344 Y101.855 E2.94276 ; perimeter
G1 X99.801 Y104.011 E2.96704 ; perimeter
G1 X99.344 Y106.169 E2.99133 ; perimeter
G1 X98.048 Y107.953 E3.01563 ; perimeter
G1 X96.139 Y109.054 E3.03990 ; perimeter
G1 X94.267 Y109.251 E3.06063 ; perimeter
G1 X94.267 Y109.389 E3.06216 ; perimeter
G1 X93.945 Y109.285 E3.06588 ; perimeter
G1 X93.945 Y109.285 E3.06588 ; perimeter
G1 X91.850 Y108.604 E3.09014 ; perimeter
G1 X90.210 Y107.129 E3.11444 ; perimeter
G1 X89.314 Y105.114 E3.13873 ; perimeter
G1 X89.314 Y102.910 E3.16299 ; perimeter
G1 X90.210 Y100.895 E3.18728 ; perimeter
G1 X91.850 Y99.420 E3.21158 ; perimeter
G1 X93.945 Y98.739 E3.23584 ; perimeter
G1 X96.079 Y98.964 E3.25948 ; perimeter
G1 X96.019 Y99.340 F21600.000 ; move to first perimeter point
G1 X97.788 Y100.360 F2400.000 E3.28197 ; perimeter
G1 X98.989 Y102.013 E3.30447 ; perimeter
G1 X99.412 Y104.011 E3.32697 ; perimeter
G1 X98.989 Y106.011 E3.34949 ; perimeter
G1 X97.788 Y107.664 E3.37200 ; perimeter
G1 X96.019 Y108.684 E3.39449 ; perimeter
G1 X93.986 Y108.898 E3.41700 ; perimeter
G1 X93.886 Y108.866 E3.41815 ; perimeter
G1 X93.886 Y108.866 E3.41815 ; perimeter
G1 X92.044 Y108.267 E3.43949 ; perimeter
G1 X90.524 Y106.900 E3.46200 ; perimeter
G1 X89.695 Y105.033 E3.48451 ; perimeter
G1 X89.695 Y102.991 E3.50699 ; perimeter
G1 X90.524 Y101.124 E3.52950 ; perimeter
G1 X92.044 Y99.757 E3.55201 ; perimeter
G1 X93.986 Y99.126 E3.57450 ; perimeter
G1 X95.959 Y99.333 E3.59635 ; perimeter
G1 F6000.000 E1.59635 ; retract
G1 Z0.400 F21600.000 ; lift plate during retraction
G92 E0
G1 X106.472 Y115.866 ; move to first perimeter point
G1 Z0.200 ; restore layer Z
G1 F6000.000 E2.50000 ; compensate retraction
G1 X109.526 Y115.866 F2400.000 E2.53364 ; perimeter
G1 X111.053 Y118.511 E2.56727 ; perimeter
G1 X109.527 Y121.158 E2.60093 ; perimeter
G1 X106.471 Y121.158 E2.63458 ; perimeter
G1 X104.945 Y118.511 E2.66823 ; perimeter
G1 X106.442 Y115.918 E2.70120 ; perimeter
G1 X106.692 Y116.247 F21600.000 ; move to first perimeter point
G1 X109.306 Y116.247 F2400.000 E2.73000 ; perimeter
G1 X110.614 Y118.511 E2.75880 ; perimeter
G1 X109.307 Y120.777 E2.78762 ; perimeter
G1 X106.691 Y120.777 E2.81643 ; perimeter
G1 X106.450 Y120.360 E2.82174 ; perimeter
G1 X106.450 Y120.360 E2.82174 ; perimeter
G1 X105.384 Y118.511 E2.84525 ; perimeter
G1 X106.662 Y116.299 E2.87338 ; perimeter
G1 X106.911 Y116.627 F21600.000 ; move to first perimeter point
G1 X109.087 Y116.627 F2400.000 E2.89735 ; perimeter
G1 X110.175 Y118.511 E2.92131 ; perimeter
G1 X109.087 Y120.397 E2.94529 ; perimeter
G1 X106.911 Y120.397 E2.96926 ; perimeter
