; generated by Slic3r 0.7.3-dev on 2012-05-10 at 11:11:47

; layer_height = 0.4
; perimeters = 1
; solid_layers = 3
; fill_density = 0.25
; nozzle_diameter = 0.75
; filament_diameter = 3
; extrusion_multiplier = 1
; perimeter_speed = 40
; infill_speed = 70
; travel_speed = 130
; extrusion_width_ratio = 2.3
; scale = 1
; single wall width = 0.92mm

M104 S230 ; set temperature
M92 E380
G92 X0 Y0 Z0  E0.0
G1 Z2.0 F150.0
G1 X-250.0 F2100.0
G1 X-249.0 F300.0
G1 X-251.0 F100.0
G92 X3.0
G1 Y-250.0 F2100.0
G1 Y-249.0 F300.0
G1 Y-251.0 F300.0
G92 Y10.0
G1 Y70.0 F2100.0
G1 Z-250.0 F150.0
G1 Z-249.0 F50.0
G1 Z-251.0 F50.0
G1 Y75.0 E2.0  F1000.0
G1 Y100.0 E2.3  F1000.0
G92 Z0.3
G92 E0.0
M106 S70
M107
M109 S230 ; wait for temperature to be reached
G90 ; use absolute coordinates
G21 ; set units to millimeters
G92 E0 ; reset extrusion distance
M82 ; use absolute distances for extrusion
M107
G1 Z0.400 F7800.000
G1 X51.863 Y74.531
G1 F600.000 E0.50000
G1 X53.453 Y73.131 F1920.000 E0.60592
G1 X53.683 Y72.951 E0.62052
G1 X54.183 Y72.621 E0.65047
G1 X56.303 Y71.511 E0.77012
G1 X56.843 Y71.301 E0.79908
G1 X57.403 Y71.131 E0.82834
G1 X59.443 Y70.641 E0.93324
G1 X59.723 Y70.591 E0.94746
G1 X60.293 Y70.541 E0.97607
G1 X60.583 Y70.531 E0.99057
G1 X128.693 Y70.541 E4.39586
G1 X129.263 Y70.591 E4.42447
G1 X131.813 Y71.191 E4.55544
G1 X132.473 Y71.421 E4.59039
G1 X146.323 Y77.851 E5.35383
G1 X146.593 Y78.001 E5.36927
G1 X146.863 Y78.171 E5.38523
G1 X148.703 Y79.671 E5.50392
G1 X149.143 Y80.081 E5.53398
G1 X149.353 Y80.301 E5.54919
G1 X149.723 Y80.771 E5.57910
G1 X150.053 Y81.271 E5.60905
G1 X151.063 Y83.051 E5.71137
G1 X151.313 Y83.601 E5.74158
G1 X151.503 Y84.171 E5.77162
G1 X151.933 Y86.481 E5.88909
G1 X152.023 Y87.511 E5.94079
G1 X152.023 Y118.511 E7.49069
G1 X151.933 Y119.541 E7.54238
G1 X151.573 Y121.561 E7.64497
G1 X151.503 Y121.851 E7.65988
G1 X151.313 Y122.411 E7.68945
G1 X150.923 Y123.231 E7.73485
G1 X149.893 Y124.991 E7.83680
G1 X149.543 Y125.481 E7.86691
G1 X149.353 Y125.711 E7.88182
G1 X148.703 Y126.341 E7.92708
G1 X147.123 Y127.651 E8.02970
G1 X146.633 Y127.981 E8.05923
G1 X146.113 Y128.271 E8.08900
G1 X143.633 Y129.191 E8.22125
G1 X143.053 Y129.341 E8.25120
G1 X142.463 Y129.431 E8.28104
G1 X141.863 Y129.461 E8.31108
G1 X73.823 Y129.451 E11.71287
G1 X73.523 Y129.431 E11.72790
G1 X72.933 Y129.341 E11.75774
G1 X72.343 Y129.191 E11.78817
G1 X70.153 Y128.391 E11.90474
G1 X69.883 Y128.271 E11.91952
G1 X69.373 Y127.991 E11.94860
G1 X68.883 Y127.661 E11.97814
G1 X51.653 Y113.291 E13.09987
G1 X51.263 Y112.871 E13.12852
G1 X49.723 Y110.681 E13.26238
G1 X49.573 Y110.421 E13.27738
G1 X49.313 Y109.901 E13.30645
G1 X48.473 Y107.651 E13.42653
G1 X48.263 Y106.811 E13.46982
G1 X48.003 Y104.701 E13.57611
G1 X47.963 Y103.981 E13.61216
G1 X47.963 Y84.031 E14.60960
G1 X48.003 Y83.311 E14.64565
G1 X48.263 Y81.201 E14.75194
G1 X48.393 Y80.631 E14.78117
G1 X48.563 Y80.091 E14.80948
G1 X49.313 Y78.111 E14.91534
G1 X49.573 Y77.591 E14.94440
G1 X49.723 Y77.331 E14.95941
G1 X51.083 Y75.371 E15.07868
G1 X51.263 Y75.141 E15.09329
G1 X51.653 Y74.721 E15.12194
G1 X51.761 Y74.624 E15.12920
G1 F600.000 E14.62920
G92 E0
G1 X138.175 Y87.511 F7800.000
G1 F600.000 E0.50000
G1 X139.586 Y85.068 F1920.000 E0.64105
G1 X142.408 Y85.068 E0.78213
G1 X143.819 Y87.511 E0.92318
G1 X142.408 Y89.956 E1.06434
G1 X139.586 Y89.956 E1.20545
G1 X138.244 Y87.630 E1.33971
G1 F600.000 E0.83971
G92 E0
G1 X132.489 Y86.234 F7800.000
G1 F600.000 E0.50000
G1 X131.153 Y88.073 F1920.000 E0.61361
G1 X129.186 Y89.206 E0.72711
G1 X126.926 Y89.444 E0.84072
G1 X124.768 Y88.743 E0.95420
G1 X123.078 Y87.223 E1.06783
G1 X122.155 Y85.147 E1.18141
G1 X122.155 Y82.877 E1.29488
G1 X123.078 Y80.801 E1.40847
G1 X124.768 Y79.281 E1.52210
G1 X126.926 Y78.580 E1.63557
G1 X129.186 Y78.818 E1.74918
G1 X131.153 Y79.951 E1.86268
G1 X132.489 Y81.790 E1.97629
G1 X132.959 Y84.011 E2.08981
G1 X132.517 Y86.099 E2.19654
G1 F600.000 E1.69654
G92 E0
G1 X129.186 Y98.818 F7800.000
G1 F600.000 E0.50000
G1 X131.153 Y99.951 F1920.000 E0.61350
G1 X132.489 Y101.790 E0.72710
G1 X132.959 Y104.011 E0.84063
G1 X132.489 Y106.234 E0.95425
G1 X131.153 Y108.073 E1.06786
G1 X129.186 Y109.206 E1.18136
G1 X126.926 Y109.444 E1.29497
G1 X126.700 Y109.371 E1.30686
G1 X126.700 Y109.371 E1.30686
G1 X124.768 Y108.743 E1.40845
G1 X123.078 Y107.223 E1.52208
G1 X122.155 Y105.147 E1.63566
G1 X122.155 Y102.877 E1.74914
G1 X123.078 Y100.801 E1.86272
G1 X124.768 Y99.281 E1.97635
G1 X126.926 Y98.580 E2.08983
G1 X129.049 Y98.803 E2.19654
G1 F600.000 E1.69654
G92 E0
G1 X139.586 Y116.068 F7800.000
G1 F600.000 E0.50000
G1 X142.408 Y116.068 F1920.000 E0.64107
G1 X143.819 Y118.511 E0.78213
G1 X142.408 Y120.956 E0.92329
G1 X139.586 Y120.956 E1.06440
G1 X138.175 Y118.511 E1.20556
G1 X139.517 Y116.187 E1.33971
G1 F600.000 E0.83971
G92 E0
G1 X135.957 Y118.471 F7800.000
G1 F600.000 E0.50000
G1 X135.957 Y111.551 F1920.000 E0.84597
G1 X127.959 Y111.551 E1.24584
G1 X127.959 Y111.493 E1.24874
G1 X126.589 Y111.493 E1.31725
G1 X124.825 Y111.060 E1.40804
G1 X123.216 Y110.214 E1.49893
G1 X121.856 Y109.010 E1.58975
G1 X120.825 Y107.514 E1.68057
G1 X120.181 Y105.816 E1.77136
G1 X119.959 Y103.983 E1.86367
G1 X119.959 Y84.039 E2.86083
G1 X120.181 Y82.208 E2.95304
G1 X120.825 Y80.510 E3.04383
G1 X121.856 Y79.014 E3.13465
G1 X123.216 Y77.810 E3.22547
G1 X124.825 Y76.964 E3.31636
G1 X126.589 Y76.531 E3.40715
G1 X128.407 Y76.531 E3.49808
G1 X130.171 Y76.964 E3.58886
G1 X131.780 Y77.810 E3.67975
G1 X133.140 Y79.014 E3.77057
G1 X134.171 Y80.510 E3.86140
G1 X134.916 Y82.471 E3.96627
G1 X141.037 Y82.471 E4.27232
G1 X141.037 Y82.555 E4.27652
G1 X141.872 Y82.555 E4.31825
G1 X143.513 Y83.153 E4.40561
G1 X144.853 Y84.277 E4.49305
G1 X145.728 Y85.791 E4.58044
G1 X146.030 Y87.511 E4.66777
G1 X145.728 Y89.233 E4.75519
G1 X144.853 Y90.746 E4.84257
G1 X144.037 Y91.430 E4.89581
G1 X144.037 Y114.594 E6.05392
G1 X144.853 Y115.278 E6.10716
G1 X145.728 Y116.791 E6.19454
G1 X146.030 Y118.511 E6.28187
G1 X145.728 Y120.233 E6.36929
G1 X144.853 Y121.747 E6.45668
G1 X143.513 Y122.871 E6.54412
G1 X141.872 Y123.469 E6.63148
G1 X140.124 Y123.469 E6.71885
G1 X138.481 Y122.871 E6.80630
G1 X137.143 Y121.747 E6.89365
G1 X136.268 Y120.233 E6.98107
G1 X135.981 Y118.607 E7.06364
G1 F600.000 E6.56364
G92 E0
G1 X109.410 Y89.956 F7800.000
G1 F600.000 E0.50000
G1 X106.588 Y89.956 F1920.000 E0.64111
G1 X105.177 Y87.511 E0.78227
G1 X106.588 Y85.068 E0.92332
G1 X109.410 Y85.068 E1.06440
G1 X110.821 Y87.511 E1.20545
G1 X109.479 Y89.837 E1.33971
G1 F600.000 E0.83971
G92 E0
G1 X99.491 Y86.234 F7800.000
G1 F600.000 E0.50000
G1 X98.155 Y88.073 F1920.000 E0.61361
G1 X96.188 Y89.206 E0.72711
G1 X93.928 Y89.444 E0.84072
G1 X91.770 Y88.743 E0.95420
G1 X90.080 Y87.223 E1.06783
G1 X89.157 Y85.147 E1.18141
G1 X89.157 Y82.877 E1.29488
G1 X90.080 Y80.801 E1.40847
G1 X91.770 Y79.281 E1.52210
G1 X93.928 Y78.580 E1.63557
G1 X96.188 Y78.818 E1.74918
G1 X98.155 Y79.951 E1.86268
G1 X99.491 Y81.790 E1.97629
G1 X99.961 Y84.011 E2.08981
G1 X99.519 Y86.099 E2.19654
G1 F600.000 E1.69654
G92 E0
G1 X96.188 Y98.818 F7800.000
G1 F600.000 E0.50000
G1 X98.155 Y99.951 F1920.000 E0.61350
G1 X99.491 Y101.790 E0.72710
G1 X99.961 Y104.011 E0.84063
G1 X99.491 Y106.234 E0.95425
G1 X98.155 Y108.073 E1.06786
G1 X96.188 Y109.206 E1.18136
G1 X93.928 Y109.444 E1.29497
G1 X91.770 Y108.743 E1.40845
G1 X90.080 Y107.223 E1.52208
G1 X89.157 Y105.147 E1.63566
G1 X89.157 Y102.877 E1.74914
G1 X90.080 Y100.801 E1.86272
G1 X91.770 Y99.281 E1.97635
G1 X93.928 Y98.580 E2.08983
G1 X96.051 Y98.803 E2.19654
G1 F600.000 E1.69654
G92 E0
G1 X106.588 Y116.068 F7800.000
G1 F600.000 E0.50000
G1 X109.410 Y116.068 F1920.000 E0.64107
G1 X110.821 Y118.511 E0.78213
G1 X109.410 Y120.956 E0.92329
G1 X106.588 Y120.956 E1.06440
G1 X105.177 Y118.511 E1.20556
G1 X106.519 Y116.187 E1.33971
G1 F600.000 E0.83971
G92 E0
G1 X102.959 Y118.471 F7800.000
G1 F600.000 E0.50000
G1 X102.959 Y111.551 F1920.000 E0.84597
G1 X94.961 Y111.551 E1.24584
G1 X94.961 Y111.493 E1.24874
G1 X93.591 Y111.493 E1.31725
G1 X91.827 Y111.060 E1.40804
G1 X90.218 Y110.214 E1.49893
G1 X88.858 Y109.010 E1.58975
G1 X87.827 Y107.514 E1.68057
G1 X87.183 Y105.816 E1.77136
G1 X86.961 Y103.983 E1.86367
G1 X86.961 Y84.039 E2.86083
G1 X87.183 Y82.208 E2.95304
G1 X87.827 Y80.510 E3.04383
G1 X88.858 Y79.014 E3.13465
G1 X90.218 Y77.810 E3.22547
G1 X91.827 Y76.964 E3.31636
G1 X93.591 Y76.531 E3.40715
G1 X95.409 Y76.531 E3.49808
G1 X97.173 Y76.964 E3.58886
G1 X98.782 Y77.810 E3.67975
G1 X100.142 Y79.014 E3.77057
G1 X101.173 Y80.510 E3.86140
G1 X101.918 Y82.471 E3.96627
G1 X108.039 Y82.471 E4.27232
G1 X108.039 Y82.555 E4.27652
G1 X108.874 Y82.555 E4.31825
G1 X110.515 Y83.153 E4.40561
G1 X111.855 Y84.277 E4.49305
G1 X112.730 Y85.791 E4.58044
G1 X113.032 Y87.511 E4.66777
G1 X112.730 Y89.233 E4.75519
G1 X111.855 Y90.746 E4.84257
G1 X111.039 Y91.430 E4.89581
G1 X111.039 Y114.594 E6.05392
G1 X111.855 Y115.278 E6.10716
G1 X112.730 Y116.791 E6.19454
G1 X113.032 Y118.511 E6.28187
G1 X112.730 Y120.233 E6.36929
G1 X111.855 Y121.747 E6.45668
G1 X110.515 Y122.871 E6.54412
G1 X108.874 Y123.469 E6.63148
G1 X107.126 Y123.469 E6.71885
G1 X105.483 Y122.871 E6.80630
G1 X104.145 Y121.747 E6.89366
G1 X103.270 Y120.233 E6.98107
G1 X102.983 Y118.607 E7.06364
G1 F600.000 E6.56364
G92 E0
G1 X76.412 Y89.956 F7800.000
G1 F600.000 E0.50000
G1 X73.590 Y89.956 F1920.000 E0.64111
G1 X72.179 Y87.511 E0.78227
G1 X73.590 Y85.068 E0.92332
G1 X76.412 Y85.068 E1.06440
G1 X77.823 Y87.511 E1.20545
G1 X76.481 Y89.837 E1.33971
G1 F600.000 E0.83971
G92 E0
G1 X66.493 Y86.234 F7800.000
G1 F600.000 E0.50000
G1 X65.157 Y88.073 F1920.000 E0.61361
G1 X63.190 Y89.206 E0.72711
G1 X60.930 Y89.444 E0.84072
G1 X58.772 Y88.743 E0.95420
G1 X57.082 Y87.223 E1.06783
G1 X56.159 Y85.147 E1.18141
G1 X56.159 Y82.877 E1.29488
G1 X57.082 Y80.801 E1.40847
G1 X58.772 Y79.281 E1.52210
G1 X60.930 Y78.580 E1.63557
G1 X63.190 Y78.818 E1.74918
G1 X65.157 Y79.951 E1.86268
G1 X66.493 Y81.790 E1.97629
G1 X66.963 Y84.011 E2.08981
G1 X66.521 Y86.099 E2.19654
G1 F600.000 E1.69654
G92 E0
G1 X63.190 Y98.818 F7800.000
G1 F600.000 E0.50000
G1 X65.157 Y99.951 F1920.000 E0.61350
G1 X66.493 Y101.790 E0.72710
G1 X66.963 Y104.011 E0.84063
G1 X66.493 Y106.234 E0.95425
G1 X65.157 Y108.073 E1.06786
G1 X63.190 Y109.206 E1.18136
G1 X60.930 Y109.444 E1.29497
G1 X58.772 Y108.743 E1.40845
G1 X57.082 Y107.223 E1.52208
G1 X56.159 Y105.147 E1.63566
G1 X56.159 Y102.877 E1.74914
G1 X57.082 Y100.801 E1.86272
G1 X58.772 Y99.281 E1.97635
G1 X60.930 Y98.580 E2.08983
G1 X63.053 Y98.803 E2.19654
G1 F600.000 E1.69654
G92 E0
G1 X73.590 Y116.068 F7800.000
G1 F600.000 E0.50000
G1 X76.412 Y116.068 F1920.000 E0.64107
G1 X77.823 Y118.511 E0.78213
G1 X76.412 Y120.956 E0.92329
G1 X73.590 Y120.956 E1.06440
G1 X72.179 Y118.511 E1.20556
G1 X73.521 Y116.187 E1.33971
G1 F600.000 E0.83971
G92 E0
G1 X69.961 Y118.471 F7800.000
G1 F600.000 E0.50000
G1 X69.961 Y111.551 F1920.000 E0.84597
G1 X61.963 Y111.551 E1.24584
G1 X61.963 Y111.493 E1.24874
G1 X60.593 Y111.493 E1.31725
G1 X58.829 Y111.060 E1.40804
G1 X57.220 Y110.214 E1.49893
G1 X55.860 Y109.010 E1.58975
G1 X54.829 Y107.514 E1.68057
G1 X54.185 Y105.816 E1.77136
G1 X53.963 Y103.983 E1.86367
G1 X53.963 Y84.039 E2.86083
G1 X54.185 Y82.208 E2.95304
G1 X54.829 Y80.510 E3.04383
G1 X55.860 Y79.014 E3.13465
G1 X57.220 Y77.810 E3.22547
G1 X58.829 Y76.964 E3.31636
G1 X60.593 Y76.531 E3.40715
G1 X62.411 Y76.531 E3.49808
G1 X64.175 Y76.964 E3.58886
G1 X65.784 Y77.810 E3.67975
G1 X67.144 Y79.014 E3.77057
G1 X68.175 Y80.510 E3.86140
G1 X68.920 Y82.471 E3.96627
G1 X75.041 Y82.471 E4.27232
G1 X75.041 Y82.555 E4.27652
G1 X75.876 Y82.555 E4.31825
G1 X77.517 Y83.153 E4.40561
G1 X78.857 Y84.277 E4.49305
G1 X79.732 Y85.791 E4.58044
G1 X80.034 Y87.511 E4.66777
G1 X79.732 Y89.233 E4.75519
G1 X78.857 Y90.746 E4.84257
G1 X78.041 Y91.430 E4.89581
G1 X78.041 Y114.594 E6.05392
G1 X78.857 Y115.278 E6.10716
G1 X79.732 Y116.791 E6.19454
G1 X80.034 Y118.511 E6.28187
G1 X79.732 Y120.233 E6.36929
G1 X78.857 Y121.747 E6.45668
G1 X77.517 Y122.871 E6.54412
G1 X75.876 Y123.469 E6.63148
G1 X74.128 Y123.469 E6.71885
G1 X72.485 Y122.871 E6.80630
G1 X71.147 Y121.747 E6.89366
G1 X70.272 Y120.233 E6.98107
G1 X69.985 Y118.607 E7.06364
G1 F600.000 E6.56364
G92 E0
G1 X121.014 Y106.032 F7800.000
G1 F600.000 E0.50000
G1 X122.356 Y107.374 F3360.000 E0.59493
G1 X121.562 Y105.374 F7800.000
G1 X120.647 Y104.459 F3360.000 E0.65966
G1 X121.562 Y104.166 F7800.000
G1 X120.552 Y103.156 F3360.000 E0.73114
G1 X121.562 Y102.960 F7800.000
G1 X120.552 Y101.949 F3360.000 E0.80261
G1 X120.552 Y100.742 F7800.000
G1 X121.933 Y102.122 F3360.000 E0.90030
G1 X122.304 Y101.287 F7800.000
G1 X120.552 Y99.535 F3360.000 E1.02424
G1 X120.552 Y98.327 F7800.000
G1 X122.706 Y100.482 F3360.000 E1.17665
G1 X123.341 Y99.911 F7800.000
G1 X120.552 Y97.121 F3360.000 E1.37397
G1 X120.552 Y95.913 F7800.000
G1 X123.978 Y99.339 F3360.000 E1.61631
G1 X124.621 Y98.776 F7800.000
G1 X120.552 Y94.707 F3360.000 E1.90417
G1 X120.552 Y93.499 F7800.000
G1 X125.533 Y98.480 F3360.000 E2.25650
G1 X126.443 Y98.185 F7800.000
G1 X120.552 Y92.293 F3360.000 E2.67325
G1 X120.552 Y91.085 F7800.000
G1 X127.479 Y98.013 F3360.000 E3.16328
G1 X128.828 Y98.155 F7800.000
G1 X120.552 Y89.879 F3360.000 E3.74870
G1 X120.553 Y88.672 F7800.000
G1 X130.690 Y98.810 F3360.000 E4.46581
G1 X132.946 Y101.065 F7800.000
G1 X143.444 Y111.564 F3360.000 E5.20844
G1 X143.444 Y110.357 F7800.000
G1 X120.552 Y87.465 F3360.000 E6.82773
G1 X120.553 Y86.258 F7800.000
G1 X143.444 Y109.150 F3360.000 E8.44703
G1 X143.444 Y107.943 F7800.000
G1 X125.060 Y89.559 F3360.000 E9.74741
G1 X126.743 Y90.034 F7800.000
G1 X143.444 Y106.736 F3360.000 E10.92884
G1 X143.444 Y105.529 F7800.000
G1 X127.834 Y89.919 F3360.000 E12.03300
G1 X128.927 Y89.804 F7800.000
G1 X143.444 Y104.322 F3360.000 E13.05993
G1 X143.444 Y103.115 F7800.000
G1 X129.773 Y89.443 F3360.000 E14.02699
G1 X130.538 Y89.001 F7800.000
G1 X143.444 Y101.908 F3360.000 E14.93992
G1 X143.444 Y100.701 F7800.000
G1 X131.303 Y88.560 F3360.000 E15.79869
G1 X131.870 Y87.919 F7800.000
G1 X143.444 Y99.493 F3360.000 E16.61744
G1 X143.444 Y98.286 F7800.000
G1 X132.377 Y87.220 F3360.000 E17.40023
G1 X132.886 Y86.521 F7800.000
G1 X143.444 Y97.079 F3360.000 E18.14711
G1 X143.444 Y95.872 F7800.000
G1 X133.178 Y85.607 F3360.000 E18.87327
G1 X133.389 Y84.610 F7800.000
G1 X138.679 Y89.900 F3360.000 E19.24746
G1 X139.328 Y90.549 F7800.000
G1 X143.444 Y94.665 F3360.000 E19.53862
G1 X143.444 Y93.458 F7800.000
G1 X140.535 Y90.549 F3360.000 E19.74439
G1 X141.742 Y90.550 F7800.000
G1 X143.444 Y92.252 F3360.000 E19.86479
G1 X143.579 Y91.179 F7800.000
G1 X142.754 Y90.354 F3360.000 E19.92316
G1 X143.195 Y89.589 F7800.000
G1 X144.235 Y90.629 F3360.000 E19.99674
G1 X144.748 Y89.934 F7800.000
G1 X143.637 Y88.823 F3360.000 E20.07532
G1 X144.078 Y88.058 F7800.000
G1 X145.180 Y89.161 F3360.000 E20.15330
G1 X145.361 Y88.133 F7800.000
G1 X144.519 Y87.292 F3360.000 E20.21282
G1 X145.257 Y86.824 F7800.000
G1 X142.984 Y84.550 F3360.000 E20.37363
G1 X142.908 Y84.475 F7800.000
G1 X141.652 Y83.218 F3360.000 E20.46251
G1 X141.702 Y84.475 F7800.000
G1 X140.376 Y83.148 F3360.000 E20.55634
G1 X139.084 Y83.065 F7800.000
G1 X140.494 Y84.475 F3360.000 E20.65608
G1 X139.330 Y84.516 F7800.000
G1 X137.877 Y83.064 F3360.000 E20.75882
G1 X136.670 Y83.065 F7800.000
G1 X138.888 Y85.282 F3360.000 E20.91568
G1 X138.446 Y86.046 F7800.000
G1 X135.463 Y83.064 F3360.000 E21.12665
G1 X134.471 Y83.280 F7800.000
G1 X133.202 Y82.010 F3360.000 E21.21644
G1 X133.732 Y81.332 F7800.000
G1 X131.567 Y79.168 F3360.000 E21.36954
G1 X131.916 Y79.517 F7800.000
G1 X130.241 Y77.842 F3360.000 E21.48804
G1 X129.408 Y78.216 F7800.000
G1 X128.405 Y77.213 F3360.000 E21.55896
G1 X128.059 Y78.074 F7800.000
G1 X127.110 Y77.124 F3360.000 E21.62614
G1 X126.836 Y78.057 F7800.000
G1 X126.007 Y77.228 F3360.000 E21.68476
G1 X125.038 Y77.466 F7800.000
G1 X125.924 Y78.353 F3360.000 E21.74748
G1 X125.014 Y78.649 F7800.000
G1 X124.216 Y77.851 F3360.000 E21.80390
G1 X123.428 Y78.271 F7800.000
G1 X124.251 Y79.093 F3360.000 E21.86208
G1 X123.616 Y79.665 F7800.000
