; generated by Slic3r 0.7.2b on 2012-05-02 at 04:00:14

; layer_height = 0.4
; perimeters = 1
; solid_layers = 3
; fill_density = 0.35
; nozzle_diameter = 0.75
; filament_diameter = 3
; extrusion_multiplier = 1
; perimeter_speed = 50
; infill_speed = 80
; travel_speed = 130
; extrusion_width_ratio = 2.3
; scale = 1
; single wall width = 0.92mm

M104 S220 ; set temperature
M92 E380
G92 X0 Y0 Z0  E0.0
G1 Z2.0 F150.0
G1 X-250.0 F2100.0
G1 X-249.0 F300.0
G1 X-251.0 F100.0
G92 X3.0
G1 Y-250.0 F2100.0
G1 Y-249.0 F300.0
G1 Y-251.0 F300.0
G92 Y10.0
G1 Y70.0 F2100.0
G1 Z-250.0 F150.0
G1 Z-249.0 F50.0
G1 Z-251.0 F50.0
G1 Y75.0 E2.0  F1000.0
G1 Y100.0 E2.3  F1000.0
G92 Z0.3
G92 E0.0
M106 S70
M107
M109 S220 ; wait for temperature to be reached
G90 ; use absolute coordinates
G21 ; set units to millimeters
G92 E0 ; reset extrusion distance
M82 ; use absolute distances for extrusion
G1 Z0.400 F7800.000
G1 X75.360 Y74.531
G1 F600.000 E0.50000
G1 X76.950 Y73.131 F2400.000 E0.60592
G1 X77.180 Y72.951 E0.62052
G1 X77.680 Y72.621 E0.65047
G1 X79.810 Y71.511 E0.77056
G1 X80.350 Y71.291 E0.79971
G1 X82.950 Y70.641 E0.93371
G1 X83.230 Y70.591 E0.94793
G1 X83.800 Y70.541 E0.97653
G1 X84.090 Y70.531 E0.99104
G1 X85.900 Y70.531 E1.08154
G1 X86.890 Y70.611 E1.13119
G1 X117.320 Y75.701 E2.67374
G1 X119.640 Y76.291 E2.79342
G1 X120.180 Y76.511 E2.82257
G1 X122.310 Y77.621 E2.94266
G1 X122.810 Y77.951 E2.97261
G1 X124.840 Y79.721 E3.10727
G1 X125.230 Y80.141 E3.13592
G1 X126.770 Y82.331 E3.26978
G1 X126.920 Y82.591 E3.28479
G1 X127.180 Y83.111 E3.31385
G1 X128.020 Y85.351 E3.43346
G1 X128.170 Y85.901 E3.46196
G1 X128.490 Y88.281 E3.58203
G1 X128.540 Y89.031 E3.61961
G1 X128.540 Y108.981 E4.61705
G1 X128.490 Y109.731 E4.65463
G1 X128.220 Y111.841 E4.76098
G1 X128.170 Y112.111 E4.77471
G1 X128.020 Y112.661 E4.80321
G1 X127.180 Y114.901 E4.92282
G1 X126.920 Y115.421 E4.95189
G1 X126.770 Y115.681 E4.96689
G1 X125.410 Y117.641 E5.08617
G1 X125.230 Y117.871 E5.10077
G1 X124.840 Y118.291 E5.12943
G1 X123.040 Y119.881 E5.24950
G1 X122.810 Y120.061 E5.26410
G1 X122.310 Y120.391 E5.29406
G1 X120.450 Y121.371 E5.39917
G1 X101.400 Y129.111 E6.42722
G1 X100.840 Y129.281 E6.45648
G1 X99.960 Y129.431 E6.50111
G1 X99.370 Y129.461 E6.53065
G1 X97.320 Y129.451 E6.63315
G1 X97.030 Y129.431 E6.64768
G1 X96.440 Y129.341 E6.67752
G1 X96.150 Y129.281 E6.69232
G1 X93.670 Y128.411 E6.82372
G1 X93.400 Y128.291 E6.83850
G1 X92.880 Y128.011 E6.86802
G1 X92.630 Y127.851 E6.88286
G1 X75.150 Y113.291 E8.02027
G1 X74.760 Y112.871 E8.04893
G1 X73.220 Y110.681 E8.18278
G1 X73.070 Y110.421 E8.19779
G1 X72.810 Y109.901 E8.22686
G1 X71.970 Y107.651 E8.34693
G1 X71.760 Y106.811 E8.39022
G1 X71.500 Y104.701 E8.49652
G1 X71.460 Y103.981 E8.53257
G1 X71.460 Y84.031 E9.53001
G1 X71.500 Y83.311 E9.56606
G1 X71.760 Y81.201 E9.67235
G1 X71.890 Y80.631 E9.70158
G1 X72.060 Y80.091 E9.72989
G1 X72.810 Y78.111 E9.83574
G1 X73.070 Y77.591 E9.86481
G1 X73.220 Y77.331 E9.87982
G1 X74.580 Y75.371 E9.99909
G1 X74.760 Y75.141 E10.01369
G1 X75.150 Y74.721 E10.04235
G1 X75.258 Y74.624 E10.04961
G1 F600.000 E9.54961
G92 E0
G1 X97.384 Y116.580 F7800.000
G1 F600.000 E0.50000
G1 X99.616 Y116.580 F2400.000 E0.61155
G1 X100.731 Y118.513 E0.72310
G1 X99.616 Y120.445 E0.83465
G1 X97.384 Y120.445 E0.94620
G1 X96.269 Y118.513 E1.05775
G1 X97.315 Y116.700 E1.16240
G1 F600.000 E0.66240
G92 E0
G1 X88.326 Y107.706 F7800.000
G1 F600.000 E0.50000
G1 X86.536 Y108.740 F2400.000 E0.60333
G1 X84.480 Y108.956 E0.70666
G1 X82.515 Y108.317 E0.80999
G1 X80.979 Y106.934 E0.91333
G1 X80.138 Y105.046 E1.01666
G1 X80.138 Y102.979 E1.11999
G1 X80.979 Y101.091 E1.22332
G1 X82.515 Y99.708 E1.32665
G1 X84.480 Y99.070 E1.42998
G1 X86.536 Y99.286 E1.53331
G1 X88.326 Y100.319 E1.63664
G1 X89.541 Y101.991 E1.73998
G1 X89.970 Y104.013 E1.84331
G1 X89.541 Y106.034 E1.94664
G1 X88.407 Y107.595 E2.04307
G1 F600.000 E1.54307
G92 E0
G1 X86.536 Y88.740 F7800.000
G1 F600.000 E0.50000
G1 X84.480 Y88.956 F2400.000 E0.60333
G1 X82.515 Y88.317 E0.70666
G1 X80.979 Y86.934 E0.80999
G1 X80.138 Y85.046 E0.91332
G1 X80.138 Y82.979 E1.01665
G1 X80.979 Y81.091 E1.11999
G1 X82.515 Y79.708 E1.22332
G1 X84.480 Y79.070 E1.32665
G1 X86.536 Y79.286 E1.42998
G1 X88.326 Y80.319 E1.53331
G1 X89.541 Y81.991 E1.63664
G1 X89.970 Y84.013 E1.73997
G1 X89.541 Y86.034 E1.84330
G1 X88.326 Y87.706 E1.94664
G1 X86.655 Y88.671 E2.04307
G1 F600.000 E1.54307
G92 E0
G1 X96.269 Y87.513 F7800.000
G1 F600.000 E0.50000
G1 X97.384 Y85.580 F2400.000 E0.61155
G1 X99.616 Y85.580 E0.72310
G1 X100.731 Y87.513 E0.83465
G1 X99.616 Y89.445 E0.94620
G1 X97.384 Y89.445 E1.05775
G1 X96.338 Y87.632 E1.16240
G1 F600.000 E0.66240
G92 E0
G1 X98.540 Y82.556 F7800.000
G1 F600.000 E0.50000
G1 X99.374 Y82.556 F2400.000 E0.54170
G1 X101.016 Y83.154 E0.62908
G1 X102.355 Y84.278 E0.71647
G1 X103.229 Y85.791 E0.80387
G1 X103.533 Y87.513 E0.89125
G1 X103.229 Y89.234 E0.97864
G1 X102.355 Y90.748 E1.06603
G1 X101.540 Y91.432 E1.11925
G1 X101.540 Y114.593 E2.27725
G1 X102.355 Y115.278 E2.33047
G1 X103.229 Y116.791 E2.41786
G1 X103.533 Y118.513 E2.50525
G1 X103.229 Y120.234 E2.59264
G1 X102.355 Y121.748 E2.68003
G1 X101.016 Y122.871 E2.76742
G1 X99.374 Y123.469 E2.85480
G1 X97.626 Y123.469 E2.94220
G1 X95.984 Y122.871 E3.02959
G1 X94.645 Y121.748 E3.11698
G1 X93.771 Y120.234 E3.20436
G1 X93.460 Y118.472 E3.29380
G1 X93.460 Y111.553 E3.63976
G1 X85.460 Y111.553 E4.03974
G1 X85.460 Y111.494 E4.04265
G1 X84.092 Y111.494 E4.11107
G1 X82.327 Y111.059 E4.20191
G1 X80.719 Y110.215 E4.29275
G1 X79.359 Y109.010 E4.38359
G1 X78.327 Y107.515 E4.47442
G1 X77.682 Y105.816 E4.56526
G1 X77.460 Y103.985 E4.65750
G1 X77.460 Y84.040 E5.65466
G1 X77.682 Y82.209 E5.74690
G1 X78.327 Y80.510 E5.83774
G1 X79.359 Y79.015 E5.92857
G1 X80.719 Y77.810 E6.01941
G1 X82.327 Y76.966 E6.11025
G1 X84.092 Y76.531 E6.20109
G1 X85.908 Y76.531 E6.29193
G1 X87.673 Y76.966 E6.38276
G1 X89.281 Y77.810 E6.47360
G1 X90.641 Y79.015 E6.56444
G1 X91.673 Y80.510 E6.65528
G1 X92.418 Y82.473 E6.76021
G1 X98.486 Y82.473 E7.06359
G1 F600.000 E6.56359
G92 E0
G1 X113.405 Y106.250 F7800.000
G1 F600.000 E0.50000
G1 X115.554 Y105.872 F2400.000 E0.60908
G1 X117.443 Y106.962 E0.71816
G1 X118.190 Y109.013 E0.82724
G1 X117.443 Y111.063 E0.93632
G1 X115.554 Y112.154 E1.04541
G1 X113.405 Y111.775 E1.15448
G1 X112.003 Y110.104 E1.26357
G1 X112.003 Y107.922 E1.37265
G1 X113.317 Y106.356 E1.47483
G1 F600.000 E0.97483
G92 E0
G1 X114.480 Y93.956 F7800.000
G1 F600.000 E0.50000
G1 X112.515 Y93.317 F2400.000 E0.60333
G1 X110.979 Y91.934 E0.70666
G1 X110.138 Y90.046 E0.80999
G1 X110.138 Y87.979 E0.91332
G1 X110.979 Y86.091 E1.01665
G1 X112.515 Y84.708 E1.11999
G1 X114.480 Y84.070 E1.22332
G1 X116.536 Y84.286 E1.32665
G1 X118.326 Y85.319 E1.42998
G1 X119.541 Y86.991 E1.53332
G1 X119.970 Y89.013 E1.63665
G1 X119.541 Y91.034 E1.73998
G1 X118.326 Y92.706 E1.84331
G1 X116.536 Y93.740 E1.94664
G1 X114.618 Y93.941 E2.04308
G1 F600.000 E1.54308
G92 E0
G1 X107.460 Y89.040 F7800.000
G1 F600.000 E0.50000
G1 X107.682 Y87.209 F2400.000 E0.59224
G1 X108.327 Y85.510 E0.68308
G1 X109.359 Y84.015 E0.77392
G1 X110.719 Y82.810 E0.86475
G1 X112.328 Y81.966 E0.95559
G1 X114.092 Y81.531 E1.04643
G1 X115.908 Y81.531 E1.13727
G1 X117.672 Y81.966 E1.22810
G1 X119.281 Y82.810 E1.31894
G1 X120.641 Y84.015 E1.40978
G1 X121.673 Y85.510 E1.50062
G1 X122.318 Y87.209 E1.59146
G1 X122.540 Y89.040 E1.68370
G1 X122.540 Y108.985 E2.68085
G1 X122.318 Y110.816 E2.77309
G1 X121.673 Y112.515 E2.86393
G1 X120.641 Y114.010 E2.95477
G1 X119.281 Y115.215 E3.04561
G1 X117.672 Y116.059 E3.13645
G1 X115.908 Y116.494 E3.22728
G1 X114.092 Y116.494 E3.31812
G1 X112.328 Y116.059 E3.40896
G1 X110.719 Y115.215 E3.49980
G1 X109.359 Y114.010 E3.59064
G1 X108.327 Y112.515 E3.68147
G1 X107.682 Y110.816 E3.77231
G1 X107.460 Y108.985 E3.86455
G1 X107.460 Y89.178 E4.85481
G1 X108.053 Y89.602 F7800.000
G1 X110.032 Y91.581 F1920.000 E4.99918
G1 X109.545 Y89.862 F7800.000
G1 X108.103 Y88.420 F1920.000 E5.10439
G1 X108.236 Y87.322 F7800.000
G1 X109.545 Y88.631 F1920.000 E5.19987
G1 X109.748 Y87.602 F7800.000
G1 X108.544 Y86.397 F1920.000 E5.28774
G1 X108.909 Y85.531 F7800.000
G1 X110.128 Y86.750 F1920.000 E5.37663
G1 X110.507 Y85.897 F7800.000
G1 X109.412 Y84.802 F1920.000 E5.45652
G1 X109.968 Y84.125 F7800.000
G1 X111.138 Y85.295 F1920.000 E5.54187
G1 X111.786 Y84.711 F7800.000
G1 X110.621 Y83.546 F1920.000 E5.62686
G1 X111.351 Y83.045 F7800.000
G1 X112.475 Y84.169 F1920.000 E5.70885
G1 X113.405 Y83.867 F7800.000
G1 X112.159 Y82.621 F1920.000 E5.79972
G1 X113.100 Y82.330 F7800.000
G1 X114.335 Y83.565 F1920.000 E5.88980
G1 X115.560 Y83.558 F7800.000
G1 X114.088 Y82.086 F1920.000 E5.99716
G1 X115.358 Y82.124 F7800.000
G1 X116.936 Y83.703 F1920.000 E6.11231
G1 X116.931 Y82.466 F7800.000
G1 X121.501 Y87.035 F1920.000 E6.44563
G1 X120.203 Y86.970 F7800.000
G1 X121.859 Y88.625 F1920.000 E6.56638
G1 X121.947 Y89.945 F7800.000
G1 X120.536 Y88.534 F1920.000 E6.66931
G1 X120.397 Y89.627 F7800.000
G1 X121.947 Y91.177 F1920.000 E6.78241
G1 X121.947 Y92.409 F7800.000
G1 X120.181 Y90.642 F1920.000 E6.91126
G1 X119.807 Y91.501 F7800.000
G1 X121.947 Y93.641 F1920.000 E7.06737
G1 X121.947 Y94.872 F7800.000
G1 X119.289 Y92.214 F1920.000 E7.26130
G1 X118.771 Y92.927 F7800.000
G1 X121.947 Y96.104 F1920.000 E7.49303
G1 X121.947 Y97.337 F7800.000
G1 X118.050 Y93.440 F1920.000 E7.77727
G1 X117.269 Y93.891 F7800.000
G1 X121.947 Y98.569 F1920.000 E8.11848
G1 X121.947 Y99.801 F7800.000
G1 X116.464 Y94.318 F1920.000 E8.51843
G1 X115.349 Y94.435 F7800.000
G1 X121.947 Y101.032 F1920.000 E8.99969
G1 X121.947 Y102.264 F7800.000
G1 X114.235 Y94.552 F1920.000 E9.56228
G1 X112.477 Y94.026 F7800.000
G1 X121.947 Y103.496 F1920.000 E10.25306
G1 X121.947 Y104.728 F7800.000
G1 X108.053 Y90.834 F1920.000 E11.26659
G1 X108.053 Y92.066 F7800.000
G1 X121.947 Y105.960 F1920.000 E12.28012
G1 X121.947 Y107.191 F7800.000
G1 X108.053 Y93.297 F1920.000 E13.29365
G1 X108.053 Y94.529 F7800.000
G1 X121.947 Y108.423 F1920.000 E14.30719
G1 X121.897 Y109.605 F7800.000
G1 X108.053 Y95.761 F1920.000 E15.31707
G1 X108.053 Y96.993 F7800.000
G1 X116.743 Y105.682 F1920.000 E15.95094
G1 X115.202 Y105.373 F7800.000
G1 X108.053 Y98.225 F1920.000 E16.47240
G1 X108.053 Y99.457 F7800.000
G1 X114.154 Y105.558 F1920.000 E16.91746
G1 X113.155 Y105.792 F7800.000
G1 X108.053 Y100.689 F1920.000 E17.28967
G1 X108.053 Y101.921 F7800.000
G1 X112.593 Y106.461 F1920.000 E17.62087
G1 X112.031 Y107.131 F7800.000
G1 X108.053 Y103.153 F1920.000 E17.91107
G1 X108.053 Y104.384 F7800.000
G1 X111.469 Y107.801 F1920.000 E18.16027
G1 X111.410 Y108.973 F7800.000
G1 X108.053 Y105.616 F1920.000 E18.40514
G1 X108.053 Y106.848 F7800.000
G1 X111.410 Y110.205 F1920.000 E18.65001
G1 X108.499 Y110.990 F7800.000
G1 X113.069 Y115.560 F1920.000 E18.98332
G1 X114.642 Y115.901 F7800.000
G1 X108.141 Y109.400 F1920.000 E19.45755
G1 X108.053 Y108.080 F7800.000
G1 X115.874 Y115.901 F1920.000 E20.02809
G1 X116.900 Y115.695 F7800.000
G1 X113.680 Y112.475 F1920.000 E20.26299
G1 X115.176 Y112.739 F7800.000
G1 X117.841 Y115.404 F1920.000 E20.45741
G1 X118.649 Y114.980 F7800.000
G1 X116.088 Y112.420 F1920.000 E20.64419
G1 X116.869 Y111.969 F7800.000
G1 X119.379 Y114.479 F1920.000 E20.82729
G1 X120.033 Y113.900 F7800.000
G1 X117.650 Y111.518 F1920.000 E21.00108
G1 X118.111 Y110.747 F7800.000
G1 X120.587 Y113.224 F1920.000 E21.18172
G1 X121.091 Y112.494 F7800.000
G1 X118.440 Y109.844 F1920.000 E21.37507
G1 X118.769 Y108.940 F7800.000
G1 X121.456 Y111.628 F1920.000 E21.57111
G1 X121.764 Y110.704 F7800.000
G1 X118.280 Y107.219 F1920.000 E21.82528
G1 F600.000 E21.32528
G92 E0
G1 X100.947 Y106.737 F7800.000
G1 F600.000 E0.50000
G1 X83.602 Y89.392 F1920.000 E1.72692
G1 X84.899 Y89.482 F7800.000
G1 X100.947 Y105.530 F1920.000 E2.86207
G1 X100.947 Y104.323 F7800.000
G1 X85.992 Y89.367 F1920.000 E3.91996
G1 X86.923 Y89.091 F7800.000
G1 X100.947 Y103.116 F1920.000 E4.91200
G1 X100.947 Y101.909 F7800.000
G1 X87.688 Y88.649 F1920.000 E5.84991
G1 X88.453 Y88.208 F7800.000
G1 X100.947 Y100.702 F1920.000 E6.73369
G1 X100.947 Y99.495 F7800.000
G1 X89.027 Y87.574 F1920.000 E7.57687
G1 X89.535 Y86.875 F7800.000
G1 X100.947 Y98.288 F1920.000 E8.38413
G1 X100.947 Y97.081 F7800.000
G1 X90.043 Y86.176 F1920.000 E9.15546
G1 X90.274 Y85.201 F7800.000
G1 X100.947 Y95.874 F1920.000 E9.91040
G1 X100.947 Y94.667 F7800.000
G1 X90.486 Y84.206 F1920.000 E10.65037
G1 X90.405 Y82.917 F7800.000
G1 X95.932 Y88.444 F1920.000 E11.04129
G1 X95.882 Y87.187 F7800.000
G1 X91.760 Y83.066 F1920.000 E11.33285
G1 X91.972 Y83.278 F7800.000
G1 X90.079 Y81.385 F1920.000 E11.46673
G1 X91.235 Y81.333 F7800.000
G1 X87.746 Y77.844 F1920.000 E11.71355
G1 X87.882 Y79.187 F7800.000
G1 X85.908 Y77.214 F1920.000 E11.85318
G1 X85.095 Y77.607 F7800.000
G1 X84.478 Y76.990 F1920.000 E11.89682
G1 X84.612 Y77.124 F7800.000
G1 X86.103 Y78.615 F1920.000 E12.00229
G1 X84.754 Y78.473 F7800.000
G1 X83.509 Y77.229 F1920.000 E12.09031
G1 X82.541 Y77.468 F7800.000
G1 X83.809 Y78.735 F1920.000 E12.18000
G1 X82.898 Y79.032 F7800.000
G1 X81.718 Y77.852 F1920.000 E12.26342
G1 X80.931 Y78.271 F7800.000
G1 X82.093 Y79.434 F1920.000 E12.34566
G1 X81.458 Y80.006 F7800.000
G1 X80.291 Y78.838 F1920.000 E12.42825
G1 X79.672 Y79.426 F7800.000
G1 X80.823 Y80.578 F1920.000 E12.50970
G1 X80.331 Y81.293 F7800.000
G1 X79.179 Y80.140 F1920.000 E12.59122
G1 X78.732 Y80.901 F7800.000
G1 X79.959 Y82.128 F1920.000 E12.67804
G1 X79.588 Y82.963 F7800.000
G1 X78.400 Y81.776 F1920.000 E12.76203
G1 X78.183 Y82.765 F7800.000
G1 X79.545 Y84.128 F1920.000 E12.85843
G1 X79.545 Y85.335 F7800.000
G1 X78.053 Y83.843 F1920.000 E12.96399
G1 X78.053 Y85.050 F7800.000
G1 X80.392 Y87.388 F1920.000 E13.12941
G1 X81.789 Y88.785 F7800.000
G1 X100.947 Y107.944 F1920.000 E14.48460
G1 X100.947 Y109.151 F7800.000
G1 X78.053 Y86.257 F1920.000 E16.10403
G1 X78.053 Y87.464 F7800.000
G1 X100.947 Y110.358 F1920.000 E17.72347
G1 X100.947 Y111.565 F7800.000
G1 X78.053 Y88.671 F1920.000 E19.34290
G1 X78.053 Y89.878 F7800.000
G1 X86.871 Y98.696 F1920.000 E19.96665
G1 X85.522 Y98.554 F7800.000
G1 X78.053 Y91.085 F1920.000 E20.49501
G1 X78.053 Y92.292 F7800.000
G1 X84.328 Y98.567 F1920.000 E20.93888
G1 X83.417 Y98.863 F7800.000
G1 X78.053 Y93.499 F1920.000 E21.31832
G1 X78.053 Y94.706 F7800.000
G1 X82.506 Y99.159 F1920.000 E21.63331
G1 X81.820 Y99.680 F7800.000
G1 X78.053 Y95.913 F1920.000 E21.89980
G1 X78.053 Y97.120 F7800.000
G1 X81.185 Y100.252 F1920.000 E22.12136
G1 X80.550 Y100.824 F7800.000
G1 X78.053 Y98.327 F1920.000 E22.29799
G1 X78.053 Y99.534 F7800.000
G1 X80.171 Y101.652 F1920.000 E22.44783
G1 X79.800 Y102.487 F7800.000
G1 X78.053 Y100.741 F1920.000 E22.57138
G1 X78.053 Y101.948 F7800.000
G1 X79.545 Y103.440 F1920.000 E22.67694
G1 X79.545 Y104.647 F7800.000
G1 X78.053 Y103.155 F1920.000 E22.78250
G1 X78.148 Y104.457 F7800.000
G1 X79.839 Y106.148 F1920.000 E22.90214
G1 X78.515 Y106.030 F7800.000
G1 X83.036 Y110.551 F1920.000 E23.22194
G1 X82.833 Y109.142 F7800.000
G1 X84.637 Y110.946 F1920.000 E23.34957
G1 X85.800 Y110.901 F7800.000
G1 X84.430 Y109.531 F1920.000 E23.44648
G1 X85.522 Y109.417 F7800.000
G1 X87.065 Y110.960 F1920.000 E23.55563
G1 X88.272 Y110.960 F7800.000
G1 X86.593 Y109.281 F1920.000 E23.67436
G1 X87.359 Y108.839 F7800.000
G1 X89.479 Y110.960 F1920.000 E23.82434
G1 X90.686 Y110.960 F7800.000
G1 X88.124 Y108.398 F1920.000 E24.00556
G1 X88.808 Y107.875 F7800.000
G1 X91.893 Y110.960 F1920.000 E24.22374
G1 X93.100 Y110.960 F7800.000
G1 X89.316 Y107.176 F1920.000 E24.49138
G1 X89.824 Y106.477 F7800.000
G1 X94.307 Y110.960 F1920.000 E24.80847
G1 X94.053 Y110.706 F7800.000
G1 X99.335 Y115.987 F1920.000 E25.18208
G1 X98.128 Y115.987 F7800.000
G1 X94.053 Y111.913 F1920.000 E25.47031
G1 X94.053 Y113.120 F7800.000
G1 X97.067 Y116.134 F1920.000 E25.68354
G1 X96.626 Y116.899 F7800.000
G1 X94.053 Y114.327 F1920.000 E25.86551
G1 X94.053 Y115.534 F7800.000
G1 X96.184 Y117.664 F1920.000 E26.01623
G1 X95.742 Y118.430 F7800.000
G1 X94.053 Y116.741 F1920.000 E26.13570
G1 X94.053 Y117.948 F7800.000
G1 X96.453 Y120.348 F1920.000 E26.30549
