; generated by Slic3r 0.7.3-dev on 2012-05-10 at 06:47:52

; layer_height = 0.3
; perimeters = 1
; solid_layers = 3
; fill_density = 0.25
; nozzle_diameter = 0.5
; filament_diameter = 3
; extrusion_multiplier = 1.05
; perimeter_speed = 60
; infill_speed = 80
; travel_speed = 130
; extrusion_width_ratio = 2.4
; scale = 1
; single wall width = 0.72mm

M104 S230 ; set temperature
M92 E720
G92 X0 Y0 Z0  E0.0
M109 S230 ; wait for temperature to be reached
G90 ; use absolute coordinates
G21 ; set units to millimeters
G92 E0 ; reset extrusion distance
M82 ; use absolute distances for extrusion
M107
G1 Z0.300 F7800.000
G1 X22.023 Y3.869
G1 F600.000 E1.00000
G1 X22.473 Y3.609 F2880.000 E1.01558
G1 X22.713 Y3.489 E1.02363
G1 X23.193 Y3.289 E1.03922
G1 X23.953 Y3.069 E1.06294
G1 X24.463 Y2.979 E1.07847
G1 X24.733 Y2.949 E1.08661
G1 X25.253 Y2.929 E1.10221
G1 X115.243 Y2.949 E3.80027
G1 X115.763 Y3.019 E3.81600
G1 X116.273 Y3.129 E3.83164
G1 X116.773 Y3.289 E3.84738
G1 X117.263 Y3.489 E3.86325
G1 X117.723 Y3.729 E3.87880
G1 X118.373 Y4.169 E3.90233
G1 X118.583 Y4.329 E3.91025
G1 X121.783 Y7.509 E4.04551
G1 X122.123 Y7.909 E4.06125
G1 X122.273 Y8.119 E4.06899
G1 X122.553 Y8.559 E4.08462
G1 X122.903 Y9.249 E4.10782
G1 X123.153 Y9.989 E4.13124
G1 X123.263 Y10.499 E4.14688
G1 X123.333 Y11.009 E4.16231
G1 X123.673 Y74.559 E6.06768
G1 X123.603 Y75.079 E6.08341
G1 X123.553 Y75.339 E6.09135
G1 X123.333 Y76.099 E6.11507
G1 X123.133 Y76.579 E6.13066
G1 X122.753 Y77.269 E6.15428
G1 X122.603 Y77.489 E6.16226
G1 X122.113 Y78.099 E6.18572
G1 X119.093 Y81.109 E6.31356
G1 X118.673 Y81.459 E6.32995
G1 X117.993 Y81.899 E6.35423
G1 X117.503 Y82.149 E6.37072
G1 X116.743 Y82.429 E6.39501
G1 X116.213 Y82.559 E6.41137
G1 X115.673 Y82.639 E6.42773
G1 X66.143 Y83.339 E7.91288
G1 X24.733 Y83.319 E9.15442
G1 X24.213 Y83.249 E9.17015
G1 X23.953 Y83.199 E9.17809
G1 X23.193 Y82.979 E9.20181
G1 X22.713 Y82.779 E9.21740
G1 X22.023 Y82.399 E9.24102
G1 X21.803 Y82.249 E9.24900
G1 X21.193 Y81.759 E9.27246
G1 X18.183 Y78.739 E9.40030
G1 X18.003 Y78.529 E9.40859
G1 X17.683 Y78.099 E9.42466
G1 X17.393 Y77.639 E9.44096
G1 X17.143 Y77.149 E9.45745
G1 X16.863 Y76.389 E9.48174
G1 X16.733 Y75.859 E9.49810
G1 X16.653 Y75.319 E9.51447
G1 X16.633 Y11.209 E11.43659
G1 X16.653 Y10.939 E11.44471
G1 X16.733 Y10.409 E11.46078
G1 X16.863 Y9.879 E11.47714
G1 X17.043 Y9.369 E11.49336
G1 X17.263 Y8.869 E11.50973
G1 X17.533 Y8.399 E11.52599
G1 X18.003 Y7.739 E11.55028
G1 X18.183 Y7.529 E11.55857
G1 X21.193 Y4.509 E11.68641
G1 X21.803 Y4.019 E11.70987
G1 X21.934 Y3.929 E11.71461
G1 F600.000 E10.71461
G92 E0
G1 X62.083 Y52.689 F7800.000
G1 F600.000 E1.00000
G1 X62.703 Y52.249 F2880.000 E1.02279
G1 X62.923 Y52.119 E1.03046
G1 X63.383 Y51.889 E1.04587
G1 X63.853 Y51.699 E1.06107
G1 X64.583 Y51.489 E1.08385
G1 X65.343 Y51.379 E1.10687
G1 X65.853 Y51.359 E1.12217
G1 X125.313 Y51.379 E2.90489
G1 X125.823 Y51.449 E2.92032
G1 X126.313 Y51.549 E2.93531
G1 X126.803 Y51.699 E2.95068
G1 X127.273 Y51.889 E2.96588
G1 X127.733 Y52.119 E2.98130
G1 X127.953 Y52.249 E2.98896
G1 X128.373 Y52.539 E3.00426
G1 X128.773 Y52.859 E3.01962
G1 X128.963 Y53.029 E3.02726
G1 X129.143 Y53.209 E3.03489
G1 X129.313 Y53.399 E3.04254
G1 X129.633 Y53.799 E3.05790
G1 X129.783 Y54.009 E3.06563
G1 X130.043 Y54.439 E3.08070
G1 X130.273 Y54.899 E3.09612
G1 X147.143 Y102.829 E4.61956
G1 X147.393 Y103.779 E4.64901
G1 X147.763 Y105.949 E4.71501
G1 X147.793 Y106.369 E4.72763
G1 X147.783 Y137.999 E5.67595
G1 X147.763 Y138.209 E5.68228
G1 X147.333 Y140.669 E5.75715
G1 X147.263 Y140.959 E5.76609
G1 X147.173 Y141.249 E5.77520
G1 X146.953 Y141.809 E5.79324
G1 X146.823 Y142.079 E5.80222
G1 X145.633 Y144.129 E5.87329
G1 X145.293 Y144.609 E5.89092
G1 X144.903 Y145.059 E5.90878
G1 X144.693 Y145.269 E5.91768
G1 X142.873 Y146.799 E5.98897
G1 X142.623 Y146.979 E5.99820
G1 X142.113 Y147.299 E6.01626
G1 X141.563 Y147.559 E6.03450
G1 X139.033 Y148.459 E6.11501
G1 X138.153 Y148.609 E6.14177
G1 X137.553 Y148.639 E6.15978
G1 X78.123 Y148.479 E7.94160
G1 X77.823 Y148.459 E7.95061
G1 X77.233 Y148.369 E7.96851
G1 X76.653 Y148.219 E7.98647
G1 X74.433 Y147.409 E8.05732
G1 X74.163 Y147.289 E8.06618
G1 X73.653 Y147.009 E8.08362
G1 X73.163 Y146.679 E8.10134
G1 X56.143 Y132.499 E8.76552
G1 X55.723 Y132.089 E8.78312
G1 X55.353 Y131.659 E8.80012
G1 X53.973 Y129.669 E8.87273
G1 X53.683 Y129.149 E8.89058
G1 X52.703 Y126.619 E8.97193
G1 X52.493 Y125.769 E8.99818
G1 X52.233 Y123.629 E9.06281
G1 X52.193 Y122.919 E9.08413
G1 X52.193 Y102.959 E9.68256
G1 X52.233 Y102.249 E9.70389
G1 X59.983 Y56.099 E11.10692
G1 X60.113 Y55.609 E11.12211
G1 X60.283 Y55.129 E11.13738
G1 X60.493 Y54.659 E11.15282
G1 X60.883 Y53.999 E11.17580
G1 X61.183 Y53.589 E11.19103
G1 X61.513 Y53.209 E11.20612
G1 X61.883 Y52.859 E11.22139
G1 X62.001 Y52.759 E11.22602
G1 F600.000 E10.22602
G92 E0
G1 X104.471 Y92.638 F7800.000
G1 F600.000 E1.00000
G1 X86.193 Y92.638 F2880.000 E1.54801
G1 X86.193 Y57.360 E2.60570
G1 X89.473 Y57.360 E2.70404
G1 X89.473 Y74.407 E3.21514
G1 X101.193 Y74.407 E3.56652
G1 X101.193 Y57.360 E4.07762
G1 X104.471 Y57.360 E4.17590
G1 X104.471 Y92.530 E5.23036
G1 X103.904 Y92.208 F7800.000
G1 X86.623 Y74.927 F2400.000 E5.97894
G1 X86.623 Y74.018 F7800.000
G1 X104.041 Y91.436 F2400.000 E6.73344
G1 X104.041 Y90.527 F7800.000
G1 X86.623 Y73.109 F2400.000 E7.48795
G1 X86.623 Y72.199 F7800.000
G1 X89.043 Y74.620 F2400.000 E7.59278
G1 X89.261 Y74.837 F7800.000
G1 X104.041 Y89.618 F2400.000 E8.23304
G1 X104.042 Y88.708 F7800.000
G1 X90.170 Y74.837 F2400.000 E8.83391
G1 X91.079 Y74.837 F7800.000
G1 X104.042 Y87.799 F2400.000 E9.39540
G1 X104.042 Y86.890 F7800.000
G1 X91.989 Y74.837 F2400.000 E9.91751
G1 X92.897 Y74.837 F7800.000
G1 X104.041 Y85.981 F2400.000 E10.40023
G1 X104.041 Y85.072 F7800.000
G1 X93.806 Y74.837 F2400.000 E10.84358
G1 X94.716 Y74.837 F7800.000
G1 X104.041 Y84.163 F2400.000 E11.24754
G1 X104.041 Y83.254 F7800.000
G1 X95.625 Y74.837 F2400.000 E11.61212
G1 X96.534 Y74.837 F7800.000
G1 X104.041 Y82.344 F2400.000 E11.93732
G1 X104.042 Y81.435 F7800.000
G1 X97.443 Y74.837 F2400.000 E12.22314
G1 X98.353 Y74.837 F7800.000
G1 X104.042 Y80.526 F2400.000 E12.46957
G1 X104.041 Y79.617 F7800.000
G1 X99.261 Y74.837 F2400.000 E12.67662
G1 X100.170 Y74.837 F7800.000
G1 X104.041 Y78.708 F2400.000 E12.84429
G1 X104.041 Y77.799 F7800.000
G1 X101.080 Y74.837 F2400.000 E12.97258
G1 X101.623 Y74.471 F7800.000
G1 X104.041 Y76.889 F2400.000 E13.07733
G1 X104.041 Y75.980 F7800.000
G1 X101.623 Y73.562 F2400.000 E13.18207
G1 X101.623 Y72.653 F7800.000
G1 X104.042 Y75.071 F2400.000 E13.28682
G1 X104.042 Y74.162 F7800.000
G1 X101.623 Y71.744 F2400.000 E13.39157
G1 X101.624 Y70.834 F7800.000
G1 X104.042 Y73.253 F2400.000 E13.49632
G1 X104.041 Y72.344 F7800.000
G1 X101.623 Y69.926 F2400.000 E13.60107
G1 X101.623 Y69.017 F7800.000
G1 X104.041 Y71.435 F2400.000 E13.70581
G1 X104.041 Y70.526 F7800.000
G1 X101.623 Y68.107 F2400.000 E13.81056
G1 X101.623 Y67.198 F7800.000
G1 X104.041 Y69.616 F2400.000 E13.91531
G1 X104.041 Y68.707 F7800.000
G1 X101.623 Y66.289 F2400.000 E14.02005
G1 X101.623 Y65.380 F7800.000
G1 X104.042 Y67.798 F2400.000 E14.12480
G1 X104.042 Y66.889 F7800.000
G1 X101.623 Y64.470 F2400.000 E14.22955
G1 X101.624 Y63.561 F7800.000
G1 X104.042 Y65.979 F2400.000 E14.33429
G1 X104.041 Y65.071 F7800.000
G1 X101.623 Y62.653 F2400.000 E14.43904
G1 X101.623 Y61.743 F7800.000
G1 X104.041 Y64.161 F2400.000 E14.54379
G1 X104.041 Y63.252 F7800.000
G1 X101.623 Y60.834 F2400.000 E14.64853
G1 X101.623 Y59.925 F7800.000
G1 X104.041 Y62.343 F2400.000 E14.75328
G1 X104.042 Y61.434 F7800.000
G1 X101.623 Y59.016 F2400.000 E14.85802
G1 X101.623 Y58.106 F7800.000
G1 X104.042 Y60.524 F2400.000 E14.96277
G1 X104.042 Y59.615 F7800.000
G1 X102.216 Y57.790 F2400.000 E15.04185
G1 X103.125 Y57.790 F7800.000
G1 X104.041 Y58.707 F2400.000 E15.08155
G1 F600.000 E14.08155
G92 E0
G1 X89.044 Y58.255 F7800.000
G1 F600.000 E1.00000
G1 X88.579 Y57.790 F2400.000 E1.02014
G1 X87.670 Y57.790 F7800.000
G1 X89.044 Y59.164 F2400.000 E1.07966
G1 X89.044 Y60.073 F7800.000
G1 X86.760 Y57.790 F2400.000 E1.17856
G1 X86.623 Y58.562 F7800.000
G1 X89.043 Y60.982 F2400.000 E1.28339
G1 X89.043 Y61.891 F7800.000
G1 X86.623 Y59.471 F2400.000 E1.38822
G1 X86.623 Y60.381 F7800.000
G1 X89.043 Y62.801 F2400.000 E1.49306
G1 X89.043 Y63.710 F7800.000
G1 X86.623 Y61.290 F2400.000 E1.59789
G1 X86.623 Y62.199 F7800.000
G1 X89.043 Y64.619 F2400.000 E1.70272
G1 X89.044 Y65.528 F7800.000
G1 X86.624 Y63.108 F2400.000 E1.80756
G1 X86.623 Y64.017 F7800.000
G1 X89.044 Y66.437 F2400.000 E1.91239
G1 X89.044 Y67.346 F7800.000
G1 X86.623 Y64.926 F2400.000 E2.01722
G1 X86.623 Y65.835 F7800.000
G1 X89.043 Y68.255 F2400.000 E2.12206
G1 X89.043 Y69.165 F7800.000
G1 X86.623 Y66.745 F2400.000 E2.22689
G1 X86.623 Y67.654 F7800.000
G1 X89.043 Y70.074 F2400.000 E2.33172
G1 X89.043 Y70.983 F7800.000
G1 X86.623 Y68.563 F2400.000 E2.43656
G1 X86.624 Y69.472 F7800.000
G1 X89.044 Y71.892 F2400.000 E2.54139
G1 X89.044 Y72.801 F7800.000
G1 X86.624 Y70.381 F2400.000 E2.64622
G1 X86.623 Y71.290 F7800.000
G1 X89.044 Y73.710 F2400.000 E2.75105
G1 X86.623 Y75.836 F7800.000
G1 X102.995 Y92.208 F2400.000 E3.46025
G1 X102.086 Y92.208 F7800.000
G1 X86.624 Y76.745 F2400.000 E4.13006
G1 X86.623 Y77.654 F7800.000
G1 X101.177 Y92.208 F2400.000 E4.76049
G1 X100.268 Y92.208 F7800.000
G1 X86.623 Y78.563 F2400.000 E5.35153
G1 X86.623 Y79.473 F7800.000
G1 X99.359 Y92.208 F2400.000 E5.90320
G1 X98.449 Y92.208 F7800.000
G1 X86.623 Y80.382 F2400.000 E6.41548
G1 X86.623 Y81.291 F7800.000
G1 X97.540 Y92.208 F2400.000 E6.88838
G1 X96.631 Y92.208 F7800.000
G1 X86.623 Y82.200 F2400.000 E7.32190
G1 X86.624 Y83.109 F7800.000
G1 X95.722 Y92.208 F2400.000 E7.71603
G1 X94.813 Y92.208 F7800.000
G1 X86.624 Y84.018 F2400.000 E8.07079
G1 X86.623 Y84.927 F7800.000
G1 X93.904 Y92.208 F2400.000 E8.38616
G1 X92.995 Y92.208 F7800.000
G1 X86.623 Y85.837 F2400.000 E8.66215
G1 X86.623 Y86.746 F7800.000
G1 X92.085 Y92.208 F2400.000 E8.89876
G1 X91.176 Y92.208 F7800.000
G1 X86.623 Y87.655 F2400.000 E9.09598
G1 X86.623 Y88.564 F7800.000
G1 X90.267 Y92.208 F2400.000 E9.25383
G1 X89.358 Y92.208 F7800.000
G1 X86.623 Y89.474 F2400.000 E9.37229
G1 X86.624 Y90.382 F7800.000
G1 X88.449 Y92.208 F2400.000 E9.45137
G1 X87.540 Y92.208 F7800.000
G1 X86.623 Y91.291 F2400.000 E9.49107
G1 F600.000 E8.49107
G92 E0
G1 X65.860 Y92.638 F7800.000
G1 F600.000 E1.00000
G1 X65.860 Y57.360 F2880.000 E2.05769
G1 X69.140 Y57.360 E2.15603
G1 X69.140 Y74.407 E2.66713
G1 X80.860 Y74.407 E3.01852
G1 X80.860 Y57.360 E3.52962
G1 X84.138 Y57.360 E3.62790
G1 X84.138 Y92.638 E4.68559
G1 X65.968 Y92.638 E5.23036
G1 X67.207 Y92.208 F7800.000
G1 X66.290 Y91.291 F2400.000 E5.27006
G1 X66.290 Y90.382 F7800.000
G1 X68.116 Y92.208 F2400.000 E5.34914
G1 X69.024 Y92.208 F7800.000
G1 X66.290 Y89.474 F2400.000 E5.46760
G1 X66.290 Y88.564 F7800.000
G1 X69.934 Y92.208 F2400.000 E5.62545
G1 X70.843 Y92.208 F7800.000
G1 X66.290 Y87.655 F2400.000 E5.82267
G1 X66.290 Y86.746 F7800.000
G1 X71.752 Y92.208 F2400.000 E6.05928
G1 X72.661 Y92.208 F7800.000
G1 X66.290 Y85.837 F2400.000 E6.33527
G1 X66.290 Y84.927 F7800.000
G1 X73.571 Y92.208 F2400.000 E6.65064
G1 X74.480 Y92.208 F7800.000
G1 X66.290 Y84.018 F2400.000 E7.00540
G1 X66.290 Y83.109 F7800.000
G1 X75.389 Y92.208 F2400.000 E7.39954
G1 X76.298 Y92.208 F7800.000
G1 X66.290 Y82.200 F2400.000 E7.83305
G1 X66.290 Y81.291 F7800.000
G1 X77.207 Y92.208 F2400.000 E8.30595
G1 X78.116 Y92.208 F7800.000
G1 X66.290 Y80.382 F2400.000 E8.81824
G1 X66.290 Y79.473 F7800.000
G1 X79.025 Y92.208 F2400.000 E9.36990
G1 X79.935 Y92.208 F7800.000
G1 X66.290 Y78.563 F2400.000 E9.96095
G1 X66.290 Y77.654 F7800.000
G1 X80.844 Y92.208 F2400.000 E10.59138
G1 X81.753 Y92.208 F7800.000
G1 X66.290 Y76.745 F2400.000 E11.26119
G1 X66.290 Y75.836 F7800.000
G1 X82.662 Y92.208 F2400.000 E11.97038
G1 X83.571 Y92.208 F7800.000
G1 X66.290 Y74.927 F2400.000 E12.71895
G1 X66.290 Y74.018 F7800.000
G1 X83.708 Y91.436 F2400.000 E13.47346
G1 X83.708 Y90.527 F7800.000
G1 X66.290 Y73.109 F2400.000 E14.22796
G1 X66.290 Y72.199 F7800.000
G1 X68.710 Y74.620 F2400.000 E14.33280
G1 X68.928 Y74.837 F7800.000
G1 X83.708 Y89.618 F2400.000 E14.97305
G1 X83.708 Y88.708 F7800.000
G1 X69.837 Y74.837 F2400.000 E15.57392
G1 X70.746 Y74.837 F7800.000
G1 X83.708 Y87.799 F2400.000 E16.13541
G1 X83.708 Y86.890 F7800.000
G1 X71.655 Y74.837 F2400.000 E16.65752
G1 X72.564 Y74.837 F7800.000
G1 X83.708 Y85.981 F2400.000 E17.14025
G1 X83.708 Y85.072 F7800.000
G1 X73.473 Y74.837 F2400.000 E17.58359
G1 X74.382 Y74.837 F7800.000
G1 X83.708 Y84.163 F2400.000 E17.98756
G1 X83.708 Y83.254 F7800.000
G1 X75.292 Y74.837 F2400.000 E18.35214
G1 X76.201 Y74.837 F7800.000
G1 X83.708 Y82.344 F2400.000 E18.67734
G1 X83.708 Y81.435 F7800.000
G1 X77.110 Y74.837 F2400.000 E18.96315
G1 X78.019 Y74.837 F7800.000
G1 X83.708 Y80.526 F2400.000 E19.20959
G1 X83.708 Y79.617 F7800.000
G1 X78.928 Y74.837 F2400.000 E19.41664
G1 X79.837 Y74.837 F7800.000
G1 X83.708 Y78.708 F2400.000 E19.58431
G1 X83.708 Y77.799 F7800.000
G1 X80.746 Y74.837 F2400.000 E19.71260
G1 X81.290 Y74.471 F7800.000
G1 X83.708 Y76.889 F2400.000 E19.81734
G1 X83.708 Y75.980 F7800.000
G1 X81.290 Y73.562 F2400.000 E19.92209
G1 X81.290 Y72.653 F7800.000
G1 X83.708 Y75.071 F2400.000 E20.02684
G1 X83.708 Y74.162 F7800.000
G1 X81.290 Y71.744 F2400.000 E20.13159
G1 X81.290 Y70.834 F7800.000
G1 X83.708 Y73.253 F2400.000 E20.23633
G1 X83.708 Y72.344 F7800.000
G1 X81.290 Y69.926 F2400.000 E20.34108
G1 X81.290 Y69.017 F7800.000
G1 X83.708 Y71.435 F2400.000 E20.44583
G1 X83.708 Y70.526 F7800.000
G1 X81.290 Y68.107 F2400.000 E20.55058
G1 X81.290 Y67.198 F7800.000
G1 X83.708 Y69.616 F2400.000 E20.65532
G1 X83.708 Y68.707 F7800.000
G1 X81.290 Y66.289 F2400.000 E20.76007
G1 X81.290 Y65.380 F7800.000
G1 X83.708 Y67.798 F2400.000 E20.86482
G1 X83.708 Y66.889 F7800.000
G1 X81.290 Y64.470 F2400.000 E20.96956
G1 X81.290 Y63.561 F7800.000
G1 X83.708 Y65.979 F2400.000 E21.07431
G1 X83.708 Y65.071 F7800.000
G1 X81.290 Y62.653 F2400.000 E21.17905
G1 X81.290 Y61.743 F7800.000
G1 X83.708 Y64.161 F2400.000 E21.28380
G1 X83.708 Y63.252 F7800.000
G1 X81.290 Y60.834 F2400.000 E21.38855
G1 X81.290 Y59.925 F7800.000
G1 X83.708 Y62.343 F2400.000 E21.49329
G1 X83.708 Y61.434 F7800.000
G1 X81.290 Y59.016 F2400.000 E21.59804
G1 X81.290 Y58.106 F7800.000
G1 X83.708 Y60.524 F2400.000 E21.70279
G1 X83.708 Y59.615 F7800.000
G1 X81.883 Y57.790 F2400.000 E21.78186
G1 X82.791 Y57.790 F7800.000
G1 X83.708 Y58.707 F2400.000 E21.82156
G1 F600.000 E20.82156
G92 E0
G1 X68.710 Y58.255 F7800.000
G1 F600.000 E1.00000
G1 X68.245 Y57.790 F2400.000 E1.02014
G1 X67.336 Y57.790 F7800.000
G1 X68.710 Y59.164 F2400.000 E1.07966
G1 X68.710 Y60.073 F7800.000
G1 X66.427 Y57.790 F2400.000 E1.17856
G1 X66.290 Y58.562 F7800.000
G1 X68.710 Y60.982 F2400.000 E1.28339
G1 X68.710 Y61.891 F7800.000
G1 X66.290 Y59.471 F2400.000 E1.38822
G1 X66.290 Y60.381 F7800.000
G1 X68.710 Y62.801 F2400.000 E1.49306
G1 X68.710 Y63.710 F7800.000
G1 X66.290 Y61.290 F2400.000 E1.59789
G1 X66.290 Y62.199 F7800.000
G1 X68.710 Y64.619 F2400.000 E1.70272
G1 X68.710 Y65.528 F7800.000
G1 X66.290 Y63.108 F2400.000 E1.80756
G1 X66.290 Y64.017 F7800.000
G1 X68.710 Y66.437 F2400.000 E1.91239
G1 X68.710 Y67.346 F7800.000
G1 X66.290 Y64.926 F2400.000 E2.01722
G1 X66.290 Y65.835 F7800.000
G1 X68.710 Y68.255 F2400.000 E2.12206
G1 X68.710 Y69.165 F7800.000
G1 X66.290 Y66.745 F2400.000 E2.22689
G1 X66.290 Y67.654 F7800.000
G1 X68.710 Y70.074 F2400.000 E2.33172
G1 X68.710 Y70.983 F7800.000
G1 X66.290 Y68.563 F2400.000 E2.43656
G1 X66.290 Y69.472 F7800.000
G1 X68.710 Y71.892 F2400.000 E2.54139
G1 X68.710 Y72.801 F7800.000
G1 X66.290 Y70.381 F2400.000 E2.64622
G1 X66.290 Y71.290 F7800.000
G1 X68.710 Y73.710 F2400.000 E2.75105
G1 F600.000 E1.75105
G92 E0
G1 X109.807 Y74.407 F7800.000
G1 F600.000 E1.00000
G1 X121.527 Y74.407 F2880.000 E1.35139
G1 X121.527 Y57.360 E1.86248
G1 X124.805 Y57.360 E1.96076
G1 X124.805 Y92.638 E3.01846
G1 X106.527 Y92.638 E3.56646
G1 X106.527 Y57.360 E4.62416
G1 X109.807 Y57.360 E4.72250
