; generated by Slic3r 0.7.2b on 2012-05-11 at 23:30:35

; layer_height = 0.4
; perimeters = 1
; solid_layers = 3
; fill_density = 0.25
; nozzle_diameter = 0.75
; filament_diameter = 3
; extrusion_multiplier = 1
; perimeter_speed = 60
; infill_speed = 95
; travel_speed = 130
; extrusion_width_ratio = 2.3
; scale = 1
; single wall width = 0.92mm

M104 S230 ; set temperature
M92 E380
G92 X0 Y0 Z0  E0.0
G1 Z2.0 F150.0
G1 X-250.0 F2100.0
G1 X-249.0 F300.0
G1 X-251.0 F100.0
G92 X3.0
G1 Y-250.0 F2100.0
G1 Y-249.0 F300.0
G1 Y-251.0 F300.0
G92 Y10.0
G1 Y70.0 F2100.0
G1 Z-250.0 F150.0
G1 Z-249.0 F50.0
G1 Z-251.0 F50.0
G1 Y75.0 E2.0  F1000.0
G1 Y100.0 E2.3  F1000.0
G92 Z0.3
G92 E0.0
M106 S70
M107
M109 S230 ; wait for temperature to be reached
G90 ; use absolute coordinates
G21 ; set units to millimeters
G92 E0 ; reset extrusion distance
M82 ; use absolute distances for extrusion
G1 Z0.400 F7800.000
G1 X61.103 Y62.783
G1 F600.000 E0.50000
G1 X61.233 Y62.563 F2880.000 E0.51278
G1 X61.533 Y62.133 E0.53899
G1 X61.873 Y61.733 E0.56524
G1 X62.053 Y61.543 E0.57832
G1 X62.243 Y61.363 E0.59141
G1 X62.853 Y60.873 E0.63053
G1 X63.293 Y60.593 E0.65660
G1 X63.763 Y60.353 E0.68299
G1 X64.243 Y60.153 E0.70899
G1 X64.743 Y59.993 E0.73523
G1 X65.253 Y59.883 E0.76132
G1 X65.773 Y59.813 E0.78755
G1 X66.293 Y59.793 E0.81357
G1 X131.003 Y60.133 E4.04891
G1 X131.523 Y60.183 E4.07503
G1 X132.033 Y60.273 E4.10092
G1 X132.533 Y60.403 E4.12675
G1 X133.013 Y60.583 E4.15238
G1 X133.483 Y60.803 E4.17833
G1 X134.153 Y61.213 E4.21760
G1 X134.363 Y61.363 E4.23050
G1 X134.763 Y61.703 E4.25675
G1 X154.803 Y81.763 E5.67441
G1 X155.263 Y82.403 E5.71381
G1 X155.403 Y82.623 E5.72685
G1 X155.643 Y83.083 E5.75279
G1 X155.843 Y83.573 E5.77925
G1 X156.003 Y84.073 E5.80550
G1 X156.113 Y84.583 E5.83159
G1 X156.183 Y85.103 E5.85782
G1 X156.183 Y115.223 E7.36372
G1 X156.113 Y115.743 E7.38996
G1 X156.003 Y116.253 E7.41604
G1 X155.843 Y116.753 E7.44229
G1 X155.643 Y117.243 E7.46875
G1 X155.403 Y117.703 E7.49469
G1 X154.963 Y118.353 E7.53393
G1 X154.803 Y118.563 E7.54713
G1 X134.563 Y138.803 E8.97823
G1 X133.923 Y139.263 E9.01763
G1 X133.703 Y139.403 E9.03067
G1 X133.243 Y139.643 E9.05661
G1 X132.753 Y139.843 E9.08307
G1 X132.253 Y140.003 E9.10932
G1 X131.743 Y140.113 E9.13540
G1 X131.223 Y140.183 E9.16164
G1 X130.703 Y140.203 E9.18765
G1 X65.993 Y139.863 E12.42300
G1 X65.473 Y139.813 E12.44912
G1 X64.963 Y139.723 E12.47501
G1 X64.713 Y139.663 E12.48786
G1 X63.973 Y139.413 E12.52691
G1 X63.283 Y139.063 E12.56560
G1 X62.843 Y138.783 E12.59167
G1 X62.233 Y138.293 E12.63079
G1 X62.043 Y138.113 E12.64388
G1 X61.693 Y137.733 E12.66971
G1 X61.233 Y137.103 E12.70871
G1 X44.463 Y108.133 E14.38229
G1 X44.333 Y107.873 E14.39682
G1 X44.123 Y107.343 E14.42533
G1 X44.033 Y107.063 E14.44003
G1 X43.903 Y106.513 E14.46829
G1 X43.853 Y106.233 E14.48251
G1 X43.803 Y105.663 E14.51112
G1 X43.803 Y94.003 E15.09408
G1 X43.853 Y93.433 E15.12269
G1 X43.963 Y92.873 E15.15122
G1 X44.033 Y92.603 E15.16517
G1 X44.123 Y92.323 E15.17987
G1 X44.333 Y91.793 E15.20837
G1 X61.034 Y62.903 E16.87679
G1 F600.000 E16.37679
G92 E0
G1 X101.127 Y101.627 F7800.000
G1 F600.000 E0.50000
G1 X150.207 Y101.627 F2880.000 E2.95385
G1 X150.207 Y114.707 E3.60781
G1 X144.652 Y114.707 E3.88552
G1 X146.080 Y114.019 E3.96473
G1 X147.376 Y112.394 E4.06868
G1 X147.838 Y110.367 E4.17263
G1 X147.376 Y108.340 E4.27658
G1 X146.080 Y106.714 E4.38053
G1 X144.206 Y105.812 E4.48449
G1 X142.127 Y105.812 E4.58844
G1 X140.254 Y106.714 E4.69239
G1 X138.957 Y108.340 E4.79634
G1 X138.495 Y110.367 E4.90029
G1 X138.957 Y112.394 E5.00424
G1 X140.254 Y114.019 E5.10820
G1 X141.681 Y114.707 E5.18741
G1 X130.707 Y114.707 E5.73610
G1 X130.707 Y134.207 E6.71104
G1 X117.627 Y134.207 E7.36500
G1 X117.627 Y105.707 E8.78991
G1 X101.127 Y105.707 E9.61486
G1 X101.127 Y101.765 E9.81195
G1 F600.000 E9.31195
G92 E0
G1 X101.127 Y98.707 F7800.000
G1 F600.000 E0.50000
G1 X101.127 Y94.627 F2880.000 E0.70399
G1 X117.627 Y94.627 E1.52894
G1 X117.627 Y66.127 E2.95385
G1 X130.707 Y66.127 E3.60781
G1 X130.707 Y85.627 E4.58274
G1 X141.681 Y85.627 E5.13144
G1 X140.254 Y86.314 E5.21065
G1 X138.957 Y87.940 E5.31460
G1 X138.495 Y89.967 E5.41855
G1 X138.957 Y91.994 E5.52250
G1 X140.254 Y93.619 E5.62646
G1 X142.127 Y94.521 E5.73041
G1 X144.206 Y94.521 E5.83436
G1 X146.080 Y93.619 E5.93831
G1 X147.376 Y91.994 E6.04227
G1 X147.838 Y89.967 E6.14622
G1 X147.376 Y87.940 E6.25017
G1 X146.080 Y86.314 E6.35412
G1 X144.652 Y85.627 E6.43333
G1 X150.207 Y85.627 E6.71104
G1 X150.207 Y98.707 E7.36500
G1 X101.265 Y98.707 E9.81195
G1 F600.000 E9.31195
G92 E0
G1 X98.873 Y101.293 F7800.000
G1 F600.000 E0.50000
G1 X98.873 Y114.373 F2880.000 E1.15396
G1 X93.319 Y114.373 E1.43167
G1 X94.746 Y113.686 E1.51088
G1 X96.043 Y112.060 E1.61483
G1 X96.505 Y110.033 E1.71879
G1 X96.043 Y108.006 E1.82274
G1 X94.746 Y106.381 E1.92669
G1 X92.873 Y105.479 E2.03064
G1 X90.794 Y105.479 E2.13459
G1 X88.920 Y106.381 E2.23855
G1 X87.624 Y108.006 E2.34250
G1 X87.162 Y110.033 E2.44645
G1 X87.624 Y112.060 E2.55040
G1 X88.920 Y113.686 E2.65435
G1 X90.348 Y114.373 E2.73356
G1 X79.373 Y114.373 E3.28226
G1 X79.373 Y133.873 E4.25720
G1 X66.293 Y133.873 E4.91116
G1 X66.293 Y105.373 E6.33607
G1 X49.793 Y105.373 E7.16101
G1 X49.793 Y101.293 E7.36500
G1 X98.735 Y101.293 E9.81195
G1 X98.873 Y98.373 F7800.000
G1 X49.793 Y98.373 F2880.000 E12.26580
G1 X49.793 Y94.293 E12.46978
G1 X66.293 Y94.293 E13.29473
G1 X66.293 Y65.793 E14.71964
G1 X79.373 Y65.793 E15.37360
G1 X79.373 Y85.293 E16.34854
G1 X90.348 Y85.293 E16.89723
G1 X88.920 Y85.981 E16.97645
G1 X87.624 Y87.606 E17.08040
G1 X87.162 Y89.633 E17.18435
G1 X87.624 Y91.660 E17.28830
G1 X88.920 Y93.286 E17.39225
G1 X90.794 Y94.188 E17.49620
G1 X92.873 Y94.188 E17.60016
G1 X94.746 Y93.286 E17.70411
G1 X96.043 Y91.660 E17.80806
G1 X96.505 Y89.633 E17.91201
G1 X96.043 Y87.606 E18.01596
G1 X94.746 Y85.981 E18.11991
G1 X93.319 Y85.293 E18.19913
G1 X98.873 Y85.293 E18.47684
G1 X98.873 Y98.235 E19.12390
G1 F600.000 E18.62390
G92 E0
G1 X142.979 Y114.898 F7800.000
G1 F600.000 E0.50000
G1 X142.790 Y114.853 F2880.000 E0.50970
G1 F600.000 E0.00970
G92 E0
G1 X91.645 Y114.565 F7800.000
G1 F600.000 E0.50000
G1 X91.457 Y114.520 F2880.000 E0.50970
G1 F600.000 E0.00970
G92 E0
G1 X143.481 Y85.528 F7800.000
G1 F600.000 E0.50000
G1 X142.688 Y85.517 F2880.000 E0.53963
G1 F600.000 E0.03963
G92 E0
G1 X92.147 Y85.195 F7800.000
G1 F600.000 E0.50000
G1 X91.355 Y85.183 F2880.000 E0.53963
G1 F600.000 E0.03963
G92 E0
G1 X101.720 Y102.276 F7800.000
G1 F600.000 E0.50000
G1 X104.557 Y105.114 F4560.000 E0.70562
G1 X105.784 Y105.114 F7800.000
G1 X102.889 Y102.220 F4560.000 E0.91534
G1 X104.115 Y102.220 F7800.000
G1 X107.010 Y105.114 F4560.000 E1.12505
G1 X108.236 Y105.114 F7800.000
G1 X105.342 Y102.220 F4560.000 E1.33472
G1 X106.569 Y102.220 F7800.000
G1 X109.463 Y105.114 F4560.000 E1.54444
G1 X110.689 Y105.114 F7800.000
G1 X107.795 Y102.220 F4560.000 E1.75416
G1 X109.021 Y102.220 F7800.000
G1 X111.916 Y105.114 F4560.000 E1.96387
G1 X113.142 Y105.114 F7800.000
G1 X110.247 Y102.220 F4560.000 E2.17359
G1 X111.474 Y102.220 F7800.000
G1 X114.368 Y105.114 F4560.000 E2.38326
G1 X115.595 Y105.114 F7800.000
G1 X112.701 Y102.220 F4560.000 E2.59298
G1 X113.927 Y102.220 F7800.000
G1 X116.821 Y105.114 F4560.000 E2.80269
G1 X118.048 Y105.114 F7800.000
G1 X115.153 Y102.220 F4560.000 E3.01241
G1 X116.380 Y102.220 F7800.000
G1 X130.114 Y115.954 F4560.000 E4.00761
G1 X130.114 Y117.180 F7800.000
G1 X118.219 Y105.286 F4560.000 E4.86949
G1 X118.219 Y106.512 F7800.000
G1 X130.114 Y118.406 F4560.000 E5.73137
G1 X130.114 Y119.632 F7800.000
G1 X118.220 Y107.739 F4560.000 E6.59319
G1 X118.219 Y108.965 F7800.000
G1 X130.114 Y120.860 F4560.000 E7.45507
G1 X130.114 Y122.086 F7800.000
G1 X118.219 Y110.191 F4560.000 E8.31695
G1 X118.219 Y111.418 F7800.000
G1 X130.114 Y123.312 F4560.000 E9.17882
G1 X130.114 Y124.538 F7800.000
G1 X118.220 Y112.644 F4560.000 E10.04065
G1 X118.220 Y113.871 F7800.000
G1 X130.114 Y125.764 F4560.000 E10.90248
G1 X130.114 Y126.992 F7800.000
G1 X118.219 Y115.097 F4560.000 E11.76435
G1 X118.219 Y116.323 F7800.000
G1 X130.114 Y128.218 F4560.000 E12.62623
G1 X130.114 Y129.444 F7800.000
G1 X118.219 Y117.550 F4560.000 E13.48811
G1 X118.220 Y118.776 F7800.000
G1 X130.114 Y130.670 F4560.000 E14.34993
G1 X130.114 Y131.896 F7800.000
G1 X118.220 Y120.003 F4560.000 E15.21176
G1 X118.219 Y121.229 F7800.000
G1 X130.114 Y133.124 F4560.000 E16.07364
G1 X129.378 Y133.614 F7800.000
G1 X118.219 Y122.456 F4560.000 E16.88218
G1 X118.219 Y123.682 F7800.000
G1 X128.151 Y133.614 F4560.000 E17.60187
G1 X126.925 Y133.614 F7800.000
G1 X118.220 Y124.908 F4560.000 E18.23266
G1 X118.220 Y126.135 F7800.000
G1 X125.699 Y133.614 F4560.000 E18.77461
G1 X124.472 Y133.614 F7800.000
G1 X118.219 Y127.361 F4560.000 E19.22765
G1 X118.219 Y128.588 F7800.000
G1 X123.246 Y133.614 F4560.000 E19.59185
G1 X122.019 Y133.614 F7800.000
G1 X118.219 Y129.814 F4560.000 E19.86721
G1 X118.220 Y131.041 F7800.000
G1 X120.793 Y133.614 F4560.000 E20.05366
G1 X119.567 Y133.614 F7800.000
G1 X118.220 Y132.267 F4560.000 E20.15127
G1 F600.000 E19.65127
G92 E0
G1 X130.114 Y114.728 F7800.000
G1 F600.000 E0.50000
G1 X117.606 Y102.220 F4560.000 E1.40630
G1 X118.833 Y102.220 F7800.000
G1 X130.727 Y114.114 F4560.000 E2.26818
G1 X131.954 Y114.114 F7800.000
G1 X120.059 Y102.220 F4560.000 E3.13006
G1 X121.285 Y102.220 F7800.000
G1 X133.180 Y114.114 F4560.000 E3.99193
G1 X134.406 Y114.114 F7800.000
G1 X122.512 Y102.220 F4560.000 E4.85381
G1 X123.739 Y102.220 F7800.000
G1 X135.633 Y114.113 F4560.000 E5.71564
G1 X136.859 Y114.114 F7800.000
G1 X124.965 Y102.220 F4560.000 E6.57751
G1 X126.191 Y102.220 F7800.000
G1 X138.086 Y114.114 F4560.000 E7.43939
G1 X139.206 Y114.008 F7800.000
G1 X127.417 Y102.220 F4560.000 E8.29363
G1 X128.644 Y102.220 F7800.000
G1 X138.124 Y111.700 F4560.000 E8.98058
G1 X137.954 Y110.302 F7800.000
G1 X129.871 Y102.220 F4560.000 E9.56629
G1 X131.097 Y102.220 F7800.000
G1 X138.182 Y109.304 F4560.000 E10.07964
G1 X138.409 Y108.306 F7800.000
G1 X132.323 Y102.220 F4560.000 E10.52065
G1 X133.549 Y102.220 F7800.000
G1 X138.926 Y107.596 F4560.000 E10.91026
G1 X139.470 Y106.914 F7800.000
G1 X134.776 Y102.220 F4560.000 E11.25038
G1 X136.003 Y102.220 F7800.000
G1 X140.039 Y106.256 F4560.000 E11.54285
G1 X140.867 Y105.857 F7800.000
G1 X137.229 Y102.220 F4560.000 E11.80642
G1 X138.455 Y102.220 F7800.000
G1 X141.695 Y105.459 F4560.000 E12.04114
G1 X142.681 Y105.219 F7800.000
G1 X139.682 Y102.220 F4560.000 E12.25849
G1 X140.908 Y102.220 F7800.000
G1 X143.907 Y105.219 F4560.000 E12.47580
G1 X145.574 Y105.658 F7800.000
G1 X142.135 Y102.220 F4560.000 E12.72497
G1 X143.361 Y102.220 F7800.000
G1 X149.614 Y108.472 F4560.000 E13.17801
G1 X149.614 Y107.246 F7800.000
G1 X144.587 Y102.220 F4560.000 E13.54222
G1 X145.814 Y102.220 F7800.000
G1 X149.614 Y106.020 F4560.000 E13.81757
G1 X149.614 Y104.793 F7800.000
G1 X147.040 Y102.220 F4560.000 E14.00402
G1 X148.267 Y102.220 F7800.000
G1 X149.614 Y103.567 F4560.000 E14.10163
G1 X147.990 Y108.074 F7800.000
G1 X149.614 Y109.699 F4560.000 E14.21933
G1 X149.614 Y110.925 F7800.000
G1 X148.352 Y109.664 F4560.000 E14.31074
G1 X148.289 Y110.827 F7800.000
G1 X149.614 Y112.152 F4560.000 E14.40671
G1 X149.614 Y113.378 F7800.000
G1 X148.061 Y111.826 F4560.000 E14.51917
G1 X147.735 Y112.725 F7800.000
G1 X149.124 Y114.114 F4560.000 E14.61981
G1 X147.897 Y114.113 F7800.000
G1 X147.191 Y113.407 F4560.000 E14.67094
G1 F600.000 E14.17094
G92 E0
G1 X103.331 Y105.114 F7800.000
G1 F600.000 E0.50000
G1 X101.720 Y103.502 F4560.000 E0.61677
G1 X103.056 Y98.113 F7800.000
G1 X101.720 Y96.778 F4560.000 E0.71223
G1 X101.720 Y95.563 F7800.000
G1 X104.270 Y98.113 F4560.000 E0.89452
G1 X105.486 Y98.114 F7800.000
G1 X102.592 Y95.220 F4560.000 E1.10136
G1 X103.807 Y95.219 F7800.000
G1 X106.701 Y98.113 F4560.000 E1.30821
G1 X107.916 Y98.113 F7800.000
G1 X105.023 Y95.220 F4560.000 E1.51500
G1 X106.237 Y95.220 F7800.000
G1 X109.132 Y98.114 F4560.000 E1.72185
G1 X110.347 Y98.113 F7800.000
G1 X107.453 Y95.219 F4560.000 E1.92869
G1 X108.669 Y95.220 F7800.000
G1 X111.562 Y98.113 F4560.000 E2.13549
G1 X112.778 Y98.114 F7800.000
G1 X109.883 Y95.220 F4560.000 E2.34233
G1 X111.098 Y95.220 F7800.000
G1 X113.992 Y98.114 F4560.000 E2.54918
G1 X115.208 Y98.113 F7800.000
G1 X112.314 Y95.219 F4560.000 E2.75602
G1 X113.529 Y95.220 F7800.000
G1 X116.423 Y98.113 F4560.000 E2.96282
G1 X117.638 Y98.114 F7800.000
G1 X114.744 Y95.220 F4560.000 E3.16966
G1 X115.960 Y95.219 F7800.000
G1 X118.854 Y98.113 F4560.000 E3.37651
G1 X120.069 Y98.113 F7800.000
G1 X117.175 Y95.220 F4560.000 E3.58330
G1 X118.219 Y95.049 F7800.000
G1 X121.284 Y98.114 F4560.000 E3.80233
G1 X122.500 Y98.113 F7800.000
G1 X118.220 Y93.834 F4560.000 E4.10817
G1 X118.219 Y92.618 F7800.000
G1 X123.714 Y98.113 F4560.000 E4.50089
G1 X124.930 Y98.114 F7800.000
G1 X118.219 Y91.404 F4560.000 E4.98048
G1 X118.220 Y90.188 F7800.000
G1 X126.145 Y98.113 F4560.000 E5.54689
G1 X127.360 Y98.113 F7800.000
G1 X118.219 Y88.973 F4560.000 E6.20017
G1 X118.219 Y87.758 F7800.000
G1 X128.576 Y98.114 F4560.000 E6.94033
G1 X129.791 Y98.114 F7800.000
G1 X118.219 Y86.543 F4560.000 E7.76730
G1 X118.220 Y85.327 F7800.000
G1 X131.006 Y98.113 F4560.000 E8.68110
G1 X132.222 Y98.114 F7800.000
G1 X118.219 Y84.112 F4560.000 E9.68182
G1 X118.219 Y82.897 F7800.000
G1 X133.436 Y98.114 F4560.000 E10.76936
G1 X134.652 Y98.113 F7800.000
G1 X118.220 Y81.682 F4560.000 E11.94372
G1 X118.219 Y80.466 F7800.000
G1 X135.867 Y98.113 F4560.000 E13.20496
G1 X137.082 Y98.114 F7800.000
G1 X118.219 Y79.251 F4560.000 E14.55306
G1 X118.220 Y78.036 F7800.000
G1 X138.298 Y98.113 F4560.000 E15.98799
G1 X139.513 Y98.113 F7800.000
G1 X118.219 Y76.820 F4560.000 E17.50979
G1 X118.219 Y75.605 F7800.000
G1 X140.728 Y98.114 F4560.000 E19.11846
G1 X141.944 Y98.113 F7800.000
G1 X130.049 Y86.219 F4560.000 E19.96853
G1 X130.114 Y86.283 F7800.000
G1 X118.220 Y74.390 F4560.000 E20.81855
G1 X118.219 Y73.174 F7800.000
G1 X130.114 Y85.069 F4560.000 E21.66862
G1 X130.114 Y83.854 F7800.000
G1 X118.219 Y71.960 F4560.000 E22.51870
G1 X118.220 Y70.744 F7800.000
G1 X130.114 Y82.638 F4560.000 E23.36872
G1 X130.114 Y81.423 F7800.000
G1 X118.220 Y69.529 F4560.000 E24.21874
G1 X118.219 Y68.314 F7800.000
G1 X130.114 Y80.208 F4560.000 E25.06881
G1 X130.114 Y78.993 F7800.000
G1 X118.219 Y67.099 F4560.000 E25.91888
G1 X119.056 Y66.719 F7800.000
G1 X130.114 Y77.777 F4560.000 E26.70917
G1 X130.114 Y76.562 F7800.000
G1 X120.271 Y66.720 F4560.000 E27.41258
G1 X121.486 Y66.720 F7800.000
G1 X130.114 Y75.347 F4560.000 E28.02917
G1 X130.114 Y74.131 F7800.000
G1 X122.702 Y66.719 F4560.000 E28.55889
G1 X123.917 Y66.720 F7800.000
G1 X130.114 Y72.916 F4560.000 E29.00174
G1 X130.114 Y71.702 F7800.000
G1 X125.132 Y66.720 F4560.000 E29.35777
G1 X126.348 Y66.719 F7800.000
G1 X130.114 Y70.485 F4560.000 E29.62693
G1 X130.114 Y69.270 F7800.000
G1 X127.563 Y66.720 F4560.000 E29.80921
G1 X128.778 Y66.720 F7800.000
G1 X130.114 Y68.056 F4560.000 E29.90468
G1 F600.000 E29.40468
G92 E0
G1 X131.265 Y86.220 F7800.000
G1 F600.000 E0.50000
G1 X143.158 Y98.113 F4560.000 E1.35002
G1 X144.374 Y98.114 F7800.000
G1 X141.098 Y94.838 F4560.000 E1.58416
G1 X142.590 Y95.114 F7800.000
G1 X145.589 Y98.113 F4560.000 E1.79853
G1 X146.804 Y98.113 F7800.000
G1 X143.805 Y95.115 F4560.000 E2.01285
G1 X144.735 Y94.829 F7800.000
G1 X148.020 Y98.114 F4560.000 E2.24765
G1 X149.235 Y98.114 F7800.000
G1 X145.554 Y94.434 F4560.000 E2.51069
G1 X146.371 Y94.035 F7800.000
G1 X149.614 Y97.277 F4560.000 E2.74240
G1 X149.614 Y96.062 F7800.000
G1 X146.910 Y93.359 F4560.000 E2.93560
G1 X147.450 Y92.683 F7800.000
G1 X149.614 Y94.847 F4560.000 E3.09024
G1 X149.614 Y93.631 F7800.000
G1 X147.940 Y91.957 F4560.000 E3.20986
G1 X148.165 Y90.968 F7800.000
G1 X149.614 Y92.416 F4560.000 E3.31336
G1 X149.614 Y91.201 F7800.000
G1 X148.391 Y89.979 F4560.000 E3.40073
G1 X149.614 Y89.986 F7800.000
G1 X148.193 Y88.565 F4560.000 E3.50231
G1 X149.614 Y88.770 F7800.000
G1 X147.063 Y86.220 F4560.000 E3.68460
G1 X148.278 Y86.220 F7800.000
G1 X149.614 Y87.556 F4560.000 E3.78006
