; generated by Slic3r 0.7.3-dev on 2012-05-10 at 15:17:22

; layer_height = 0.4
; perimeters = 1
; solid_layers = 3
; fill_density = 0.25
; nozzle_diameter = 0.75
; filament_diameter = 3
; extrusion_multiplier = 1
; perimeter_speed = 60
; infill_speed = 95
; travel_speed = 130
; extrusion_width_ratio = 2.3
; scale = 1
; single wall width = 0.92mm

M104 S230 ; set temperature
M92 E380
G92 X0 Y0 Z0  E0.0
G1 Z2.0 F150.0
G1 X-250.0 F2100.0
G1 X-249.0 F300.0
G1 X-251.0 F100.0
G92 X3.0
G1 Y-250.0 F2100.0
G1 Y-249.0 F300.0
G1 Y-251.0 F300.0
G92 Y10.0
G1 Y70.0 F2100.0
G1 Z-250.0 F150.0
G1 Z-249.0 F50.0
G1 Z-251.0 F50.0
G1 Y75.0 E2.0  F1000.0
G1 Y100.0 E2.3  F1000.0
G92 Z0.3
G92 E0.0
M106 S70
M107
M109 S230 ; wait for temperature to be reached
G90 ; use absolute coordinates
G21 ; set units to millimeters
G92 E0 ; reset extrusion distance
M82 ; use absolute distances for extrusion
M107
G1 Z0.400 F7800.000
G1 X86.770 Y62.950
G1 F600.000 E0.50000
G1 X86.900 Y62.730 F2880.000 E0.51278
G1 X87.200 Y62.300 E0.53899
G1 X87.540 Y61.900 E0.56524
G1 X87.720 Y61.710 E0.57832
G1 X87.910 Y61.530 E0.59141
G1 X88.520 Y61.040 E0.63053
G1 X88.960 Y60.760 E0.65660
G1 X89.430 Y60.520 E0.68299
G1 X89.910 Y60.320 E0.70899
G1 X90.410 Y60.160 E0.73523
G1 X90.920 Y60.050 E0.76132
G1 X91.440 Y59.980 E0.78755
G1 X91.960 Y59.960 E0.81357
G1 X105.560 Y59.980 E1.49353
G1 X106.080 Y60.050 E1.51976
G1 X106.590 Y60.160 E1.54584
G1 X107.090 Y60.320 E1.57209
G1 X107.580 Y60.520 E1.59855
G1 X108.040 Y60.760 E1.62449
G1 X108.690 Y61.200 E1.66374
G1 X108.900 Y61.360 E1.67694
G1 X129.140 Y81.600 E3.10803
G1 X129.600 Y82.240 E3.14744
G1 X129.740 Y82.460 E3.16047
G1 X129.980 Y82.920 E3.18641
G1 X130.180 Y83.410 E3.21287
G1 X130.340 Y83.910 E3.23912
G1 X130.450 Y84.420 E3.26521
G1 X130.520 Y84.940 E3.29144
G1 X130.520 Y115.060 E4.79735
G1 X130.450 Y115.580 E4.82358
G1 X130.340 Y116.090 E4.84966
G1 X130.180 Y116.590 E4.87591
G1 X129.980 Y117.080 E4.90237
G1 X129.740 Y117.540 E4.92831
G1 X129.300 Y118.190 E4.96755
G1 X129.140 Y118.400 E4.98075
G1 X108.900 Y138.640 E6.41185
G1 X108.260 Y139.100 E6.45125
G1 X108.040 Y139.240 E6.46429
G1 X107.580 Y139.480 E6.49023
G1 X107.090 Y139.680 E6.51669
G1 X106.590 Y139.840 E6.54294
G1 X106.080 Y139.950 E6.56903
G1 X105.560 Y140.020 E6.59526
G1 X105.040 Y140.040 E6.62128
G1 X91.440 Y140.020 E7.30123
G1 X90.920 Y139.950 E7.32747
G1 X90.410 Y139.840 E7.35355
G1 X89.910 Y139.680 E7.37980
G1 X89.430 Y139.480 E7.40580
G1 X88.960 Y139.240 E7.43218
G1 X88.520 Y138.960 E7.45826
G1 X87.910 Y138.470 E7.49738
G1 X87.720 Y138.290 E7.51046
G1 X87.540 Y138.100 E7.52355
G1 X87.200 Y137.700 E7.54979
G1 X86.900 Y137.270 E7.57601
G1 X70.130 Y108.300 E9.24959
G1 X70.000 Y108.040 E9.26413
G1 X69.790 Y107.510 E9.29263
G1 X69.700 Y107.230 E9.30733
G1 X69.570 Y106.680 E9.33559
G1 X69.520 Y106.400 E9.34981
G1 X69.470 Y105.830 E9.37842
G1 X69.470 Y94.170 E9.96138
G1 X69.520 Y93.600 E9.98999
G1 X69.630 Y93.040 E10.01852
G1 X69.700 Y92.770 E10.03247
G1 X69.790 Y92.490 E10.04717
G1 X70.000 Y91.960 E10.07567
G1 X86.701 Y63.069 E11.74409
G1 F600.000 E11.24409
G92 E0
G1 X75.460 Y101.460 F7800.000
G1 F600.000 E0.50000
G1 X124.540 Y101.460 F2880.000 E2.95385
G1 X124.540 Y114.540 E3.60781
G1 X118.985 Y114.540 E3.88552
G1 X120.413 Y113.853 E3.96473
G1 X121.709 Y112.227 E4.06868
G1 X122.172 Y110.200 E4.17263
G1 X121.709 Y108.173 E4.27658
G1 X120.413 Y106.547 E4.38053
G1 X118.540 Y105.645 E4.48449
G1 X116.460 Y105.645 E4.58844
G1 X114.587 Y106.547 E4.69239
G1 X113.291 Y108.173 E4.79634
G1 X112.828 Y110.200 E4.90029
G1 X113.291 Y112.227 E5.00424
G1 X114.587 Y113.853 E5.10820
G1 X116.015 Y114.540 E5.18741
G1 X105.040 Y114.540 E5.73610
G1 X105.040 Y134.040 E6.71104
G1 X91.960 Y134.040 E7.36500
G1 X91.960 Y105.540 E8.78991
G1 X75.460 Y105.540 E9.61486
G1 X75.460 Y101.598 E9.81195
G1 F600.000 E9.31195
G92 E0
G1 X75.460 Y98.540 F7800.000
G1 F600.000 E0.50000
G1 X75.460 Y94.460 F2880.000 E0.70399
G1 X91.960 Y94.460 E1.52894
G1 X91.960 Y65.960 E2.95385
G1 X105.040 Y65.960 E3.60781
G1 X105.040 Y85.460 E4.58274
G1 X116.015 Y85.460 E5.13144
G1 X114.587 Y86.147 E5.21065
G1 X113.291 Y87.773 E5.31460
G1 X112.828 Y89.800 E5.41855
G1 X113.291 Y91.827 E5.52250
G1 X114.587 Y93.453 E5.62646
G1 X116.460 Y94.355 E5.73041
G1 X118.540 Y94.355 E5.83436
G1 X120.413 Y93.453 E5.93831
G1 X121.709 Y91.827 E6.04227
G1 X122.172 Y89.800 E6.14622
G1 X121.709 Y87.773 E6.25017
G1 X120.413 Y86.147 E6.35412
G1 X118.985 Y85.460 E6.43333
G1 X124.540 Y85.460 E6.71104
G1 X124.540 Y98.540 E7.36500
G1 X75.598 Y98.540 E9.81195
G1 F600.000 E9.31195
G92 E0
G1 X117.312 Y114.731 F7800.000
G1 F600.000 E0.50000
G1 X117.123 Y114.686 F2880.000 E0.50970
G1 F600.000 E0.00970
G92 E0
G1 X117.814 Y85.361 F7800.000
G1 F600.000 E0.50000
G1 X117.022 Y85.350 F2880.000 E0.53963
G1 F600.000 E0.03963
G92 E0
G1 X116.468 Y102.053 F7800.000
G1 F600.000 E0.50000
G1 X119.906 Y105.492 F4560.000 E0.74915
G1 X118.241 Y105.052 F7800.000
G1 X115.241 Y102.053 F4560.000 E0.96648
G1 X114.015 Y102.053 F7800.000
G1 X117.014 Y105.052 F4560.000 E1.18381
G1 X116.028 Y105.292 F7800.000
G1 X112.789 Y102.053 F4560.000 E1.41852
G1 X111.563 Y102.053 F7800.000
G1 X115.200 Y105.690 F4560.000 E1.68211
G1 X114.372 Y106.090 F7800.000
G1 X110.336 Y102.053 F4560.000 E1.97459
G1 X109.109 Y102.053 F7800.000
G1 X113.804 Y106.748 F4560.000 E2.31475
G1 X113.260 Y107.430 F7800.000
G1 X107.883 Y102.053 F4560.000 E2.70436
G1 X106.657 Y102.053 F7800.000
G1 X112.743 Y108.139 F4560.000 E3.14537
G1 X112.515 Y109.137 F7800.000
G1 X105.431 Y102.053 F4560.000 E3.65874
G1 X104.204 Y102.053 F7800.000
G1 X112.287 Y110.137 F4560.000 E4.24446
G1 X112.458 Y111.534 F7800.000
G1 X102.977 Y102.053 F4560.000 E4.93146
G1 X101.751 Y102.053 F7800.000
G1 X113.394 Y113.696 F4560.000 E5.77514
G1 X112.418 Y113.947 F7800.000
G1 X100.525 Y102.053 F4560.000 E6.63698
G1 X99.299 Y102.053 F7800.000
G1 X111.193 Y113.947 F4560.000 E7.49884
G1 X109.966 Y113.947 F7800.000
G1 X98.072 Y102.053 F4560.000 E8.36070
G1 X96.845 Y102.053 F7800.000
G1 X108.739 Y113.947 F4560.000 E9.22257
G1 X107.513 Y113.947 F7800.000
G1 X95.619 Y102.053 F4560.000 E10.08442
G1 X94.393 Y102.053 F7800.000
G1 X106.287 Y113.947 F4560.000 E10.94628
G1 X105.060 Y113.947 F7800.000
G1 X93.167 Y102.053 F4560.000 E11.80814
G1 X91.940 Y102.053 F7800.000
G1 X104.447 Y114.560 F4560.000 E12.71443
G1 X104.447 Y115.787 F7800.000
G1 X90.713 Y102.053 F4560.000 E13.70958
G1 X89.487 Y102.053 F7800.000
G1 X92.381 Y104.947 F4560.000 E13.91929
G1 X92.553 Y105.119 F7800.000
G1 X104.447 Y117.013 F4560.000 E14.78114
G1 X104.447 Y118.239 F7800.000
G1 X92.553 Y106.345 F4560.000 E15.64300
G1 X92.553 Y107.572 F7800.000
G1 X104.447 Y119.466 F4560.000 E16.50487
G1 X104.447 Y120.693 F7800.000
G1 X92.553 Y108.799 F4560.000 E17.36673
G1 X92.553 Y110.025 F7800.000
G1 X104.447 Y121.918 F4560.000 E18.22856
G1 X104.447 Y123.145 F7800.000
G1 X92.553 Y111.251 F4560.000 E19.09044
G1 X92.553 Y112.477 F7800.000
G1 X104.447 Y124.371 F4560.000 E19.95231
G1 X104.447 Y125.598 F7800.000
G1 X92.553 Y113.704 F4560.000 E20.81417
G1 X92.553 Y114.931 F7800.000
G1 X104.447 Y126.824 F4560.000 E21.67601
G1 X104.447 Y128.050 F7800.000
G1 X92.553 Y116.157 F4560.000 E22.53784
G1 X92.553 Y117.383 F7800.000
G1 X104.447 Y129.277 F4560.000 E23.39971
G1 X104.447 Y130.503 F7800.000
G1 X92.553 Y118.609 F4560.000 E24.26157
G1 X92.553 Y119.836 F7800.000
G1 X104.447 Y131.730 F4560.000 E25.12342
G1 X104.447 Y132.956 F7800.000
G1 X92.553 Y121.063 F4560.000 E25.98527
G1 X92.553 Y122.289 F7800.000
G1 X103.711 Y133.447 F4560.000 E26.79381
G1 X102.485 Y133.447 F7800.000
G1 X92.553 Y123.515 F4560.000 E27.51349
G1 X92.553 Y124.741 F7800.000
G1 X101.258 Y133.446 F4560.000 E28.14427
G1 X100.031 Y133.447 F7800.000
G1 X92.553 Y125.968 F4560.000 E28.68619
G1 X92.553 Y127.195 F7800.000
G1 X98.805 Y133.447 F4560.000 E29.13926
G1 X97.579 Y133.447 F7800.000
G1 X92.553 Y128.421 F4560.000 E29.50346
G1 X92.553 Y129.647 F7800.000
G1 X96.353 Y133.447 F4560.000 E29.77881
G1 X95.126 Y133.446 F7800.000
G1 X92.553 Y130.873 F4560.000 E29.96525
G1 X92.553 Y132.101 F7800.000
G1 X93.899 Y133.447 F4560.000 E30.06281
G1 F600.000 E29.56281
G92 E0
G1 X91.155 Y104.947 F7800.000
G1 F600.000 E0.50000
G1 X88.261 Y102.053 F4560.000 E0.70970
G1 X87.034 Y102.053 F7800.000
G1 X89.928 Y104.947 F4560.000 E0.91940
G1 X88.701 Y104.947 F7800.000
G1 X85.808 Y102.053 F4560.000 E1.12911
G1 X84.581 Y102.053 F7800.000
G1 X87.475 Y104.947 F4560.000 E1.33881
G1 X86.249 Y104.947 F7800.000
G1 X83.355 Y102.053 F4560.000 E1.54852
G1 X82.129 Y102.053 F7800.000
G1 X85.023 Y104.947 F4560.000 E1.75822
G1 X83.796 Y104.947 F7800.000
G1 X80.902 Y102.053 F4560.000 E1.96793
G1 X79.675 Y102.053 F7800.000
G1 X82.569 Y104.947 F4560.000 E2.17763
G1 X81.343 Y104.947 F7800.000
G1 X78.449 Y102.053 F4560.000 E2.38734
G1 X77.223 Y102.053 F7800.000
G1 X80.117 Y104.947 F4560.000 E2.59704
G1 X78.891 Y104.947 F7800.000
G1 X76.053 Y102.109 F4560.000 E2.80264
G1 X76.053 Y103.336 F7800.000
G1 X77.664 Y104.947 F4560.000 E2.91937
G1 F600.000 E2.41937
G92 E0
G1 X117.695 Y102.053 F7800.000
G1 F600.000 E0.50000
G1 X123.947 Y108.305 F4560.000 E0.95306
G1 X123.947 Y107.079 F7800.000
G1 X118.921 Y102.053 F4560.000 E1.31727
G1 X120.147 Y102.053 F7800.000
G1 X123.947 Y105.853 F4560.000 E1.59262
G1 X123.946 Y104.626 F7800.000
G1 X121.374 Y102.053 F4560.000 E1.77906
G1 X122.601 Y102.053 F7800.000
G1 X123.947 Y103.399 F4560.000 E1.87662
G1 X122.323 Y107.909 F7800.000
G1 X123.946 Y109.532 F4560.000 E1.99426
G1 X123.376 Y110.188 F7800.000
G1 X122.686 Y109.497 F4560.000 E2.04427
G1 X122.672 Y110.445 F7800.000
G1 X123.947 Y111.721 F4560.000 E2.15989
G1 X123.947 Y113.138 F7800.000
G1 X122.408 Y111.599 F4560.000 E2.29936
G1 X122.016 Y112.625 F7800.000
G1 X123.338 Y113.947 F4560.000 E2.41921
G1 F600.000 E1.91921
G92 E0
G1 X123.947 Y89.274 F7800.000
G1 F600.000 E0.50000
G1 X122.365 Y87.692 F4560.000 E0.66712
G1 X123.947 Y87.724 F7800.000
G1 X122.276 Y86.053 F4560.000 E0.84361
G1 X122.738 Y89.826 F7800.000
G1 X123.947 Y91.035 F4560.000 E0.92999
G1 X123.947 Y92.250 F7800.000
G1 X122.499 Y90.801 F4560.000 E1.03349
G1 X122.273 Y91.791 F7800.000
G1 X123.947 Y93.465 F4560.000 E1.15313
G1 X123.947 Y94.680 F7800.000
G1 X121.783 Y92.516 F4560.000 E1.30778
G1 X121.244 Y93.192 F7800.000
G1 X123.947 Y95.895 F4560.000 E1.50096
G1 X123.947 Y97.110 F7800.000
G1 X120.705 Y93.868 F4560.000 E1.73268
G1 X119.888 Y94.267 F7800.000
G1 X123.568 Y97.947 F4560.000 E1.99569
G1 X122.353 Y97.947 F7800.000
G1 X119.068 Y94.662 F4560.000 E2.23048
G1 X118.138 Y94.947 F7800.000
G1 X121.138 Y97.947 F4560.000 E2.44484
G1 X119.922 Y97.947 F7800.000
G1 X116.923 Y94.948 F4560.000 E2.65919
G1 X115.431 Y94.671 F7800.000
G1 X118.707 Y97.947 F4560.000 E2.89331
G1 X117.492 Y97.947 F7800.000
G1 X105.598 Y86.053 F4560.000 E3.74336
G1 X104.447 Y86.118 F7800.000
G1 X92.553 Y74.224 F4560.000 E4.59341
G1 X92.553 Y75.439 F7800.000
G1 X115.061 Y97.947 F4560.000 E6.20206
G1 X116.276 Y97.947 F7800.000
G1 X104.382 Y86.053 F4560.000 E7.05211
G1 X104.447 Y84.902 F7800.000
G1 X92.553 Y73.008 F4560.000 E7.90216
G1 X92.553 Y71.793 F7800.000
G1 X104.447 Y83.687 F4560.000 E8.75221
G1 X104.447 Y82.472 F7800.000
G1 X92.553 Y70.578 F4560.000 E9.60226
G1 X92.553 Y69.362 F7800.000
G1 X104.447 Y81.256 F4560.000 E10.45231
G1 X104.447 Y80.041 F7800.000
G1 X92.553 Y68.147 F4560.000 E11.30237
G1 X92.553 Y66.932 F7800.000
G1 X104.447 Y78.826 F4560.000 E12.15243
G1 X104.447 Y77.610 F7800.000
G1 X93.390 Y66.553 F4560.000 E12.94271
G1 X94.605 Y66.553 F7800.000
G1 X104.447 Y76.395 F4560.000 E13.64614
G1 X104.447 Y75.180 F7800.000
G1 X95.820 Y66.553 F4560.000 E14.26271
G1 X97.035 Y66.553 F7800.000
G1 X104.447 Y73.965 F4560.000 E14.79243
G1 X104.447 Y72.750 F7800.000
G1 X98.250 Y66.553 F4560.000 E15.23530
G1 X99.465 Y66.553 F7800.000
G1 X104.447 Y71.535 F4560.000 E15.59132
G1 X104.447 Y70.320 F7800.000
G1 X100.680 Y66.553 F4560.000 E15.86049
G1 X101.896 Y66.553 F7800.000
G1 X104.447 Y69.104 F4560.000 E16.04280
G1 X104.447 Y67.889 F7800.000
G1 X103.111 Y66.553 F4560.000 E16.13826
G1 F600.000 E15.63826
G92 E0
G1 X92.553 Y76.654 F7800.000
G1 F600.000 E0.50000
G1 X113.846 Y97.947 F4560.000 E2.02180
G1 X112.631 Y97.947 F7800.000
G1 X92.553 Y77.869 F4560.000 E3.45675
G1 X92.553 Y79.085 F7800.000
G1 X111.415 Y97.947 F4560.000 E4.80484
G1 X110.200 Y97.947 F7800.000
G1 X92.553 Y80.300 F4560.000 E6.06609
G1 X92.553 Y81.515 F7800.000
G1 X108.985 Y97.947 F4560.000 E7.24048
G1 X107.770 Y97.947 F7800.000
G1 X92.553 Y82.730 F4560.000 E8.32801
G1 X92.553 Y83.945 F7800.000
G1 X106.555 Y97.947 F4560.000 E9.32869
G1 X105.340 Y97.947 F7800.000
G1 X92.553 Y85.160 F4560.000 E10.24252
G1 X92.553 Y86.376 F7800.000
G1 X104.124 Y97.947 F4560.000 E11.06949
G1 X102.909 Y97.947 F7800.000
G1 X92.553 Y87.591 F4560.000 E11.80962
G1 X92.553 Y88.806 F7800.000
G1 X101.694 Y97.947 F4560.000 E12.46289
G1 X100.478 Y97.947 F7800.000
G1 X92.553 Y90.022 F4560.000 E13.02931
G1 X92.553 Y91.237 F7800.000
G1 X99.263 Y97.947 F4560.000 E13.50888
G1 X98.048 Y97.947 F7800.000
G1 X92.553 Y92.452 F4560.000 E13.90160
G1 X92.553 Y93.667 F7800.000
G1 X96.833 Y97.947 F4560.000 E14.20746
G1 X95.617 Y97.947 F7800.000
G1 X92.553 Y94.883 F4560.000 E14.42647
G1 X91.508 Y95.053 F7800.000
G1 X94.402 Y97.947 F4560.000 E14.63330
G1 X93.187 Y97.947 F7800.000
G1 X90.293 Y95.053 F4560.000 E14.84013
G1 X89.077 Y95.053 F7800.000
G1 X91.971 Y97.947 F4560.000 E15.04696
G1 X90.756 Y97.947 F7800.000
G1 X87.862 Y95.053 F4560.000 E15.25379
G1 X86.647 Y95.053 F7800.000
G1 X89.541 Y97.947 F4560.000 E15.46062
G1 X88.326 Y97.947 F7800.000
G1 X85.432 Y95.053 F4560.000 E15.66745
G1 X84.217 Y95.053 F7800.000
G1 X87.111 Y97.947 F4560.000 E15.87428
G1 X85.896 Y97.947 F7800.000
G1 X83.002 Y95.053 F4560.000 E16.08111
G1 X81.786 Y95.053 F7800.000
G1 X84.680 Y97.947 F4560.000 E16.28795
G1 X83.465 Y97.947 F7800.000
G1 X80.571 Y95.053 F4560.000 E16.49478
G1 X79.356 Y95.053 F7800.000
G1 X82.250 Y97.947 F4560.000 E16.70161
G1 X81.034 Y97.947 F7800.000
G1 X78.140 Y95.053 F4560.000 E16.90844
G1 X76.925 Y95.053 F7800.000
G1 X79.819 Y97.947 F4560.000 E17.11527
G1 X78.604 Y97.947 F7800.000
G1 X76.053 Y95.396 F4560.000 E17.29758
G1 X76.053 Y96.611 F7800.000
G1 X77.389 Y97.947 F4560.000 E17.39304
G1 F600.000 E16.89304
G92 E0
G1 X106.813 Y86.053 F7800.000
G1 F600.000 E0.50000
G1 X112.625 Y91.865 F4560.000 E0.91538
G1 X112.265 Y90.291 F7800.000
G1 X108.028 Y86.053 F4560.000 E1.21823
G1 X109.244 Y86.053 F7800.000
G1 X112.406 Y89.215 F4560.000 E1.44425
G1 X112.632 Y88.226 F7800.000
G1 X110.459 Y86.053 F4560.000 E1.59955
G1 X111.674 Y86.053 F7800.000
G1 X112.989 Y87.369 F4560.000 E1.69358
G1 F600.000 E1.19358
G92 E0
G1 Z0.800 F7800.000
G1 X124.540 Y101.460
G1 F600.000 E0.50000
G1 X124.540 Y114.540 F3600.000 E1.15396
G1 X118.985 Y114.540 E1.43167
G1 X120.413 Y113.853 E1.51088
G1 X121.709 Y112.227 E1.61483
G1 X122.172 Y110.200 E1.71878
G1 X121.709 Y108.173 E1.82274
G1 X120.413 Y106.547 E1.92669
G1 X118.540 Y105.645 E2.03064
G1 X116.460 Y105.645 E2.13459
G1 X114.587 Y106.547 E2.23855
G1 X113.291 Y108.173 E2.34250
G1 X112.828 Y110.200 E2.44645
G1 X113.291 Y112.227 E2.55040
G1 X114.587 Y113.853 E2.65435
G1 X116.015 Y114.540 E2.73356
G1 X105.040 Y114.540 E3.28226
G1 X105.040 Y134.040 E4.25720
G1 X91.960 Y134.040 E4.91116
G1 X91.960 Y105.540 E6.33607
G1 X75.460 Y105.540 E7.16101
G1 X75.460 Y101.460 E7.36500
G1 X124.402 Y101.460 E9.81195
G1 X124.540 Y98.540 F7800.000
G1 X75.460 Y98.540 F3600.000 E12.26580
G1 X75.460 Y94.460 E12.46978
G1 X91.960 Y94.460 E13.29473
G1 X91.960 Y65.960 E14.71964
G1 X105.040 Y65.960 E15.37360
G1 X105.040 Y85.460 E16.34854
G1 X116.015 Y85.460 E16.89723
G1 X114.587 Y86.147 E16.97645
G1 X113.291 Y87.773 E17.08040
G1 X112.828 Y89.800 E17.18435
G1 X113.291 Y91.827 E17.28830
G1 X114.587 Y93.453 E17.39225
G1 X116.460 Y94.355 E17.49620
G1 X118.540 Y94.355 E17.60016
G1 X120.413 Y93.453 E17.70411
G1 X121.709 Y91.827 E17.80806
G1 X122.172 Y89.800 E17.91201
G1 X121.709 Y87.773 E18.01596
G1 X120.413 Y86.147 E18.11991
G1 X118.985 Y85.460 E18.19913
G1 X124.540 Y85.460 E18.47684
G1 X124.540 Y98.402 E19.12390
G1 F600.000 E18.62390
G92 E0
