; generated by Slic3r 0.7.3-dev on 2012-05-09 at 02:31:18

; layer_height = 0.4
; perimeters = 1
; solid_layers = 3
; fill_density = 0.25
; nozzle_diameter = 0.75
; filament_diameter = 3
; extrusion_multiplier = 1
; perimeter_speed = 40
; infill_speed = 50
; travel_speed = 130
; extrusion_width_ratio = 2.3
; scale = 1
; single wall width = 0.92mm

M104 S230 ; set temperature
M92 E380
G92 X0 Y0 Z0  E0.0
G1 Z2.0 F150.0
G1 X-250.0 F2100.0
G1 X-249.0 F300.0
G1 X-251.0 F100.0
G92 X3.0
G1 Y-250.0 F2100.0
G1 Y-249.0 F300.0
G1 Y-251.0 F300.0
G92 Y10.0
G1 Y70.0 F2100.0
G1 Z-250.0 F150.0
G1 Z-249.0 F50.0
G1 Z-251.0 F50.0
G1 Y75.0 E2.0  F1000.0
G1 Y100.0 E2.3  F1000.0
G92 Z0.3
G92 E0.0
M106 S70
M107
M109 S230 ; wait for temperature to be reached
G90 ; use absolute coordinates
G21 ; set units to millimeters
G92 E0 ; reset extrusion distance
M82 ; use absolute distances for extrusion
M107
G1 Z0.400 F7800.000
G1 X83.900 Y63.710
G1 F600.000 E0.50000
G1 X84.110 Y63.250 F1920.000 E0.52528
G1 X84.350 Y62.810 E0.55034
G1 X84.490 Y62.590 E0.56338
G1 X84.960 Y61.990 E0.60148
G1 X85.130 Y61.800 E0.61423
G1 X85.310 Y61.620 E0.62696
G1 X85.690 Y61.290 E0.65212
G1 X86.100 Y60.990 E0.67752
G1 X86.760 Y60.600 E0.71585
G1 X87.460 Y60.300 E0.75393
G1 X87.950 Y60.150 E0.77955
G1 X88.200 Y60.090 E0.79240
G1 X88.950 Y59.980 E0.83030
G1 X89.460 Y59.960 E0.85582
G1 X103.060 Y59.980 E1.53578
G1 X103.580 Y60.050 E1.56201
G1 X104.090 Y60.160 E1.58809
G1 X104.590 Y60.320 E1.61434
G1 X105.080 Y60.520 E1.64080
G1 X105.540 Y60.760 E1.66674
G1 X106.190 Y61.200 E1.70599
G1 X106.400 Y61.360 E1.71918
G1 X126.640 Y81.600 E3.15028
G1 X127.100 Y82.240 E3.18968
G1 X127.240 Y82.460 E3.20272
G1 X127.480 Y82.920 E3.22866
G1 X127.680 Y83.410 E3.25512
G1 X127.840 Y83.910 E3.28137
G1 X127.950 Y84.420 E3.30746
G1 X128.020 Y84.940 E3.33369
G1 X128.020 Y115.060 E4.83959
G1 X127.950 Y115.580 E4.86583
G1 X127.840 Y116.090 E4.89191
G1 X127.680 Y116.590 E4.91816
G1 X127.480 Y117.080 E4.94462
G1 X127.240 Y117.540 E4.97056
G1 X126.800 Y118.190 E5.00980
G1 X126.640 Y118.400 E5.02300
G1 X106.400 Y138.640 E6.45410
G1 X105.760 Y139.100 E6.49350
G1 X105.540 Y139.240 E6.50654
G1 X105.080 Y139.480 E6.53248
G1 X104.590 Y139.680 E6.55894
G1 X104.090 Y139.840 E6.58519
G1 X103.580 Y139.950 E6.61127
G1 X103.060 Y140.020 E6.63751
G1 X102.540 Y140.040 E6.66352
G1 X88.950 Y140.020 E7.34298
G1 X88.200 Y139.910 E7.38088
G1 X87.460 Y139.700 E7.41934
G1 X86.990 Y139.510 E7.44469
G1 X86.760 Y139.400 E7.45743
G1 X86.100 Y139.010 E7.49576
G1 X85.690 Y138.710 E7.52116
G1 X85.310 Y138.380 E7.54632
G1 X85.130 Y138.200 E7.55905
G1 X84.960 Y138.010 E7.57180
G1 X84.490 Y137.410 E7.60990
G1 X84.350 Y137.190 E7.62294
G1 X84.110 Y136.750 E7.64800
G1 X72.290 Y107.520 E9.22437
G1 X72.130 Y106.960 E9.25349
G1 X72.020 Y106.400 E9.28203
G1 X71.970 Y105.830 E9.31063
G1 X71.970 Y94.170 E9.89360
G1 X72.020 Y93.600 E9.92220
G1 X72.130 Y93.040 E9.95074
G1 X72.290 Y92.480 E9.97986
G1 X83.848 Y63.838 E11.52407
G1 F600.000 E11.02407
G92 E0
G1 X77.960 Y101.460 F7800.000
G1 F600.000 E0.50000
G1 X122.040 Y101.460 F1920.000 E2.70386
G1 X122.040 Y114.540 E3.35782
G1 X116.485 Y114.540 E3.63553
G1 X117.913 Y113.853 E3.71474
G1 X119.209 Y112.227 E3.81870
G1 X119.672 Y110.200 E3.92265
G1 X119.209 Y108.173 E4.02660
G1 X117.913 Y106.547 E4.13055
G1 X116.040 Y105.645 E4.23450
G1 X113.960 Y105.645 E4.33845
G1 X112.087 Y106.547 E4.44241
G1 X110.791 Y108.173 E4.54636
G1 X110.328 Y110.200 E4.65031
G1 X110.791 Y112.227 E4.75426
G1 X112.087 Y113.853 E4.85821
G1 X113.515 Y114.540 E4.93742
G1 X102.540 Y114.540 E5.48612
G1 X102.540 Y134.040 E6.46106
G1 X89.460 Y134.040 E7.11502
G1 X89.460 Y105.540 E8.53993
G1 X77.960 Y105.540 E9.11489
G1 X77.960 Y101.598 E9.31198
G1 F600.000 E8.81198
G92 E0
G1 X77.960 Y98.540 F7800.000
G1 F600.000 E0.50000
G1 X77.960 Y94.460 F1920.000 E0.70399
G1 X89.460 Y94.460 E1.27895
G1 X89.460 Y65.960 E2.70386
G1 X102.540 Y65.960 E3.35782
G1 X102.540 Y85.460 E4.33276
G1 X113.515 Y85.460 E4.88145
G1 X112.087 Y86.147 E4.96067
G1 X110.791 Y87.773 E5.06462
G1 X110.328 Y89.800 E5.16857
G1 X110.791 Y91.827 E5.27252
G1 X112.087 Y93.453 E5.37647
G1 X113.960 Y94.355 E5.48042
G1 X116.040 Y94.355 E5.58438
G1 X117.913 Y93.453 E5.68833
G1 X119.209 Y91.827 E5.79228
G1 X119.672 Y89.800 E5.89623
G1 X119.209 Y87.773 E6.00018
G1 X117.913 Y86.147 E6.10413
G1 X116.485 Y85.460 E6.18335
G1 X122.040 Y85.460 E6.46106
G1 X122.040 Y98.540 E7.11502
G1 X78.098 Y98.540 E9.31198
G1 F600.000 E8.81198
G92 E0
G1 X115.378 Y114.645 F7800.000
G1 F600.000 E0.50000
G1 X115.498 Y114.675 F1920.000 E0.50617
G1 F600.000 E0.00617
G92 E0
G1 X114.626 Y85.377 F7800.000
G1 F600.000 E0.50000
G1 X114.522 Y85.350 F1920.000 E0.50541
G1 F600.000 E0.00541
G92 E0
G1 X113.968 Y102.053 F7800.000
G1 F600.000 E0.50000
G1 X117.407 Y105.491 F1920.000 E0.74916
G1 X115.741 Y105.052 F7800.000
G1 X112.742 Y102.053 F1920.000 E0.96649
G1 X111.516 Y102.053 F7800.000
G1 X114.515 Y105.052 F1920.000 E1.18382
G1 X113.528 Y105.292 F7800.000
G1 X110.289 Y102.053 F1920.000 E1.41853
G1 X109.062 Y102.053 F7800.000
G1 X112.700 Y105.691 F1920.000 E1.68213
G1 X111.872 Y106.089 F7800.000
G1 X107.836 Y102.053 F1920.000 E1.97461
G1 X106.610 Y102.053 F7800.000
G1 X111.304 Y106.747 F1920.000 E2.31478
G1 X110.760 Y107.429 F7800.000
G1 X105.384 Y102.053 F1920.000 E2.70439
G1 X104.157 Y102.053 F7800.000
G1 X110.243 Y108.139 F1920.000 E3.14541
G1 X110.015 Y109.138 F7800.000
G1 X102.930 Y102.053 F1920.000 E3.65878
G1 X101.704 Y102.053 F7800.000
G1 X109.787 Y110.136 F1920.000 E4.24450
G1 X109.958 Y111.533 F7800.000
G1 X100.478 Y102.053 F1920.000 E4.93149
G1 X99.251 Y102.053 F7800.000
G1 X110.894 Y113.697 F1920.000 E5.77519
G1 X109.918 Y113.947 F7800.000
G1 X98.025 Y102.053 F1920.000 E6.63705
G1 X96.798 Y102.053 F7800.000
G1 X108.692 Y113.947 F1920.000 E7.49891
G1 X107.466 Y113.947 F7800.000
G1 X95.572 Y102.053 F1920.000 E8.36076
G1 X94.346 Y102.053 F7800.000
G1 X106.240 Y113.947 F1920.000 E9.22262
G1 X105.013 Y113.947 F7800.000
G1 X93.119 Y102.053 F1920.000 E10.08448
G1 X91.892 Y102.053 F7800.000
G1 X103.786 Y113.947 F1920.000 E10.94633
G1 X102.560 Y113.947 F7800.000
G1 X90.666 Y102.053 F1920.000 E11.80819
G1 X89.440 Y102.053 F7800.000
G1 X101.947 Y114.560 F1920.000 E12.71448
G1 X101.947 Y115.786 F7800.000
G1 X88.214 Y102.053 F1920.000 E13.70964
G1 X86.987 Y102.053 F7800.000
G1 X89.881 Y104.947 F1920.000 E13.91935
G1 X90.053 Y105.119 F7800.000
G1 X101.947 Y117.013 F1920.000 E14.78121
G1 X101.947 Y118.240 F7800.000
G1 X90.053 Y106.346 F1920.000 E15.64307
G1 X90.053 Y107.572 F7800.000
G1 X101.947 Y119.466 F1920.000 E16.50492
G1 X101.947 Y120.692 F7800.000
G1 X90.053 Y108.798 F1920.000 E17.36678
G1 X90.053 Y110.024 F7800.000
G1 X101.947 Y121.918 F1920.000 E18.22864
G1 X101.947 Y123.145 F7800.000
G1 X90.053 Y111.251 F1920.000 E19.09049
G1 X90.053 Y112.478 F7800.000
G1 X101.947 Y124.372 F1920.000 E19.95235
G1 X101.947 Y125.598 F7800.000
G1 X90.053 Y113.704 F1920.000 E20.81421
G1 X90.053 Y114.930 F7800.000
G1 X101.947 Y126.824 F1920.000 E21.67608
G1 X101.947 Y128.050 F7800.000
G1 X90.053 Y116.156 F1920.000 E22.53795
G1 X90.053 Y117.383 F7800.000
G1 X101.947 Y129.277 F1920.000 E23.39980
G1 X101.947 Y130.503 F7800.000
G1 X90.053 Y118.610 F1920.000 E24.26164
G1 X90.053 Y119.836 F7800.000
G1 X101.947 Y131.730 F1920.000 E25.12352
G1 X101.947 Y132.956 F7800.000
G1 X90.053 Y121.062 F1920.000 E25.98539
G1 X90.053 Y122.289 F7800.000
G1 X101.211 Y133.446 F1920.000 E26.79391
G1 X99.984 Y133.447 F7800.000
G1 X90.053 Y123.516 F1920.000 E27.51357
G1 X90.053 Y124.742 F7800.000
G1 X98.758 Y133.447 F1920.000 E28.14437
G1 X97.532 Y133.447 F7800.000
G1 X90.053 Y125.968 F1920.000 E28.68632
G1 X90.053 Y127.194 F7800.000
G1 X96.306 Y133.447 F1920.000 E29.13941
G1 X95.079 Y133.446 F7800.000
G1 X90.053 Y128.421 F1920.000 E29.50359
G1 X90.053 Y129.648 F7800.000
G1 X93.852 Y133.447 F1920.000 E29.77892
G1 X92.626 Y133.447 F7800.000
G1 X90.053 Y130.874 F1920.000 E29.96538
G1 X90.053 Y132.100 F7800.000
G1 X91.400 Y133.447 F1920.000 E30.06297
G1 F600.000 E29.56297
G92 E0
G1 X88.654 Y104.947 F7800.000
G1 F600.000 E0.50000
G1 X85.760 Y102.053 F1920.000 E0.70971
G1 X84.534 Y102.053 F7800.000
G1 X87.428 Y104.947 F1920.000 E0.91942
G1 X86.202 Y104.947 F7800.000
G1 X83.308 Y102.053 F1920.000 E1.12912
G1 X82.082 Y102.053 F7800.000
G1 X84.976 Y104.947 F1920.000 E1.33882
G1 X83.749 Y104.947 F7800.000
G1 X80.855 Y102.053 F1920.000 E1.54852
G1 X79.628 Y102.053 F7800.000
G1 X82.522 Y104.947 F1920.000 E1.75822
G1 X81.296 Y104.947 F7800.000
G1 X78.553 Y102.204 F1920.000 E1.95699
G1 X78.553 Y103.430 F7800.000
G1 X80.070 Y104.947 F1920.000 E2.06688
G1 F600.000 E1.56688
G92 E0
G1 X115.194 Y102.053 F7800.000
G1 F600.000 E0.50000
G1 X121.447 Y108.306 F1920.000 E0.95309
G1 X121.447 Y109.532 F7800.000
G1 X119.823 Y107.908 F1920.000 E1.07078
G1 X120.186 Y109.497 F7800.000
G1 X120.877 Y110.188 F1920.000 E1.12084
G1 X121.446 Y107.079 F7800.000
G1 X116.421 Y102.053 F1920.000 E1.48502
G1 X117.648 Y102.053 F7800.000
G1 X121.447 Y105.852 F1920.000 E1.76035
G1 X121.447 Y104.626 F7800.000
G1 X118.874 Y102.053 F1920.000 E1.94681
G1 X120.100 Y102.053 F7800.000
G1 X121.447 Y103.400 F1920.000 E2.04441
G1 X120.172 Y110.444 F7800.000
G1 X121.447 Y111.720 F1920.000 E2.16003
G1 X121.447 Y113.138 F7800.000
G1 X119.908 Y111.599 F1920.000 E2.29956
G1 X119.516 Y112.624 F7800.000
G1 X120.838 Y113.947 F1920.000 E2.41941
G1 F600.000 E1.91941
G92 E0
G1 X121.447 Y89.274 F7800.000
G1 F600.000 E0.50000
G1 X119.865 Y87.692 F1920.000 E0.66712
G1 X121.447 Y87.723 F7800.000
G1 X119.777 Y86.053 F1920.000 E0.84361
G1 X120.249 Y89.825 F7800.000
G1 X121.447 Y91.022 F1920.000 E0.92887
G1 X121.447 Y92.234 F7800.000
G1 X120.002 Y90.789 F1920.000 E1.03177
G1 X119.776 Y91.776 F7800.000
G1 X121.447 Y93.447 F1920.000 E1.15070
G1 X121.447 Y94.659 F7800.000
G1 X119.293 Y92.504 F1920.000 E1.30408
G1 X118.755 Y93.179 F7800.000
G1 X121.447 Y95.871 F1920.000 E1.49574
G1 X121.447 Y97.083 F7800.000
G1 X118.217 Y93.853 F1920.000 E1.72569
G1 X117.409 Y94.257 F7800.000
G1 X121.099 Y97.947 F1920.000 E1.98841
G1 X119.887 Y97.947 F7800.000
G1 X116.591 Y94.651 F1920.000 E2.22308
G1 X115.675 Y94.948 F7800.000
G1 X118.674 Y97.947 F1920.000 E2.43661
G1 X117.462 Y97.947 F7800.000
G1 X114.463 Y94.948 F1920.000 E2.65014
G1 X113.015 Y94.711 F7800.000
G1 X116.250 Y97.947 F1920.000 E2.88050
G1 X115.038 Y97.947 F7800.000
G1 X103.144 Y86.053 F1920.000 E3.72729
G1 X101.947 Y86.068 F7800.000
G1 X90.053 Y74.174 F1920.000 E4.57407
G1 X90.053 Y72.962 F7800.000
G1 X101.947 Y84.856 F1920.000 E5.42086
G1 X101.932 Y86.053 F7800.000
G1 X113.826 Y97.947 F1920.000 E6.26764
G1 X112.614 Y97.947 F7800.000
G1 X90.053 Y75.386 F1920.000 E7.87385
G1 X90.053 Y76.598 F7800.000
G1 X111.402 Y97.947 F1920.000 E9.39376
G1 X110.190 Y97.947 F7800.000
G1 X90.053 Y77.810 F1920.000 E10.82738
G1 X90.053 Y79.023 F7800.000
G1 X108.977 Y97.947 F1920.000 E12.17469
G1 X107.765 Y97.947 F7800.000
G1 X90.053 Y80.235 F1920.000 E13.43570
G1 X90.053 Y81.447 F7800.000
G1 X106.553 Y97.947 F1920.000 E14.61042
G1 X105.341 Y97.947 F7800.000
G1 X90.053 Y82.659 F1920.000 E15.69883
G1 X90.053 Y83.871 F7800.000
G1 X104.129 Y97.947 F1920.000 E16.70095
G1 X102.917 Y97.947 F7800.000
G1 X90.053 Y85.083 F1920.000 E17.61677
G1 X90.053 Y86.295 F7800.000
G1 X101.705 Y97.947 F1920.000 E18.44629
G1 X100.493 Y97.947 F7800.000
G1 X90.053 Y87.507 F1920.000 E19.18951
G1 X90.053 Y88.720 F7800.000
G1 X99.280 Y97.947 F1920.000 E19.84643
G1 X98.068 Y97.947 F7800.000
G1 X90.053 Y89.932 F1920.000 E20.41705
G1 X90.053 Y91.144 F7800.000
G1 X96.856 Y97.947 F1920.000 E20.90137
G1 X95.644 Y97.947 F7800.000
G1 X90.053 Y92.356 F1920.000 E21.29939
G1 X90.053 Y93.568 F7800.000
G1 X94.432 Y97.947 F1920.000 E21.61112
G1 X93.220 Y97.947 F7800.000
G1 X90.053 Y94.780 F1920.000 E21.83655
G1 X89.113 Y95.053 F7800.000
G1 X92.007 Y97.947 F1920.000 E22.04258
G1 X90.795 Y97.947 F7800.000
G1 X87.901 Y95.053 F1920.000 E22.24862
G1 X86.689 Y95.053 F7800.000
G1 X89.583 Y97.947 F1920.000 E22.45466
G1 X88.371 Y97.947 F7800.000
G1 X85.477 Y95.053 F1920.000 E22.66069
G1 X84.264 Y95.053 F7800.000
G1 X87.158 Y97.947 F1920.000 E22.86673
G1 X85.946 Y97.947 F7800.000
G1 X83.052 Y95.053 F1920.000 E23.07276
G1 X81.840 Y95.053 F7800.000
G1 X84.734 Y97.947 F1920.000 E23.27880
G1 X83.522 Y97.947 F7800.000
G1 X80.628 Y95.053 F1920.000 E23.48483
G1 X79.416 Y95.053 F7800.000
G1 X82.310 Y97.947 F1920.000 E23.69087
G1 X81.098 Y97.947 F7800.000
G1 X78.553 Y95.402 F1920.000 E23.87204
G1 X78.553 Y96.615 F7800.000
G1 X79.885 Y97.947 F1920.000 E23.96691
G1 F600.000 E23.46691
G92 E0
G1 X101.947 Y83.644 F7800.000
G1 F600.000 E0.50000
G1 X90.053 Y71.750 F1920.000 E1.34678
G1 X90.053 Y70.538 F7800.000
G1 X101.947 Y82.432 F1920.000 E2.19357
G1 X101.947 Y81.220 F7800.000
G1 X90.053 Y69.326 F1920.000 E3.04036
G1 X90.053 Y68.113 F7800.000
G1 X101.947 Y80.007 F1920.000 E3.88714
G1 X101.947 Y78.795 F7800.000
G1 X90.053 Y66.901 F1920.000 E4.73393
G1 X90.917 Y66.553 F7800.000
G1 X101.947 Y77.583 F1920.000 E5.51920
G1 X101.947 Y76.371 F7800.000
G1 X92.129 Y66.553 F1920.000 E6.21816
G1 X93.341 Y66.553 F7800.000
G1 X101.947 Y75.159 F1920.000 E6.83082
G1 X101.947 Y73.946 F7800.000
G1 X94.554 Y66.553 F1920.000 E7.35719
G1 X95.766 Y66.553 F7800.000
G1 X101.947 Y72.734 F1920.000 E7.79726
G1 X101.947 Y71.522 F7800.000
G1 X96.978 Y66.553 F1920.000 E8.15103
G1 X98.190 Y66.553 F7800.000
G1 X101.947 Y70.310 F1920.000 E8.41850
G1 X101.947 Y69.098 F7800.000
G1 X99.403 Y66.553 F1920.000 E8.59967
G1 X100.615 Y66.553 F7800.000
G1 X101.947 Y67.885 F1920.000 E8.69455
G1 F600.000 E8.19455
G92 E0
G1 X104.356 Y86.053 F7800.000
G1 F600.000 E0.50000
G1 X110.112 Y91.809 F1920.000 E0.90980
G1 X109.754 Y90.239 F7800.000
G1 X105.568 Y86.053 F1920.000 E1.20778
G1 X106.780 Y86.053 F7800.000
G1 X109.913 Y89.186 F1920.000 E1.43078
G1 X110.139 Y88.198 F7800.000
G1 X107.993 Y86.053 F1920.000 E1.58351
G1 X109.205 Y86.053 F7800.000
G1 X110.504 Y87.351 F1920.000 E1.67596
G1 F600.000 E1.17596
G92 E0
G1 Z0.800 F7800.000
G1 X122.040 Y101.460
G1 F600.000 E0.50000
G1 X122.040 Y114.540 F2400.000 E1.15396
G1 X116.485 Y114.540 E1.43167
G1 X117.913 Y113.853 E1.51088
G1 X119.209 Y112.227 E1.61483
G1 X119.672 Y110.200 E1.71878
G1 X119.209 Y108.173 E1.82274
G1 X117.913 Y106.547 E1.92669
G1 X116.040 Y105.645 E2.03064
G1 X113.960 Y105.645 E2.13459
G1 X112.087 Y106.547 E2.23855
G1 X110.791 Y108.173 E2.34250
G1 X110.328 Y110.200 E2.44645
G1 X110.791 Y112.227 E2.55040
G1 X112.087 Y113.853 E2.65435
G1 X113.515 Y114.540 E2.73356
G1 X102.540 Y114.540 E3.28226
G1 X102.540 Y134.040 E4.25720
G1 X89.460 Y134.040 E4.91116
G1 X89.460 Y105.540 E6.33607
G1 X77.960 Y105.540 E6.91103
G1 X77.960 Y101.460 E7.11502
G1 X121.902 Y101.460 E9.31198
G1 X122.040 Y98.540 F7800.000
G1 X77.960 Y98.540 F2400.000 E11.51584
G1 X77.960 Y94.460 E11.71983
G1 X89.460 Y94.460 E12.29479
G1 X89.460 Y65.960 E13.71970
G1 X102.540 Y65.960 E14.37366
G1 X102.540 Y85.460 E15.34860
G1 X113.515 Y85.460 E15.89730
G1 X112.087 Y86.147 E15.97651
G1 X110.791 Y87.773 E16.08046
G1 X110.328 Y89.800 E16.18441
G1 X110.791 Y91.827 E16.28836
G1 X112.087 Y93.453 E16.39231
G1 X113.960 Y94.355 E16.49627
G1 X116.040 Y94.355 E16.60022
G1 X117.913 Y93.453 E16.70417
G1 X119.209 Y91.827 E16.80812
G1 X119.672 Y89.800 E16.91207
G1 X119.209 Y87.773 E17.01602
G1 X117.913 Y86.147 E17.11998
G1 X116.485 Y85.460 E17.19919
G1 X122.040 Y85.460 E17.47690
G1 X122.040 Y98.402 E18.12396
G1 F600.000 E17.62396
G92 E0
G1 X115.378 Y114.645 F7800.000
G1 F600.000 E0.50000
G1 X115.498 Y114.675 F2400.000 E0.50617
G1 F600.000 E0.00617
G92 E0
G1 X114.626 Y85.377 F7800.000
G1 F600.000 E0.50000
G1 X114.522 Y85.350 F2400.000 E0.50541
G1 F600.000 E0.00541
G92 E0
G1 X115.039 Y102.053 F7800.000
G1 F600.000 E0.50000
G1 X103.144 Y113.947 F2400.000 E1.34680
G1 X101.947 Y113.932 F7800.000
G1 X90.053 Y125.827 F2400.000 E2.19361
G1 X90.053 Y127.039 F7800.000
G1 X101.947 Y115.144 F2400.000 E3.04041
G1 X101.932 Y113.947 F7800.000
G1 X113.826 Y102.054 F2400.000 E3.88717
G1 X112.613 Y102.053 F7800.000
G1 X90.053 Y124.613 F2400.000 E5.49334
G1 X90.053 Y123.401 F7800.000
