; generated by Slic3r 0.7.3-dev on 2012-05-07 at 09:45:17

; layer_height = 0.4
; perimeters = 1
; solid_layers = 3
; fill_density = 0.25
; nozzle_diameter = 0.75
; filament_diameter = 3
; extrusion_multiplier = 1
; perimeter_speed = 40
; infill_speed = 50
; travel_speed = 130
; extrusion_width_ratio = 2.3
; scale = 1
; single wall width = 0.92mm

M104 S230 ; set temperature
M92 E380
G92 X0 Y0 Z0  E0.0
G1 Z2.0 F150.0
G1 X-250.0 F2100.0
G1 X-249.0 F300.0
G1 X-251.0 F100.0
G92 X3.0
G1 Y-250.0 F2100.0
G1 Y-249.0 F300.0
G1 Y-251.0 F300.0
G92 Y10.0
G1 Y70.0 F2100.0
G1 Z-250.0 F150.0
G1 Z-249.0 F50.0
G1 Z-251.0 F50.0
G1 Y75.0 E2.0  F1000.0
G1 Y100.0 E2.3  F1000.0
G92 Z0.3
G92 E0.0
M106 S70
M107
M109 S230 ; wait for temperature to be reached
G90 ; use absolute coordinates
G21 ; set units to millimeters
G92 E0 ; reset extrusion distance
M82 ; use absolute distances for extrusion
G1 Z0.400 F7800.000
G1 X86.400 Y63.710
G1 F600.000 E0.50000
G1 X86.610 Y63.250 F1920.000 E0.52528
G1 X86.850 Y62.810 E0.55034
G1 X86.990 Y62.590 E0.56338
G1 X87.460 Y61.990 E0.60148
G1 X87.630 Y61.800 E0.61423
G1 X87.810 Y61.620 E0.62696
G1 X88.190 Y61.290 E0.65212
G1 X88.600 Y60.990 E0.67752
G1 X89.260 Y60.600 E0.71585
G1 X89.960 Y60.300 E0.75393
G1 X90.450 Y60.150 E0.77955
G1 X90.700 Y60.090 E0.79240
G1 X91.450 Y59.980 E0.83030
G1 X91.960 Y59.960 E0.85582
G1 X105.570 Y59.980 E1.53628
G1 X106.100 Y60.050 E1.56300
G1 X106.620 Y60.170 E1.58969
G1 X107.120 Y60.330 E1.61593
G1 X107.610 Y60.540 E1.64259
G1 X108.080 Y60.790 E1.66920
G1 X108.530 Y61.080 E1.69597
G1 X108.950 Y61.410 E1.72267
G1 X109.340 Y61.770 E1.74921
G1 X109.690 Y62.170 E1.77578
G1 X124.510 Y82.100 E3.01752
G1 X124.800 Y82.570 E3.04513
G1 X124.930 Y82.810 E3.05877
G1 X125.240 Y83.570 E3.09981
G1 X125.320 Y83.840 E3.11389
G1 X125.440 Y84.370 E3.14106
G1 X125.510 Y84.910 E3.16828
G1 X125.540 Y85.460 E3.19582
G1 X125.530 Y114.810 E4.66323
G1 X125.480 Y115.360 E4.69084
G1 X125.440 Y115.630 E4.70449
G1 X125.320 Y116.160 E4.73166
G1 X125.240 Y116.430 E4.74574
G1 X124.930 Y117.190 E4.78677
G1 X124.660 Y117.670 E4.81431
G1 X109.690 Y137.830 E6.06974
G1 X109.340 Y138.230 E6.09632
G1 X108.950 Y138.590 E6.12285
G1 X108.530 Y138.920 E6.14956
G1 X108.080 Y139.210 E6.17633
G1 X107.610 Y139.460 E6.20294
G1 X107.120 Y139.670 E6.22960
G1 X106.620 Y139.830 E6.25584
G1 X106.100 Y139.950 E6.28252
G1 X105.570 Y140.020 E6.30925
G1 X105.040 Y140.040 E6.33577
G1 X91.450 Y140.020 E7.01523
G1 X90.700 Y139.910 E7.05313
G1 X89.960 Y139.700 E7.09159
G1 X89.490 Y139.510 E7.11693
G1 X89.260 Y139.400 E7.12968
G1 X88.600 Y139.010 E7.16801
G1 X88.190 Y138.710 E7.19341
G1 X87.810 Y138.380 E7.21857
G1 X87.630 Y138.200 E7.23130
G1 X87.460 Y138.010 E7.24404
G1 X86.990 Y137.410 E7.28215
G1 X86.850 Y137.190 E7.29519
G1 X86.610 Y136.750 E7.32025
G1 X74.790 Y107.520 E8.89662
G1 X74.630 Y106.960 E8.92574
G1 X74.520 Y106.400 E8.95427
G1 X74.470 Y105.830 E8.98288
G1 X74.470 Y94.170 E9.56584
G1 X74.520 Y93.600 E9.59445
G1 X74.630 Y93.040 E9.62298
G1 X74.790 Y92.480 E9.65210
G1 X86.348 Y63.838 E11.19632
G1 F600.000 E10.69632
G92 E0
G1 X80.460 Y101.460 F7800.000
G1 F600.000 E0.50000
G1 X119.540 Y101.460 F1920.000 E2.45388
G1 X119.540 Y114.540 E3.10784
G1 X113.985 Y114.540 E3.38555
G1 X115.413 Y113.853 E3.46476
G1 X116.709 Y112.227 E3.56871
G1 X117.172 Y110.200 E3.67266
G1 X116.709 Y108.173 E3.77661
G1 X115.413 Y106.547 E3.88056
G1 X113.540 Y105.645 E3.98452
G1 X111.460 Y105.645 E4.08847
G1 X109.587 Y106.547 E4.19242
G1 X108.291 Y108.173 E4.29638
G1 X107.828 Y110.200 E4.40033
G1 X108.291 Y112.227 E4.50428
G1 X109.587 Y113.853 E4.60823
G1 X111.015 Y114.540 E4.68744
G1 X105.040 Y114.540 E4.98615
G1 X105.040 Y134.040 E5.96109
G1 X91.960 Y134.040 E6.61505
G1 X91.960 Y105.540 E8.03996
G1 X80.460 Y105.540 E8.61492
G1 X80.460 Y101.598 E8.81201
G1 F600.000 E8.31201
G92 E0
G1 X80.460 Y98.540 F7800.000
G1 F600.000 E0.50000
G1 X80.460 Y94.460 F1920.000 E0.70399
G1 X91.960 Y94.460 E1.27895
G1 X91.960 Y65.960 E2.70386
G1 X105.040 Y65.960 E3.35782
G1 X105.040 Y85.460 E4.33276
G1 X111.015 Y85.460 E4.63147
G1 X109.587 Y86.147 E4.71068
G1 X108.291 Y87.773 E4.81463
G1 X107.828 Y89.800 E4.91858
G1 X108.291 Y91.827 E5.02254
G1 X109.587 Y93.453 E5.12649
G1 X111.460 Y94.355 E5.23044
G1 X113.540 Y94.355 E5.33439
G1 X115.413 Y93.453 E5.43835
G1 X116.709 Y91.827 E5.54230
G1 X117.172 Y89.800 E5.64625
G1 X116.709 Y87.773 E5.75020
G1 X115.413 Y86.147 E5.85415
G1 X113.985 Y85.460 E5.93336
G1 X119.540 Y85.460 E6.21107
G1 X119.540 Y98.540 E6.86503
G1 X80.598 Y98.540 E8.81201
G1 F600.000 E8.31201
G92 E0
G1 X112.312 Y114.731 F7800.000
G1 F600.000 E0.50000
G1 X112.123 Y114.686 F1920.000 E0.50970
G1 F600.000 E0.00970
G92 E0
G1 X112.814 Y85.361 F7800.000
G1 F600.000 E0.50000
G1 X112.022 Y85.350 F1920.000 E0.53963
G1 F600.000 E0.03963
G92 E0
G1 X111.480 Y102.053 F7800.000
G1 F600.000 E0.50000
G1 X114.930 Y105.503 F1920.000 E0.74935
G1 X113.255 Y105.052 F7800.000
G1 X110.256 Y102.053 F1920.000 E0.96615
G1 X109.031 Y102.053 F7800.000
G1 X112.030 Y105.053 F1920.000 E1.18294
G1 X111.040 Y105.286 F7800.000
G1 X107.807 Y102.053 F1920.000 E1.41665
G1 X106.583 Y102.053 F7800.000
G1 X110.214 Y105.684 F1920.000 E1.67913
G1 X109.387 Y106.082 F7800.000
G1 X105.358 Y102.053 F1920.000 E1.97037
G1 X104.134 Y102.053 F7800.000
G1 X108.815 Y106.734 F1920.000 E2.30873
G1 X108.271 Y107.416 F7800.000
G1 X102.909 Y102.053 F1920.000 E2.69633
G1 X101.685 Y102.053 F7800.000
G1 X107.748 Y108.116 F1920.000 E3.13461
G1 X107.521 Y109.113 F7800.000
G1 X100.461 Y102.053 F1920.000 E3.64494
G1 X99.236 Y102.053 F7800.000
G1 X107.293 Y110.110 F1920.000 E4.22733
G1 X107.448 Y111.490 F7800.000
G1 X98.011 Y102.053 F1920.000 E4.90943
G1 X96.787 Y102.053 F7800.000
G1 X108.397 Y113.664 F1920.000 E5.74868
G1 X107.457 Y113.947 F7800.000
G1 X95.563 Y102.053 F1920.000 E6.60842
G1 X94.338 Y102.053 F7800.000
G1 X106.232 Y113.947 F1920.000 E7.46815
G1 X105.008 Y113.947 F7800.000
G1 X93.114 Y102.053 F1920.000 E8.32789
G1 X91.889 Y102.053 F7800.000
G1 X104.447 Y114.611 F1920.000 E9.23558
G1 X104.447 Y115.835 F7800.000
G1 X90.666 Y102.053 F1920.000 E10.23177
G1 X89.441 Y102.053 F7800.000
G1 X92.335 Y104.947 F1920.000 E10.44096
G1 X92.553 Y105.165 F7800.000
G1 X104.447 Y117.059 F1920.000 E11.30070
G1 X104.447 Y118.284 F7800.000
G1 X92.553 Y106.390 F1920.000 E12.16043
G1 X92.553 Y107.614 F7800.000
G1 X104.447 Y119.508 F1920.000 E13.02017
G1 X104.447 Y120.733 F7800.000
G1 X92.553 Y108.839 F1920.000 E13.87990
G1 X92.553 Y110.063 F7800.000
G1 X104.447 Y121.957 F1920.000 E14.73963
G1 X104.447 Y123.181 F7800.000
G1 X92.553 Y111.287 F1920.000 E15.59937
G1 X92.553 Y112.512 F7800.000
G1 X104.447 Y124.406 F1920.000 E16.45911
G1 X104.447 Y125.630 F7800.000
G1 X92.553 Y113.736 F1920.000 E17.31885
G1 X92.553 Y114.961 F7800.000
G1 X104.447 Y126.855 F1920.000 E18.17859
G1 X104.447 Y128.079 F7800.000
G1 X92.553 Y116.185 F1920.000 E19.03833
G1 X92.553 Y117.409 F7800.000
G1 X104.447 Y129.303 F1920.000 E19.89809
G1 X104.447 Y130.527 F7800.000
G1 X92.553 Y118.634 F1920.000 E20.75780
G1 X92.553 Y119.858 F7800.000
G1 X104.447 Y131.752 F1920.000 E21.61753
G1 X104.447 Y132.976 F7800.000
G1 X92.553 Y121.082 F1920.000 E22.47726
G1 X92.553 Y122.307 F7800.000
G1 X103.694 Y133.447 F1920.000 E23.28253
G1 X102.469 Y133.447 F7800.000
G1 X92.553 Y123.531 F1920.000 E23.99928
G1 X92.553 Y124.756 F7800.000
G1 X101.244 Y133.447 F1920.000 E24.62751
G1 X100.019 Y133.447 F7800.000
G1 X92.553 Y125.980 F1920.000 E25.16723
G1 X92.553 Y127.204 F7800.000
G1 X98.795 Y133.446 F1920.000 E25.61843
G1 X97.571 Y133.447 F7800.000
G1 X92.553 Y128.429 F1920.000 E25.98117
G1 X92.553 Y129.653 F7800.000
G1 X96.347 Y133.447 F1920.000 E26.25539
G1 X95.122 Y133.447 F7800.000
G1 X92.553 Y130.878 F1920.000 E26.44110
G1 X92.553 Y132.102 F7800.000
G1 X93.898 Y133.447 F1920.000 E26.53831
G1 F600.000 E26.03831
G92 E0
G1 X91.110 Y104.947 F7800.000
G1 F600.000 E0.50000
G1 X88.216 Y102.053 F1920.000 E0.70919
G1 X86.992 Y102.053 F7800.000
G1 X89.886 Y104.947 F1920.000 E0.91837
G1 X88.661 Y104.947 F7800.000
G1 X85.767 Y102.053 F1920.000 E1.12756
G1 X84.543 Y102.053 F7800.000
G1 X87.437 Y104.947 F1920.000 E1.33675
G1 X86.213 Y104.947 F7800.000
G1 X83.319 Y102.053 F1920.000 E1.54594
G1 X82.094 Y102.053 F7800.000
G1 X84.988 Y104.947 F1920.000 E1.75512
G1 X83.764 Y104.947 F7800.000
G1 X81.053 Y102.236 F1920.000 E1.95107
G1 X81.053 Y103.461 F7800.000
G1 X82.539 Y104.947 F1920.000 E2.05852
G1 F600.000 E1.55852
G92 E0
G1 X112.705 Y102.053 F7800.000
G1 F600.000 E0.50000
G1 X118.947 Y108.295 F1920.000 E0.95123
G1 X118.947 Y109.520 F7800.000
G1 X117.320 Y107.892 F1920.000 E1.06887
G1 X117.681 Y109.479 F7800.000
G1 X118.392 Y110.189 F1920.000 E1.12022
G1 X118.947 Y107.071 F7800.000
G1 X113.929 Y102.053 F1920.000 E1.48295
G1 X115.153 Y102.053 F7800.000
G1 X118.947 Y105.847 F1920.000 E1.75716
G1 X118.947 Y104.622 F7800.000
G1 X116.378 Y102.053 F1920.000 E1.94288
G1 X117.602 Y102.053 F7800.000
G1 X118.947 Y103.398 F1920.000 E2.04009
G1 X117.671 Y110.445 F7800.000
G1 X118.947 Y111.721 F1920.000 E2.15572
G1 X118.947 Y113.138 F7800.000
G1 X117.408 Y111.599 F1920.000 E2.29521
G1 X117.015 Y112.624 F7800.000
G1 X118.338 Y113.947 F1920.000 E2.41512
G1 F600.000 E1.91512
G92 E0
G1 X118.947 Y89.274 F7800.000
G1 F600.000 E0.50000
G1 X117.365 Y87.692 F1920.000 E0.66712
G1 X118.947 Y87.724 F7800.000
G1 X117.276 Y86.053 F1920.000 E0.84361
G1 X117.885 Y89.809 F7800.000
G1 X118.947 Y90.871 F1920.000 E0.91919
G1 X118.947 Y92.083 F7800.000
G1 X117.530 Y90.666 F1920.000 E1.02008
G1 X117.305 Y91.652 F7800.000
G1 X118.947 Y93.295 F1920.000 E1.13701
G1 X118.947 Y94.507 F7800.000
G1 X116.860 Y92.420 F1920.000 E1.28560
G1 X116.322 Y93.095 F7800.000
G1 X118.947 Y95.720 F1920.000 E1.47248
G1 X118.947 Y96.932 F7800.000
G1 X115.784 Y93.769 F1920.000 E1.69765
G1 X115.011 Y94.208 F7800.000
G1 X118.750 Y97.947 F1920.000 E1.96387
G1 X117.538 Y97.947 F7800.000
G1 X114.193 Y94.602 F1920.000 E2.20204
G1 X113.327 Y94.948 F7800.000
G1 X116.326 Y97.947 F1920.000 E2.41558
G1 X115.114 Y97.947 F7800.000
G1 X112.115 Y94.948 F1920.000 E2.62911
G1 X110.807 Y94.852 F7800.000
G1 X113.902 Y97.947 F1920.000 E2.84945
G1 X112.690 Y97.947 F7800.000
G1 X92.553 Y77.810 F1920.000 E4.28307
G1 X92.553 Y76.598 F7800.000
G1 X107.568 Y91.613 F1920.000 E5.35202
G1 X107.216 Y90.049 F7800.000
G1 X92.553 Y75.386 F1920.000 E6.39594
G1 X92.553 Y74.174 F7800.000
G1 X104.447 Y86.068 F1920.000 E7.24272
G1 X104.432 Y86.053 F7800.000
G1 X107.441 Y89.062 F1920.000 E7.45695
G1 X107.666 Y88.075 F7800.000
G1 X105.644 Y86.053 F1920.000 E7.60091
G1 X106.856 Y86.053 F7800.000
G1 X108.070 Y87.267 F1920.000 E7.68736
G1 X104.447 Y84.856 F7800.000
G1 X92.553 Y72.962 F1920.000 E8.53414
G1 X92.553 Y71.750 F7800.000
G1 X104.447 Y83.644 F1920.000 E9.38093
G1 X104.447 Y82.432 F7800.000
G1 X92.553 Y70.538 F1920.000 E10.22772
G1 X92.553 Y69.326 F7800.000
G1 X104.447 Y81.220 F1920.000 E11.07450
G1 X104.447 Y80.007 F7800.000
G1 X92.553 Y68.113 F1920.000 E11.92129
G1 X92.553 Y66.901 F7800.000
G1 X104.447 Y78.795 F1920.000 E12.76807
G1 X104.447 Y77.583 F7800.000
G1 X93.417 Y66.553 F1920.000 E13.55334
G1 X94.629 Y66.553 F7800.000
G1 X104.447 Y76.371 F1920.000 E14.25230
G1 X104.447 Y75.159 F7800.000
G1 X95.841 Y66.553 F1920.000 E14.86497
G1 X97.054 Y66.553 F7800.000
G1 X104.447 Y73.946 F1920.000 E15.39133
G1 X104.447 Y72.734 F7800.000
G1 X98.266 Y66.553 F1920.000 E15.83140
G1 X99.478 Y66.553 F7800.000
G1 X104.447 Y71.522 F1920.000 E16.18517
G1 X104.447 Y70.310 F7800.000
G1 X100.690 Y66.553 F1920.000 E16.45264
G1 X101.903 Y66.553 F7800.000
G1 X104.447 Y69.098 F1920.000 E16.63381
G1 X104.447 Y67.885 F7800.000
G1 X103.115 Y66.553 F1920.000 E16.72869
G1 F600.000 E16.22869
G92 E0
G1 X92.553 Y79.023 F7800.000
G1 F600.000 E0.50000
G1 X111.477 Y97.947 F1920.000 E1.84731
G1 X110.265 Y97.947 F7800.000
G1 X92.553 Y80.235 F1920.000 E3.10833
G1 X92.553 Y81.447 F7800.000
G1 X109.053 Y97.947 F1920.000 E4.28304
G1 X107.841 Y97.947 F7800.000
G1 X92.553 Y82.659 F1920.000 E5.37146
G1 X92.553 Y83.871 F7800.000
G1 X106.629 Y97.947 F1920.000 E6.37357
G1 X105.417 Y97.947 F7800.000
G1 X92.553 Y85.083 F1920.000 E7.28939
G1 X92.553 Y86.295 F7800.000
G1 X104.205 Y97.947 F1920.000 E8.11891
G1 X102.993 Y97.947 F7800.000
G1 X92.553 Y87.507 F1920.000 E8.86213
G1 X92.553 Y88.720 F7800.000
G1 X101.780 Y97.947 F1920.000 E9.51905
G1 X100.568 Y97.947 F7800.000
G1 X92.553 Y89.932 F1920.000 E10.08967
G1 X92.553 Y91.144 F7800.000
G1 X99.356 Y97.947 F1920.000 E10.57399
G1 X98.144 Y97.947 F7800.000
G1 X92.553 Y92.356 F1920.000 E10.97202
G1 X92.553 Y93.568 F7800.000
G1 X96.932 Y97.947 F1920.000 E11.28374
G1 X95.720 Y97.947 F7800.000
G1 X92.553 Y94.780 F1920.000 E11.50917
G1 X91.613 Y95.053 F7800.000
G1 X94.507 Y97.947 F1920.000 E11.71520
G1 X93.295 Y97.947 F7800.000
G1 X90.401 Y95.053 F1920.000 E11.92124
G1 X89.189 Y95.053 F7800.000
G1 X92.083 Y97.947 F1920.000 E12.12728
G1 X90.871 Y97.947 F7800.000
G1 X87.977 Y95.053 F1920.000 E12.33331
G1 X86.764 Y95.053 F7800.000
G1 X89.658 Y97.947 F1920.000 E12.53935
G1 X88.446 Y97.947 F7800.000
G1 X85.552 Y95.053 F1920.000 E12.74538
G1 X84.340 Y95.053 F7800.000
G1 X87.234 Y97.947 F1920.000 E12.95142
G1 X86.022 Y97.947 F7800.000
G1 X83.128 Y95.053 F1920.000 E13.15746
G1 X81.916 Y95.053 F7800.000
G1 X84.810 Y97.947 F1920.000 E13.36349
G1 X83.598 Y97.947 F7800.000
G1 X81.053 Y95.402 F1920.000 E13.54466
G1 X81.053 Y96.615 F7800.000
G1 X82.385 Y97.947 F1920.000 E13.63953
G1 F600.000 E13.13953
G92 E0
G1 Z0.800 F7800.000
G1 X80.460 Y101.460
G1 F600.000 E0.50000
G1 X119.540 Y101.460 F2400.000 E2.45388
G1 X119.540 Y114.540 E3.10784
G1 X113.985 Y114.540 E3.38555
G1 X115.413 Y113.853 E3.46476
G1 X116.709 Y112.227 E3.56871
G1 X117.172 Y110.200 E3.67266
G1 X116.709 Y108.173 E3.77661
G1 X115.413 Y106.547 E3.88056
G1 X113.540 Y105.645 E3.98452
G1 X111.460 Y105.645 E4.08847
G1 X109.587 Y106.547 E4.19242
G1 X108.291 Y108.173 E4.29638
G1 X107.828 Y110.200 E4.40033
G1 X108.291 Y112.227 E4.50428
G1 X109.587 Y113.853 E4.60823
G1 X111.015 Y114.540 E4.68744
G1 X105.040 Y114.540 E4.98615
G1 X105.040 Y134.040 E5.96109
G1 X91.960 Y134.040 E6.61505
G1 X91.960 Y105.540 E8.03996
G1 X80.460 Y105.540 E8.61492
G1 X80.460 Y101.598 E8.81201
G1 F600.000 E8.31201
G92 E0
G1 X80.460 Y98.540 F7800.000
G1 F600.000 E0.50000
G1 X80.460 Y94.460 F2400.000 E0.70399
G1 X91.960 Y94.460 E1.27895
G1 X91.960 Y65.960 E2.70386
G1 X105.040 Y65.960 E3.35782
G1 X105.040 Y85.460 E4.33276
G1 X111.015 Y85.460 E4.63147
G1 X109.587 Y86.147 E4.71068
G1 X108.291 Y87.773 E4.81463
G1 X107.828 Y89.800 E4.91858
G1 X108.291 Y91.827 E5.02254
G1 X109.587 Y93.453 E5.12649
G1 X111.460 Y94.355 E5.23044
G1 X113.540 Y94.355 E5.33439
G1 X115.413 Y93.453 E5.43835
G1 X116.709 Y91.827 E5.54230
G1 X117.172 Y89.800 E5.64625
G1 X116.709 Y87.773 E5.75020
G1 X115.413 Y86.147 E5.85415
G1 X113.985 Y85.460 E5.93336
G1 X119.540 Y85.460 E6.21107
G1 X119.540 Y98.540 E6.86503
G1 X80.598 Y98.540 E8.81201
G1 F600.000 E8.31201
G92 E0
G1 X112.312 Y114.731 F7800.000
G1 F600.000 E0.50000
G1 X112.123 Y114.686 F2400.000 E0.50970
G1 F600.000 E0.00970
G92 E0
G1 X112.814 Y85.361 F7800.000
G1 F600.000 E0.50000
G1 X112.022 Y85.350 F2400.000 E0.53963
G1 F600.000 E0.03963
G92 E0
G1 X111.477 Y102.053 F7800.000
G1 F600.000 E0.50000
G1 X92.553 Y120.977 F2400.000 E1.84731
G1 X92.553 Y122.189 F7800.000
G1 X112.689 Y102.053 F2400.000 E3.28090
G1 X113.901 Y102.053 F7800.000
G1 X110.806 Y105.148 F2400.000 E3.50125
G1 X112.114 Y105.052 F7800.000
G1 X115.113 Y102.053 F2400.000 E3.71475
G1 X116.326 Y102.054 F7800.000
G1 X113.327 Y105.053 F2400.000 E3.92825
G1 X114.193 Y105.398 F7800.000
G1 X117.539 Y102.053 F2400.000 E4.16642
G1 X118.751 Y102.053 F7800.000
G1 X115.011 Y105.793 F2400.000 E4.43268
G1 X115.784 Y106.231 F7800.000
G1 X118.947 Y103.068 F2400.000 E4.65786
G1 X118.947 Y104.280 F7800.000
G1 X116.322 Y106.906 F2400.000 E4.84478
G1 X116.860 Y107.580 F7800.000
G1 X118.947 Y105.493 F2400.000 E4.99334
G1 X118.947 Y106.705 F7800.000
G1 X117.305 Y108.347 F2400.000 E5.11023
G1 X117.530 Y109.334 F7800.000
G1 X118.947 Y107.917 F2400.000 E5.21112
G1 X118.947 Y109.130 F7800.000
