; generated by Slic3r 0.7.2b on 2012-05-12 at 00:35:03

; layer_height = 0.4
; perimeters = 1
; solid_layers = 3
; fill_density = 0.25
; nozzle_diameter = 0.75
; filament_diameter = 3
; extrusion_multiplier = 1
; perimeter_speed = 60
; infill_speed = 95
; travel_speed = 130
; extrusion_width_ratio = 2.3
; scale = 1
; single wall width = 0.92mm

M104 S230 ; set temperature
M92 E380
G92 X0 Y0 Z0  E0.0
G1 Z2.0 F150.0
G1 X-250.0 F2100.0
G1 X-249.0 F300.0
G1 X-251.0 F100.0
G92 X3.0
G1 Y-250.0 F2100.0
G1 Y-249.0 F300.0
G1 Y-251.0 F300.0
G92 Y10.0
G1 Y70.0 F2100.0
G1 Z-250.0 F150.0
G1 Z-249.0 F50.0
G1 Z-251.0 F50.0
G1 Y75.0 E2.0  F1000.0
G1 Y100.0 E2.3  F1000.0
G92 Z0.3
G92 E0.0
M106 S70
M107
M109 S230 ; wait for temperature to be reached
G90 ; use absolute coordinates
G21 ; set units to millimeters
G92 E0 ; reset extrusion distance
M82 ; use absolute distances for extrusion
G1 Z0.400 F7800.000
G1 X45.120 Y53.764
G1 F600.000 E0.50000
G1 X45.190 Y53.564 F2880.000 E0.51059
G1 X45.570 Y52.774 E0.55442
G1 X46.760 Y50.764 E0.67121
G1 X47.130 Y50.304 E0.70072
G1 X47.550 Y49.874 E0.73078
G1 X49.350 Y48.354 E0.84857
G1 X49.600 Y48.174 E0.86397
G1 X49.850 Y48.014 E0.87881
G1 X50.390 Y47.724 E0.90945
G1 X50.670 Y47.594 E0.92489
G1 X52.870 Y46.804 E1.04176
G1 X53.150 Y46.724 E1.05632
G1 X54.030 Y46.574 E1.10095
G1 X54.620 Y46.544 E1.13048
G1 X128.120 Y46.554 E4.80525
G1 X128.410 Y46.574 E4.81979
G1 X129.000 Y46.664 E4.84963
G1 X129.290 Y46.724 E4.86443
G1 X131.770 Y47.594 E4.99583
G1 X132.590 Y48.014 E5.04190
G1 X132.840 Y48.174 E5.05674
G1 X133.330 Y48.544 E5.08743
G1 X134.670 Y49.674 E5.17507
G1 X166.260 Y81.254 E7.40833
G1 X166.660 Y81.744 E7.43995
G1 X167.000 Y82.264 E7.47102
G1 X168.010 Y84.034 E7.57290
G1 X168.140 Y84.304 E7.58789
G1 X168.350 Y84.844 E7.61685
G1 X168.440 Y85.124 E7.63156
G1 X168.960 Y87.884 E7.77198
G1 X168.990 Y88.314 E7.79353
G1 X168.990 Y111.674 E8.96146
G1 X168.960 Y112.104 E8.98301
G1 X168.510 Y114.574 E9.10853
G1 X168.440 Y114.854 E9.12296
G1 X168.250 Y115.404 E9.15205
G1 X168.020 Y115.934 E9.18094
G1 X166.840 Y117.984 E9.29920
G1 X166.660 Y118.254 E9.31542
G1 X166.470 Y118.504 E9.33112
G1 X134.650 Y150.334 E11.58135
G1 X133.080 Y151.644 E11.68358
G1 X132.590 Y151.974 E11.71312
G1 X132.330 Y152.124 E11.72813
G1 X131.800 Y152.384 E11.75764
G1 X129.600 Y153.184 E11.87468
G1 X129.010 Y153.334 E11.90512
G1 X128.420 Y153.424 E11.93496
G1 X127.820 Y153.454 E11.96499
G1 X54.320 Y153.444 E15.63976
G1 X54.020 Y153.424 E15.65479
G1 X53.430 Y153.334 E15.68463
G1 X52.840 Y153.184 E15.71507
G1 X50.640 Y152.384 E15.83211
G1 X50.110 Y152.124 E15.86163
G1 X49.600 Y151.814 E15.89146
G1 X49.360 Y151.644 E15.90617
G1 X47.560 Y150.134 E16.02364
G1 X47.140 Y149.704 E16.05369
G1 X46.760 Y149.224 E16.08430
G1 X46.430 Y148.714 E16.11467
G1 X45.360 Y146.814 E16.22369
G1 X45.270 Y146.624 E16.23420
G1 X31.270 Y107.264 E18.32286
G1 X31.120 Y106.694 E18.35232
G1 X31.070 Y106.414 E18.36654
G1 X31.010 Y105.534 E18.41064
G1 X31.020 Y94.164 E18.97911
G1 X31.070 Y93.574 E19.00871
G1 X31.120 Y93.294 E19.02293
G1 X31.270 Y92.724 E19.05240
G1 X45.074 Y53.894 E21.11280
G1 F600.000 E20.61280
G92 E0
G1 X59.384 Y140.568 F7800.000
G1 F600.000 E0.50000
G1 X61.616 Y140.568 F2880.000 E0.61155
G1 X62.731 Y142.500 E0.72310
G1 X61.616 Y144.432 E0.83465
G1 X59.384 Y144.432 E0.94620
G1 X58.269 Y142.500 E1.05775
G1 X59.315 Y140.687 E1.16240
G1 F600.000 E0.66240
G92 E0
G1 X59.384 Y113.432 F7800.000
G1 F600.000 E0.50000
G1 X58.269 Y111.500 F2880.000 E0.61155
G1 X59.384 Y109.568 E0.72310
G1 X61.616 Y109.568 E0.83465
G1 X62.731 Y111.500 E0.94620
G1 X61.616 Y113.432 E1.05775
G1 X59.522 Y113.432 E1.16240
G1 F600.000 E0.66240
G92 E0
G1 X89.269 Y111.500 F7800.000
G1 F600.000 E0.50000
G1 X90.384 Y109.568 F2880.000 E0.61155
G1 X92.616 Y109.568 E0.72310
G1 X93.731 Y111.500 E0.83465
G1 X92.616 Y113.432 E0.94620
G1 X90.384 Y113.432 E1.05775
G1 X89.338 Y111.620 E1.16240
G1 F600.000 E0.66240
G92 E0
G1 X87.532 Y114.540 F7800.000
G1 F600.000 E0.50000
G1 X77.485 Y114.540 F2880.000 E1.00229
G1 X78.913 Y113.853 E1.08150
G1 X80.209 Y112.227 E1.18545
G1 X80.672 Y110.200 E1.28940
G1 X80.209 Y108.173 E1.39336
G1 X78.913 Y106.547 E1.49731
G1 X77.040 Y105.645 E1.60126
G1 X74.960 Y105.645 E1.70521
G1 X73.087 Y106.547 E1.80917
G1 X71.791 Y108.173 E1.91312
G1 X71.328 Y110.200 E2.01707
G1 X71.791 Y112.227 E2.12102
G1 X73.087 Y113.853 E2.22497
G1 X74.515 Y114.540 E2.30418
G1 X64.468 Y114.540 E2.80647
G1 X64.355 Y114.735 E2.81773
G1 X63.540 Y115.419 E2.87096
G1 X63.540 Y138.581 E4.02895
G1 X64.355 Y139.265 E4.08217
G1 X65.229 Y140.779 E4.16956
G1 X65.533 Y142.500 E4.25695
G1 X65.229 Y144.221 E4.34434
G1 X64.355 Y145.735 E4.43173
G1 X63.016 Y146.859 E4.51912
G1 X61.374 Y147.456 E4.60651
G1 X59.626 Y147.456 E4.69390
G1 X58.000 Y146.865 E4.78041
G1 X56.374 Y147.456 E4.86693
G1 X54.626 Y147.456 E4.95432
G1 X52.984 Y146.859 E5.04171
G1 X51.645 Y145.735 E5.12910
G1 X50.771 Y144.221 E5.21649
G1 X50.460 Y142.460 E5.30592
G1 X50.460 Y107.507 E7.05343
G1 X51.201 Y107.201 E7.09351
G1 X51.698 Y106.000 E7.15848
G1 X51.201 Y104.799 E7.22345
G1 X50.000 Y104.302 E7.28842
G1 X48.799 Y104.799 E7.35339
G1 X48.493 Y105.540 E7.39347
G1 X37.010 Y105.540 E7.96757
G1 X37.010 Y101.460 E8.17156
G1 X91.090 Y101.460 E10.87539
G1 X91.090 Y101.544 E10.87957
G1 X92.374 Y101.544 E10.94376
G1 X94.016 Y102.141 E11.03115
G1 X95.355 Y103.265 E11.11854
G1 X96.229 Y104.779 E11.20593
G1 X96.540 Y106.540 E11.29536
G1 X96.540 Y111.460 E11.54132
G1 X96.229 Y113.221 E11.63075
G1 X95.355 Y114.735 E11.71814
G1 X94.016 Y115.859 E11.80553
G1 X92.374 Y116.456 E11.89292
G1 X90.626 Y116.456 E11.98031
G1 X88.984 Y115.859 E12.06770
G1 X87.645 Y114.735 E12.15510
G1 X87.601 Y114.659 E12.15946
G1 F600.000 E11.65946
G92 E0
G1 X90.384 Y90.432 F7800.000
G1 F600.000 E0.50000
G1 X89.269 Y88.500 F2880.000 E0.61155
G1 X90.384 Y86.568 E0.72310
G1 X92.616 Y86.568 E0.83465
G1 X93.731 Y88.500 E0.94620
G1 X92.616 Y90.432 E1.05775
G1 X90.522 Y90.432 E1.16240
G1 F600.000 E0.66240
G92 E0
G1 X62.731 Y88.500 F7800.000
G1 F600.000 E0.50000
G1 X61.616 Y90.432 F2880.000 E0.61155
G1 X59.384 Y90.432 E0.72310
G1 X58.269 Y88.500 E0.83465
G1 X59.384 Y86.568 E0.94620
G1 X61.616 Y86.568 E1.05775
G1 X62.662 Y88.380 E1.16240
G1 F600.000 E0.66240
G92 E0
G1 X61.616 Y59.432 F7800.000
G1 F600.000 E0.50000
G1 X59.384 Y59.432 F2880.000 E0.61155
G1 X58.269 Y57.500 E0.72310
G1 X59.384 Y55.568 E0.83465
G1 X61.616 Y55.568 E0.94620
G1 X62.731 Y57.500 E1.05775
G1 X61.685 Y59.313 E1.16240
G1 X63.540 Y61.419 F7800.000
G1 X63.540 Y84.581 F2880.000 E2.32040
G1 X64.355 Y85.265 E2.37362
G1 X64.468 Y85.460 E2.38488
G1 X74.515 Y85.460 E2.88717
G1 X73.087 Y86.147 E2.96638
G1 X71.791 Y87.773 E3.07033
G1 X71.328 Y89.800 E3.17428
G1 X71.791 Y91.827 E3.27824
G1 X73.087 Y93.453 E3.38219
G1 X74.960 Y94.355 E3.48614
G1 X77.040 Y94.355 E3.59009
G1 X78.913 Y93.453 E3.69405
G1 X80.209 Y91.827 E3.79800
G1 X80.672 Y89.800 E3.90195
G1 X80.209 Y87.773 E4.00590
G1 X78.913 Y86.147 E4.10985
G1 X77.485 Y85.460 E4.18906
G1 X87.532 Y85.460 E4.69135
G1 X87.645 Y85.265 E4.70261
G1 X88.984 Y84.141 E4.79001
G1 X90.626 Y83.544 E4.87739
G1 X92.374 Y83.544 E4.96479
G1 X94.016 Y84.141 E5.05218
G1 X95.355 Y85.265 E5.13956
G1 X96.229 Y86.779 E5.22695
G1 X96.540 Y88.540 E5.31639
G1 X96.540 Y93.460 E5.56235
G1 X96.229 Y95.221 E5.65178
G1 X95.355 Y96.735 E5.73917
G1 X94.016 Y97.859 E5.82656
G1 X92.374 Y98.456 E5.91395
G1 X91.090 Y98.456 E5.97814
G1 X91.090 Y98.540 E5.98232
G1 X37.010 Y98.540 E8.68615
G1 X37.010 Y94.460 E8.89014
G1 X48.493 Y94.460 E9.46423
G1 X48.799 Y95.201 E9.50431
G1 X50.000 Y95.698 E9.56928
G1 X51.201 Y95.201 E9.63426
G1 X51.698 Y94.000 E9.69923
G1 X51.201 Y92.799 E9.76420
G1 X50.460 Y92.493 E9.80428
G1 X50.460 Y57.540 E11.55179
G1 X50.771 Y55.779 E11.64122
G1 X51.645 Y54.265 E11.72861
G1 X52.984 Y53.141 E11.81600
G1 X54.626 Y52.544 E11.90339
G1 X56.374 Y52.544 E11.99078
G1 X58.000 Y53.135 E12.07729
G1 X59.626 Y52.544 E12.16381
G1 X61.374 Y52.544 E12.25120
G1 X63.016 Y53.141 E12.33859
G1 X64.355 Y54.265 E12.42598
G1 X65.229 Y55.779 E12.51337
G1 X65.533 Y57.500 E12.60076
G1 X65.229 Y59.221 E12.68815
G1 X64.355 Y60.735 E12.77554
G1 X63.646 Y61.331 E12.82186
G1 F600.000 E12.32186
G92 E0
G1 X75.812 Y114.731 F7800.000
G1 F600.000 E0.50000
G1 X75.623 Y114.686 F2880.000 E0.50970
G1 F600.000 E0.00970
G92 E0
G1 X76.314 Y85.361 F7800.000
G1 F600.000 E0.50000
G1 X75.522 Y85.350 F2880.000 E0.53963
G1 F600.000 E0.03963
G92 E0
G1 X76.103 Y102.053 F7800.000
G1 F600.000 E0.50000
G1 X87.997 Y113.947 F4560.000 E1.35712
G1 X86.775 Y113.947 F7800.000
G1 X80.849 Y108.021 F4560.000 E1.78412
G1 X81.210 Y109.605 F7800.000
G1 X85.552 Y113.947 F4560.000 E2.09699
G1 X84.330 Y113.947 F7800.000
G1 X81.108 Y110.725 F4560.000 E2.32919
G1 X80.881 Y111.720 F7800.000
G1 X83.108 Y113.947 F4560.000 E2.48970
G1 X81.886 Y113.947 F7800.000
G1 X80.537 Y112.598 F4560.000 E2.58692
G1 X79.995 Y113.277 F7800.000
G1 X80.664 Y113.947 F4560.000 E2.63518
G1 X88.941 Y112.447 F7800.000
G1 X78.546 Y102.053 F4560.000 E3.38422
G1 X79.768 Y102.053 F7800.000
G1 X88.885 Y111.169 F4560.000 E4.04119
G1 X89.333 Y110.395 F7800.000
G1 X80.990 Y102.053 F4560.000 E4.64236
G1 X82.212 Y102.053 F7800.000
G1 X89.779 Y109.620 F4560.000 E5.18768
G1 X90.356 Y108.975 F7800.000
G1 X83.434 Y102.053 F4560.000 E5.68648
G1 X84.656 Y102.053 F7800.000
G1 X91.578 Y108.975 F4560.000 E6.18528
G1 X92.800 Y108.975 F7800.000
G1 X85.878 Y102.053 F4560.000 E6.68408
G1 X87.100 Y102.053 F7800.000
G1 X95.947 Y110.900 F4560.000 E7.32164
G1 X95.875 Y112.051 F7800.000
G1 X93.625 Y109.801 F4560.000 E7.48378
G1 X94.231 Y111.628 F7800.000
G1 X95.692 Y113.089 F4560.000 E7.58905
G1 X95.269 Y113.888 F7800.000
G1 X93.785 Y112.403 F4560.000 E7.69605
G1 X93.337 Y113.178 F7800.000
G1 X94.759 Y114.600 F4560.000 E7.79853
G1 X94.095 Y115.158 F7800.000
G1 X92.890 Y113.953 F4560.000 E7.88535
G1 X91.740 Y114.025 F7800.000
G1 X93.287 Y115.571 F4560.000 E7.99679
G1 X92.357 Y115.863 F7800.000
G1 X90.518 Y114.025 F4560.000 E8.12928
G1 X91.135 Y115.863 F7800.000
G1 X77.324 Y102.053 F4560.000 E9.12448
G1 X74.881 Y102.053 F7800.000
G1 X78.237 Y105.409 F4560.000 E9.36637
G1 X76.657 Y105.052 F7800.000
G1 X73.658 Y102.053 F4560.000 E9.58247
G1 X72.436 Y102.053 F7800.000
G1 X75.435 Y105.052 F4560.000 E9.79857
G1 X74.478 Y105.317 F7800.000
G1 X71.214 Y102.053 F4560.000 E10.03373
G1 X69.993 Y102.053 F7800.000
G1 X73.652 Y105.713 F4560.000 E10.29747
G1 X72.828 Y106.111 F7800.000
G1 X68.771 Y102.053 F4560.000 E10.58986
G1 X67.549 Y102.053 F7800.000
G1 X72.276 Y106.781 F4560.000 E10.93054
G1 X71.735 Y107.461 F7800.000
G1 X66.327 Y102.053 F4560.000 E11.32025
G1 X65.105 Y102.053 F7800.000
G1 X71.233 Y108.181 F4560.000 E11.76183
G1 X71.006 Y109.176 F7800.000
G1 X63.883 Y102.053 F4560.000 E12.27510
G1 X62.661 Y102.053 F7800.000
G1 X70.779 Y110.171 F4560.000 E12.86006
G1 X70.969 Y111.583 F7800.000
G1 X61.439 Y102.053 F4560.000 E13.54679
G1 X60.217 Y102.053 F7800.000
G1 X72.111 Y113.947 F4560.000 E14.40386
G1 X70.889 Y113.947 F7800.000
G1 X58.996 Y102.053 F4560.000 E15.26092
G1 X57.774 Y102.053 F7800.000
G1 X69.667 Y113.947 F4560.000 E16.11799
G1 X68.445 Y113.947 F7800.000
G1 X56.552 Y102.053 F4560.000 E16.97506
G1 X55.330 Y102.053 F7800.000
G1 X62.251 Y108.975 F4560.000 E17.47381
G1 X62.008 Y108.731 F7800.000
G1 X67.223 Y113.947 F4560.000 E17.84965
G1 X66.002 Y113.947 F7800.000
G1 X63.397 Y111.342 F4560.000 E18.03737
G1 X62.950 Y112.117 F7800.000
G1 X64.780 Y113.947 F4560.000 E18.16925
G1 X63.988 Y114.377 F7800.000
G1 X62.502 Y112.891 F4560.000 E18.27630
G1 X62.055 Y113.666 F7800.000
G1 X63.341 Y114.952 F4560.000 E18.36894
G1 X62.947 Y115.780 F7800.000
G1 X61.193 Y114.025 F4560.000 E18.49536
G1 X59.971 Y114.025 F7800.000
G1 X62.947 Y117.002 F4560.000 E18.70983
G1 X62.947 Y118.224 F7800.000
G1 X58.749 Y114.025 F4560.000 E19.01235
G1 X58.992 Y114.269 F7800.000
G1 X51.805 Y107.082 F4560.000 E19.53026
G1 X51.241 Y107.739 F7800.000
G1 X62.947 Y119.445 F4560.000 E20.37383
G1 X62.947 Y120.667 F7800.000
G1 X51.053 Y108.774 F4560.000 E21.23089
G1 X51.053 Y109.996 F7800.000
G1 X62.947 Y121.889 F4560.000 E22.08796
G1 X62.947 Y123.111 F7800.000
G1 X51.053 Y111.218 F4560.000 E22.94503
G1 X51.053 Y112.439 F7800.000
G1 X62.947 Y124.333 F4560.000 E23.80210
G1 X62.947 Y125.555 F7800.000
G1 X51.053 Y113.661 F4560.000 E24.65916
G1 X51.053 Y114.883 F7800.000
G1 X62.947 Y126.777 F4560.000 E25.51623
G1 X62.947 Y127.999 F7800.000
G1 X51.053 Y116.105 F4560.000 E26.37330
G1 X51.053 Y117.327 F7800.000
G1 X62.947 Y129.220 F4560.000 E27.23037
G1 X62.947 Y130.442 F7800.000
G1 X51.053 Y118.549 F4560.000 E28.08743
G1 X51.053 Y119.771 F7800.000
G1 X62.947 Y131.664 F4560.000 E28.94450
G1 X62.947 Y132.886 F7800.000
G1 X51.053 Y120.993 F4560.000 E29.80157
G1 X51.053 Y122.214 F7800.000
G1 X62.947 Y134.108 F4560.000 E30.65864
G1 X62.947 Y135.330 F7800.000
G1 X51.053 Y123.436 F4560.000 E31.51570
G1 X51.053 Y124.658 F7800.000
G1 X62.948 Y136.552 F4560.000 E32.37282
G1 X62.948 Y137.774 F7800.000
G1 X51.053 Y125.880 F4560.000 E33.22994
G1 X51.053 Y127.102 F7800.000
G1 X62.948 Y138.996 F4560.000 E34.08706
G1 X61.482 Y139.974 F7800.000
G1 X51.053 Y129.546 F4560.000 E34.83855
G1 X51.053 Y128.324 F7800.000
G1 X64.807 Y142.077 F4560.000 E35.82963
G1 X64.829 Y143.321 F7800.000
G1 X63.059 Y141.552 F4560.000 E35.95712
G1 X63.116 Y142.830 F7800.000
G1 X64.601 Y144.315 F4560.000 E36.06412
G1 X64.153 Y145.089 F7800.000
G1 X62.668 Y143.604 F4560.000 E36.17113
G1 X62.221 Y144.380 F7800.000
G1 X63.586 Y145.746 F4560.000 E36.26952
G1 X62.921 Y146.303 F7800.000
G1 X61.644 Y145.026 F4560.000 E36.36155
G1 X60.423 Y145.026 F7800.000
G1 X62.053 Y146.656 F4560.000 E36.47905
G1 X61.038 Y146.864 F7800.000
G1 X59.201 Y145.026 F4560.000 E36.61148
G1 X58.374 Y144.199 F7800.000
G1 X51.053 Y136.878 F4560.000 E37.13907
G1 X51.053 Y135.656 F7800.000
G1 X57.768 Y142.371 F4560.000 E37.62300
G1 X58.216 Y141.597 F7800.000
G1 X51.053 Y134.434 F4560.000 E38.13917
G1 X51.053 Y133.212 F7800.000
G1 X58.663 Y140.822 F4560.000 E38.68755
G1 X59.111 Y140.047 F7800.000
G1 X51.053 Y131.990 F4560.000 E39.26819
G1 X51.053 Y130.768 F7800.000
G1 X60.260 Y139.974 F4560.000 E39.93163
G1 X58.031 Y146.300 F7800.000
G1 X51.053 Y139.322 F4560.000 E40.43450
G1 X51.053 Y138.100 F7800.000
G1 X59.691 Y146.738 F4560.000 E41.05697
G1 X57.136 Y146.627 F7800.000
G1 X51.053 Y140.543 F4560.000 E41.49534
G1 X51.053 Y141.765 F7800.000
G1 X56.151 Y146.864 F4560.000 E41.86273
G1 X54.867 Y146.802 F7800.000
G1 X51.237 Y143.172 F4560.000 E42.12433
G1 F600.000 E41.62433
G92 E0
G1 X57.603 Y111.658 F7800.000
G1 F600.000 E0.50000
G1 X52.163 Y106.218 F4560.000 E0.89205
G1 X51.975 Y104.808 F7800.000
G1 X58.050 Y110.883 F4560.000 E1.32981
G1 X58.498 Y110.109 F7800.000
G1 X50.442 Y102.053 F4560.000 E1.91034
G1 X49.220 Y102.053 F7800.000
G1 X51.192 Y104.025 F4560.000 E2.05245
G1 X49.782 Y103.837 F7800.000
G1 X47.998 Y102.053 F4560.000 E2.18099
G1 X46.776 Y102.053 F7800.000
G1 X48.918 Y104.195 F4560.000 E2.33532
G1 X48.260 Y104.759 F7800.000
G1 X45.554 Y102.053 F4560.000 E2.53031
G1 X44.333 Y102.053 F7800.000
G1 X47.226 Y104.947 F4560.000 E2.73885
G1 X46.005 Y104.947 F7800.000
G1 X43.111 Y102.053 F4560.000 E2.94740
G1 X41.889 Y102.053 F7800.000
G1 X44.783 Y104.947 F4560.000 E3.15594
G1 X43.561 Y104.947 F7800.000
G1 X40.667 Y102.053 F4560.000 E3.36449
G1 X39.445 Y102.053 F7800.000
G1 X42.339 Y104.947 F4560.000 E3.57304
G1 X41.117 Y104.947 F7800.000
G1 X38.223 Y102.053 F4560.000 E3.78158
G1 X37.603 Y102.655 F7800.000
G1 X39.895 Y104.947 F4560.000 E3.94675
G1 X38.673 Y104.947 F7800.000
G1 X37.603 Y103.877 F4560.000 E4.02386
G1 F600.000 E3.52386
G92 E0
G1 X51.664 Y102.053 F7800.000
G1 F600.000 E0.50000
G1 X58.945 Y109.334 F4560.000 E1.02469
G1 X59.807 Y108.975 F7800.000
G1 X52.885 Y102.053 F4560.000 E1.52349
G1 X54.107 Y102.053 F7800.000
G1 X61.029 Y108.975 F4560.000 E2.02229
G1 F600.000 E1.52229
G92 E0
G1 X88.321 Y102.053 F7800.000
G1 F600.000 E0.50000
G1 X95.947 Y109.678 F4560.000 E1.04950
G1 X95.947 Y108.456 F7800.000
G1 X89.543 Y102.053 F4560.000 E1.51095
G1 X90.849 Y102.136 F7800.000
G1 X95.947 Y107.234 F4560.000 E1.87834
