; generated by Slic3r 0.7.3-dev on 2012-05-10 at 14:25:13

; layer_height = 0.4
; perimeters = 1
; solid_layers = 3
; fill_density = 0.25
; nozzle_diameter = 0.75
; filament_diameter = 3
; extrusion_multiplier = 1
; perimeter_speed = 55
; infill_speed = 85
; travel_speed = 130
; extrusion_width_ratio = 2.3
; scale = 1
; single wall width = 0.92mm

M104 S230 ; set temperature
M92 E380
G92 X0 Y0 Z0  E0.0
G1 Z2.0 F150.0
G1 X-250.0 F2100.0
G1 X-249.0 F300.0
G1 X-251.0 F100.0
G92 X3.0
G1 Y-250.0 F2100.0
G1 Y-249.0 F300.0
G1 Y-251.0 F300.0
G92 Y10.0
G1 Y70.0 F2100.0
G1 Z-250.0 F150.0
G1 Z-249.0 F50.0
G1 Z-251.0 F50.0
G1 Y75.0 E2.0  F1000.0
G1 Y100.0 E2.3  F1000.0
G92 Z0.3
G92 E0.0
M106 S70
M107
M109 S230 ; wait for temperature to be reached
G90 ; use absolute coordinates
G21 ; set units to millimeters
G92 E0 ; reset extrusion distance
M82 ; use absolute distances for extrusion
M107
G1 Z0.400 F7800.000
G1 X57.189 Y62.784
G1 F600.000 E0.50000
G1 X57.609 Y62.464 F2640.000 E0.52640
G1 X57.829 Y62.314 E0.53971
G1 X58.529 Y61.934 E0.57953
G1 X58.769 Y61.824 E0.59273
G1 X107.009 Y46.734 E3.11983
G1 X107.309 Y46.664 E3.13523
G1 X107.909 Y46.574 E3.16557
G1 X108.509 Y46.544 E3.19560
G1 X115.559 Y46.554 E3.54808
G1 X115.849 Y46.574 E3.56261
G1 X116.439 Y46.664 E3.59245
G1 X116.729 Y46.724 E3.60726
G1 X119.209 Y47.594 E3.73866
G1 X120.029 Y48.014 E3.78472
G1 X120.279 Y48.174 E3.79956
G1 X120.769 Y48.544 E3.83026
G1 X122.109 Y49.674 E3.91790
G1 X153.699 Y81.244 E6.15080
G1 X154.089 Y81.724 E6.18172
G1 X155.449 Y84.014 E6.31488
G1 X155.699 Y84.574 E6.34554
G1 X155.889 Y85.144 E6.37558
G1 X155.969 Y85.434 E6.39063
G1 X156.399 Y87.904 E6.51598
G1 X156.429 Y88.324 E6.53703
G1 X156.419 Y111.874 E7.71445
G1 X156.399 Y112.084 E7.72500
G1 X155.969 Y114.554 E7.85035
G1 X155.799 Y115.134 E7.88057
G1 X155.699 Y115.414 E7.89543
G1 X155.449 Y115.974 E7.92610
G1 X154.089 Y118.264 E8.05926
G1 X153.699 Y118.744 E8.09018
G1 X122.109 Y150.314 E10.32308
G1 X120.769 Y151.444 E10.41072
G1 X120.289 Y151.804 E10.44072
G1 X119.779 Y152.114 E10.47056
G1 X119.509 Y152.254 E10.48576
G1 X117.039 Y153.184 E10.61772
G1 X116.449 Y153.334 E10.64815
G1 X115.859 Y153.424 E10.67799
G1 X115.259 Y153.454 E10.70803
G1 X108.209 Y153.444 E11.06051
G1 X107.919 Y153.424 E11.07504
G1 X107.329 Y153.334 E11.10488
G1 X59.339 Y141.204 E13.57969
G1 X58.859 Y141.034 E13.60515
G1 X58.389 Y140.824 E13.63089
G1 X57.939 Y140.584 E13.65638
G1 X57.719 Y140.444 E13.66942
G1 X57.509 Y140.294 E13.68232
G1 X57.109 Y139.974 E13.70794
G1 X56.919 Y139.804 E13.72068
G1 X56.739 Y139.624 E13.73341
G1 X56.399 Y139.234 E13.75928
G1 X55.959 Y138.614 E13.79729
G1 X55.829 Y138.394 E13.81006
G1 X55.599 Y137.934 E13.83578
G1 X43.899 Y108.924 E15.39971
G1 X43.739 Y108.374 E15.42834
G1 X43.629 Y107.814 E15.45688
G1 X43.579 Y107.244 E15.48548
G1 X43.579 Y95.584 E16.06845
G1 X43.629 Y95.014 E16.09706
G1 X43.739 Y94.454 E16.12559
G1 X43.899 Y93.904 E16.15423
G1 X55.599 Y64.884 E17.71862
G1 X55.839 Y64.414 E17.74500
G1 X56.119 Y63.964 E17.77150
G1 X56.439 Y63.544 E17.79790
G1 X56.799 Y63.144 E17.82481
G1 X57.086 Y62.876 E17.84444
G1 F600.000 E17.34444
G92 E0
G1 X49.569 Y102.876 F7800.000
G1 F600.000 E0.50000
G1 X88.647 Y102.876 F2640.000 E2.45378
G1 X88.647 Y115.956 E3.10774
G1 X83.096 Y115.956 E3.38527
G1 X84.521 Y115.269 E3.46436
G1 X85.818 Y113.645 E3.56829
G1 X86.279 Y111.616 E3.67230
G1 X85.818 Y109.589 E3.77621
G1 X84.521 Y107.965 E3.88013
G1 X82.648 Y107.062 E3.98409
G1 X80.568 Y107.062 E4.08809
G1 X78.695 Y107.965 E4.19205
G1 X77.398 Y109.589 E4.29596
G1 X76.935 Y111.616 E4.39991
G1 X77.398 Y113.645 E4.50395
G1 X78.695 Y115.269 E4.60786
G1 X80.120 Y115.956 E4.68696
G1 X74.147 Y115.956 E4.98559
G1 X74.147 Y135.456 E5.96053
G1 X61.067 Y135.456 E6.61449
G1 X61.067 Y106.956 E8.03940
G1 X49.569 Y106.956 E8.61426
G1 X49.569 Y103.014 E8.81135
G1 F600.000 E8.31135
G92 E0
G1 X49.569 Y99.956 F7800.000
G1 F600.000 E0.50000
G1 X49.569 Y95.876 F2640.000 E0.70399
G1 X61.067 Y95.876 E1.27885
G1 X61.067 Y67.376 E2.70376
G1 X74.147 Y67.376 E3.35772
G1 X74.147 Y86.876 E4.33266
G1 X80.124 Y86.876 E4.63150
G1 X78.695 Y87.565 E4.71082
G1 X77.398 Y89.189 E4.81473
G1 X76.935 Y91.216 E4.91868
G1 X77.398 Y93.245 E5.02272
G1 X78.695 Y94.869 E5.12663
G1 X80.568 Y95.772 E5.23059
G1 X82.648 Y95.772 E5.33460
G1 X84.521 Y94.869 E5.43856
G1 X85.818 Y93.245 E5.54248
G1 X86.279 Y91.216 E5.64649
G1 X85.818 Y89.189 E5.75040
G1 X84.521 Y87.565 E5.85432
G1 X83.092 Y86.876 E5.93365
G1 X88.647 Y86.876 E6.21139
G1 X88.647 Y99.956 E6.86535
G1 X49.707 Y99.956 E8.81222
G1 F600.000 E8.31222
G92 E0
G1 X112.980 Y59.943 F7800.000
G1 F600.000 E0.50000
G1 X111.569 Y57.500 F2640.000 E0.64107
G1 X112.980 Y55.057 E0.78214
G1 X115.802 Y55.057 E0.92322
G1 X117.213 Y57.500 E1.06429
G1 X115.802 Y59.943 E1.20536
G1 X113.118 Y59.943 E1.33954
G1 F600.000 E0.83954
G92 E0
G1 X112.980 Y86.057 F7800.000
G1 F600.000 E0.50000
G1 X115.802 Y86.057 F2640.000 E0.64108
G1 X117.213 Y88.500 E0.78215
G1 X115.802 Y90.943 E0.92322
G1 X112.980 Y90.943 E1.06430
G1 X111.569 Y88.500 E1.20537
G1 X112.911 Y86.176 E1.33954
G1 F600.000 E0.83954
G92 E0
G1 X142.569 Y88.500 F7800.000
G1 F600.000 E0.50000
G1 X143.980 Y86.057 F2640.000 E0.64107
G1 X146.802 Y86.057 E0.78215
G1 X148.213 Y88.500 E0.92322
G1 X146.802 Y90.943 E1.06429
G1 X143.980 Y90.943 E1.20537
G1 X142.638 Y88.620 E1.33954
G1 F600.000 E0.83954
G92 E0
G1 X141.415 Y85.460 F7800.000
G1 F600.000 E0.50000
G1 X141.532 Y85.268 F2640.000 E0.51125
G1 X142.875 Y84.140 E0.59890
G1 X144.518 Y83.542 E0.68635
G1 X146.266 Y83.542 E0.77372
G1 X147.907 Y84.140 E0.86108
G1 X149.247 Y85.264 E0.94851
G1 X150.120 Y86.778 E1.03586
G1 X150.431 Y88.540 E1.12534
G1 X150.431 Y93.460 E1.37130
G1 X150.120 Y95.220 E1.46069
G1 X149.247 Y96.734 E1.54804
G1 X147.907 Y97.858 E1.63547
G1 X146.266 Y98.456 E1.72283
G1 X144.981 Y98.456 E1.78706
G1 X144.981 Y98.540 E1.79126
G1 X90.901 Y98.540 E4.49509
G1 X90.901 Y94.460 E4.69908
G1 X102.384 Y94.460 E5.27319
G1 X102.691 Y95.200 E5.31325
G1 X103.891 Y95.698 E5.37820
G1 X105.091 Y95.200 E5.44316
G1 X105.589 Y94.000 E5.50811
G1 X105.091 Y92.798 E5.57318
G1 X104.351 Y92.492 E5.61321
G1 X104.351 Y57.540 E7.36073
G1 X104.662 Y55.778 E7.45017
G1 X105.537 Y54.264 E7.53758
G1 X106.875 Y53.141 E7.62492
G1 X108.518 Y52.544 E7.71234
G1 X110.266 Y52.544 E7.79973
G1 X111.891 Y53.135 E7.88619
G1 X113.518 Y52.544 E7.97275
G1 X115.266 Y52.544 E8.06014
G1 X116.908 Y53.141 E8.14747
G1 X118.247 Y54.264 E8.23488
G1 X119.120 Y55.778 E8.32224
G1 X119.424 Y57.500 E8.40967
G1 X119.120 Y59.220 E8.49702
G1 X118.247 Y60.734 E8.58438
G1 X117.431 Y61.420 E8.63767
G1 X117.431 Y84.581 E9.79565
G1 X118.244 Y85.262 E9.84869
G1 X118.354 Y85.460 E9.86002
G1 X128.404 Y85.460 E10.36247
G1 X126.979 Y86.147 E10.44158
G1 X125.682 Y87.773 E10.54556
G1 X125.219 Y89.800 E10.64950
G1 X125.682 Y91.827 E10.75344
G1 X126.979 Y93.453 E10.85744
G1 X128.852 Y94.354 E10.96137
G1 X130.930 Y94.354 E11.06524
G1 X132.805 Y93.453 E11.16927
G1 X134.100 Y91.827 E11.27321
G1 X134.563 Y89.800 E11.37714
G1 X134.100 Y87.773 E11.48107
G1 X132.805 Y86.147 E11.58500
G1 X131.378 Y85.460 E11.66418
G1 X141.277 Y85.460 E12.15907
G1 F600.000 E11.65907
G92 E0
G1 X143.980 Y109.057 F7800.000
G1 F600.000 E0.50000
G1 X146.802 Y109.057 F2640.000 E0.64108
G1 X148.213 Y111.500 E0.78215
G1 X146.802 Y113.943 E0.92322
G1 X143.980 Y113.943 E1.06430
G1 X142.569 Y111.500 E1.20537
G1 X143.911 Y109.176 E1.33954
G1 F600.000 E0.83954
G92 E0
G1 X117.213 Y111.500 F7800.000
G1 F600.000 E0.50000
G1 X115.802 Y113.943 F2640.000 E0.64107
G1 X112.980 Y113.943 E0.78215
G1 X111.569 Y111.500 E0.92322
G1 X112.980 Y109.057 E1.06429
G1 X115.802 Y109.057 E1.20537
G1 X117.144 Y111.380 E1.33954
G1 F600.000 E0.83954
G92 E0
G1 X115.802 Y140.057 F7800.000
G1 F600.000 E0.50000
G1 X117.213 Y142.500 F2640.000 E0.64107
G1 X115.802 Y144.943 E0.78214
G1 X112.980 Y144.943 E0.92322
G1 X111.569 Y142.500 E1.06429
G1 X112.980 Y140.057 E1.20536
G1 X115.664 Y140.057 E1.33954
G1 X117.431 Y138.581 F7800.000
G1 X118.247 Y139.264 F2640.000 E1.39277
G1 X119.120 Y140.778 E1.48011
G1 X119.424 Y142.500 E1.56755
G1 X119.120 Y144.220 E1.65490
G1 X118.247 Y145.734 E1.74225
G1 X116.907 Y146.858 E1.82968
G1 X115.266 Y147.456 E1.91704
G1 X113.518 Y147.456 E2.00442
G1 X111.891 Y146.865 E2.09098
G1 X110.266 Y147.456 E2.17744
G1 X108.518 Y147.456 E2.26482
G1 X106.875 Y146.858 E2.35227
G1 X105.537 Y145.734 E2.43962
G1 X104.662 Y144.220 E2.52704
G1 X104.351 Y142.461 E2.61636
G1 X104.351 Y107.507 E4.36393
G1 X105.091 Y107.200 E4.40399
G1 X105.589 Y106.000 E4.46893
G1 X105.091 Y104.798 E4.53401
G1 X103.891 Y104.302 E4.59891
G1 X102.691 Y104.798 E4.66382
G1 X102.384 Y105.540 E4.70399
G1 X90.901 Y105.540 E5.27809
G1 X90.901 Y101.460 E5.48207
G1 X144.981 Y101.460 E8.18590
G1 X144.981 Y101.542 E8.19000
G1 X146.266 Y101.542 E8.25424
G1 X147.907 Y102.140 E8.34160
G1 X149.247 Y103.264 E8.42902
G1 X150.120 Y104.778 E8.51638
G1 X150.431 Y106.540 E8.60586
G1 X150.431 Y111.460 E8.85182
G1 X150.120 Y113.220 E8.94120
G1 X149.247 Y114.734 E9.02856
G1 X147.907 Y115.858 E9.11598
G1 X146.266 Y116.456 E9.20334
G1 X144.518 Y116.456 E9.29072
G1 X142.875 Y115.858 E9.37817
G1 X141.528 Y114.726 E9.46612
G1 X141.407 Y114.540 E9.47720
G1 X131.375 Y114.540 E9.97877
G1 X132.805 Y113.853 E10.05809
G1 X134.100 Y112.227 E10.16203
G1 X134.563 Y110.200 E10.26596
G1 X134.100 Y108.173 E10.36989
G1 X132.805 Y106.547 E10.47382
G1 X130.930 Y105.644 E10.57789
G1 X128.852 Y105.644 E10.68179
G1 X126.979 Y106.547 E10.78576
G1 X125.682 Y108.173 E10.88975
G1 X125.219 Y110.200 E10.99368
G1 X125.682 Y112.227 E11.09762
G1 X126.979 Y113.853 E11.20162
G1 X128.407 Y114.540 E11.28086
G1 X118.362 Y114.540 E11.78310
G1 X118.249 Y114.733 E11.79427
G1 X117.431 Y115.420 E11.84767
G1 X117.431 Y138.443 E12.99875
G1 F600.000 E12.49875
G92 E0
G1 X81.419 Y116.148 F7800.000
G1 F600.000 E0.50000
G1 X81.228 Y116.102 F2640.000 E0.50981
G1 F600.000 E0.00981
G92 E0
G1 X129.704 Y114.731 F7800.000
G1 F600.000 E0.50000
G1 X129.516 Y114.686 F2640.000 E0.50963
G1 F600.000 E0.00963
G92 E0
G1 X81.920 Y86.777 F7800.000
G1 F600.000 E0.50000
G1 X81.130 Y86.767 F2640.000 E0.53950
G1 F600.000 E0.03950
G92 E0
G1 X130.208 Y85.361 F7800.000
G1 F600.000 E0.50000
G1 X129.411 Y85.349 F2640.000 E0.53982
G1 F600.000 E0.03982
G92 E0
G1 X88.054 Y104.813 F7800.000
G1 F600.000 E0.50000
G1 X86.710 Y103.469 F4080.000 E0.59716
G1 X85.485 Y103.469 F7800.000
G1 X88.054 Y106.038 F4080.000 E0.78285
G1 X88.054 Y107.263 F7800.000
G1 X84.260 Y103.469 F4080.000 E1.05707
G1 X83.036 Y103.469 F7800.000
G1 X88.054 Y108.487 F4080.000 E1.41981
G1 X88.055 Y109.711 F7800.000
G1 X81.812 Y103.468 F4080.000 E1.87108
G1 X80.588 Y103.469 F7800.000
G1 X84.038 Y106.919 F4080.000 E2.12045
G1 X82.362 Y106.469 F7800.000
G1 X79.363 Y103.469 F4080.000 E2.33727
G1 X78.138 Y103.469 F7800.000
G1 X81.138 Y106.469 F4080.000 E2.55414
G1 X80.148 Y106.703 F7800.000
G1 X76.913 Y103.469 F4080.000 E2.78793
G1 X75.689 Y103.468 F7800.000
G1 X79.322 Y107.101 F4080.000 E3.05049
G1 X78.496 Y107.500 F7800.000
G1 X74.465 Y103.469 F4080.000 E3.34183
G1 X73.241 Y103.469 F7800.000
G1 X77.923 Y108.151 F4080.000 E3.68024
G1 X77.379 Y108.832 F7800.000
G1 X72.016 Y103.469 F4080.000 E4.06787
G1 X70.791 Y103.469 F7800.000
G1 X76.855 Y109.533 F4080.000 E4.50616
G1 X76.628 Y110.529 F7800.000
G1 X69.568 Y103.469 F4080.000 E5.01646
G1 X68.343 Y103.469 F7800.000
G1 X76.400 Y111.526 F4080.000 E5.59883
G1 X76.555 Y112.905 F7800.000
G1 X67.119 Y103.469 F4080.000 E6.28092
G1 X65.894 Y103.469 F7800.000
G1 X77.502 Y115.077 F4080.000 E7.11998
G1 X76.563 Y115.363 F7800.000
G1 X64.669 Y103.469 F4080.000 E7.97973
G1 X63.446 Y103.469 F7800.000
G1 X75.339 Y115.363 F4080.000 E8.83943
G1 X74.115 Y115.363 F7800.000
G1 X62.221 Y103.469 F4080.000 E9.69914
G1 X60.997 Y103.469 F7800.000
G1 X73.554 Y116.027 F4080.000 E10.60684
G1 X73.554 Y117.251 F7800.000
G1 X59.772 Y103.469 F4080.000 E11.60306
G1 X58.548 Y103.468 F7800.000
G1 X61.442 Y106.363 F4080.000 E11.81226
G1 X61.660 Y106.581 F7800.000
G1 X73.554 Y118.475 F4080.000 E12.67196
G1 X73.554 Y119.699 F7800.000
G1 X61.660 Y107.806 F4080.000 E13.53167
G1 X61.660 Y109.030 F7800.000
G1 X73.554 Y120.924 F4080.000 E14.39142
G1 X73.554 Y122.149 F7800.000
G1 X61.660 Y110.254 F4080.000 E15.25118
G1 X61.660 Y111.479 F7800.000
G1 X73.554 Y123.373 F4080.000 E16.11093
G1 X73.554 Y124.597 F7800.000
G1 X61.660 Y112.703 F4080.000 E16.97064
G1 X61.660 Y113.927 F7800.000
G1 X73.554 Y125.821 F4080.000 E17.83039
G1 X73.554 Y127.046 F7800.000
G1 X61.660 Y115.152 F4080.000 E18.69015
G1 X61.660 Y116.377 F7800.000
G1 X73.554 Y128.271 F4080.000 E19.54990
G1 X73.553 Y129.495 F7800.000
G1 X61.660 Y117.601 F4080.000 E20.40961
G1 X61.660 Y118.825 F7800.000
G1 X73.554 Y130.719 F4080.000 E21.26931
G1 X73.554 Y131.944 F7800.000
G1 X61.660 Y120.049 F4080.000 E22.12906
G1 X61.660 Y121.274 F7800.000
G1 X73.554 Y133.168 F4080.000 E22.98882
G1 X73.554 Y134.393 F7800.000
G1 X61.660 Y122.499 F4080.000 E23.84857
G1 X61.660 Y123.723 F7800.000
G1 X72.800 Y134.863 F4080.000 E24.65379
G1 X71.576 Y134.863 F7800.000
G1 X61.660 Y124.947 F4080.000 E25.37049
G1 X61.660 Y126.171 F7800.000
G1 X70.352 Y134.863 F4080.000 E25.99875
G1 X69.127 Y134.863 F7800.000
G1 X61.660 Y127.396 F4080.000 E26.53850
G1 X61.660 Y128.621 F7800.000
G1 X67.902 Y134.863 F4080.000 E26.98971
G1 X66.678 Y134.863 F7800.000
G1 X61.660 Y129.845 F4080.000 E27.35240
G1 X61.660 Y131.069 F7800.000
G1 X65.454 Y134.863 F4080.000 E27.62667
G1 X64.229 Y134.863 F7800.000
G1 X61.660 Y132.294 F4080.000 E27.81241
G1 X61.660 Y133.518 F7800.000
G1 X63.005 Y134.863 F4080.000 E27.90963
G1 F600.000 E27.40963
G92 E0
G1 X60.217 Y106.363 F7800.000
G1 F600.000 E0.50000
G1 X57.324 Y103.469 F4080.000 E0.70915
G1 X56.099 Y103.469 F7800.000
G1 X58.993 Y106.363 F4080.000 E0.91835
G1 X57.769 Y106.363 F7800.000
G1 X54.874 Y103.469 F4080.000 E1.12755
G1 X53.650 Y103.469 F7800.000
G1 X56.544 Y106.363 F4080.000 E1.33674
G1 X55.320 Y106.363 F7800.000
G1 X52.426 Y103.469 F4080.000 E1.54592
G1 X51.201 Y103.469 F7800.000
G1 X54.095 Y106.363 F4080.000 E1.75508
G1 X52.871 Y106.363 F7800.000
G1 X50.162 Y103.654 F4080.000 E1.95091
G1 X50.162 Y104.879 F7800.000
G1 X51.646 Y106.363 F4080.000 E2.05822
G1 F600.000 E1.55822
G92 E0
G1 X86.429 Y109.310 F7800.000
G1 F600.000 E0.50000
G1 X88.054 Y110.935 F4080.000 E0.61746
G1 X87.502 Y111.609 F7800.000
G1 X86.789 Y110.895 F4080.000 E0.66903
G1 X86.778 Y111.862 F7800.000
G1 X88.054 Y113.137 F4080.000 E0.78445
G1 X88.054 Y114.554 F7800.000
G1 X86.516 Y113.016 F4080.000 E0.92361
G1 X86.125 Y114.041 F7800.000
G1 X87.447 Y115.363 F4080.000 E1.04319
G1 F600.000 E0.54319
G92 E0
G1 X92.832 Y97.947 F7800.000
G1 F600.000 E0.50000
G1 X91.494 Y96.609 F4080.000 E0.59585
G1 X91.494 Y95.393 F7800.000
G1 X94.049 Y97.947 F4080.000 E0.77888
G1 X95.266 Y97.947 F7800.000
G1 X92.372 Y95.053 F4080.000 E0.98623
G1 X93.590 Y95.053 F7800.000
G1 X96.483 Y97.947 F4080.000 E1.19353
G1 X97.700 Y97.947 F7800.000
G1 X94.806 Y95.053 F4080.000 E1.40088
G1 X96.024 Y95.053 F7800.000
G1 X98.918 Y97.947 F4080.000 E1.60823
G1 X100.135 Y97.947 F7800.000
G1 X97.241 Y95.053 F4080.000 E1.81553
G1 X98.458 Y95.053 F7800.000
G1 X101.352 Y97.947 F4080.000 E2.02288
G1 X102.569 Y97.947 F7800.000
G1 X99.675 Y95.053 F4080.000 E2.23023
G1 X100.893 Y95.053 F7800.000
G1 X103.786 Y97.947 F4080.000 E2.43753
G1 X105.004 Y97.947 F7800.000
G1 X103.268 Y96.211 F4080.000 E2.56190
G1 X104.341 Y96.067 F7800.000
G1 X106.221 Y97.947 F4080.000 E2.69660
G1 X107.438 Y97.947 F7800.000
G1 X105.201 Y95.710 F4080.000 E2.85684
G1 X105.724 Y95.015 F7800.000
G1 X108.655 Y97.947 F4080.000 E3.06687
G1 X109.872 Y97.947 F7800.000
G1 X106.080 Y94.155 F4080.000 E3.33856
G1 X105.807 Y92.664 F7800.000
G1 X111.090 Y97.947 F4080.000 E3.71709
G1 X112.307 Y97.947 F7800.000
G1 X104.944 Y90.583 F4080.000 E4.24461
G1 X104.944 Y89.367 F7800.000
G1 X113.524 Y97.947 F4080.000 E4.85931
G1 X114.742 Y97.947 F7800.000
G1 X104.944 Y88.150 F4080.000 E5.56125
G1 X104.944 Y86.932 F7800.000
G1 X115.958 Y97.947 F4080.000 E6.35038
G1 X117.175 Y97.947 F7800.000
G1 X104.944 Y85.716 F4080.000 E7.22669
