; generated by Slic3r 0.7.3-dev on 2012-05-04 at 03:52:22

; layer_height = 0.4
; perimeters = 1
; solid_layers = 3
; fill_density = 0.2
; nozzle_diameter = 0.75
; filament_diameter = 3
; extrusion_multiplier = 1
; perimeter_speed = 50
; infill_speed = 80
; travel_speed = 130
; extrusion_width_ratio = 2.3
; scale = 1
; single wall width = 0.92mm

M104 S220 ; set temperature
M92 E380
G92 X0 Y0 Z0  E0.0
G1 Z2.0 F150.0
G1 X-250.0 F2100.0
G1 X-249.0 F300.0
G1 X-251.0 F100.0
G92 X3.0
G1 Y-250.0 F2100.0
G1 Y-249.0 F300.0
G1 Y-251.0 F300.0
G92 Y10.0
G1 Y70.0 F2100.0
G1 Z-250.0 F150.0
G1 Z-249.0 F50.0
G1 Z-251.0 F50.0
G1 Y75.0 E2.0  F1000.0
G1 Y100.0 E2.3  F1000.0
G92 Z0.3
G92 E0.0
M106 S70
M107
M109 S220 ; wait for temperature to be reached
G90 ; use absolute coordinates
G21 ; set units to millimeters
G92 E0 ; reset extrusion distance
M82 ; use absolute distances for extrusion
G1 Z0.400 F7800.000
G1 X58.538 Y55.640
G1 F600.000 E0.50000
G1 X58.628 Y55.400 F2400.000 E0.51282
G1 X58.978 Y54.700 E0.55194
G1 X59.258 Y54.260 E0.57802
G1 X59.578 Y53.840 E0.60442
G1 X59.748 Y53.650 E0.61716
G1 X60.118 Y53.280 E0.64333
G1 X60.528 Y52.940 E0.66996
G1 X60.948 Y52.650 E0.69547
G1 X61.408 Y52.380 E0.72214
G1 X61.878 Y52.160 E0.74809
G1 X62.618 Y51.910 E0.78714
G1 X63.128 Y51.800 E0.81322
G1 X63.648 Y51.730 E0.83946
G1 X64.168 Y51.710 E0.86547
G1 X72.548 Y51.720 E1.28445
G1 X72.858 Y51.740 E1.29998
G1 X73.458 Y51.830 E1.33031
G1 X74.038 Y51.980 E1.36027
G1 X148.448 Y83.830 E5.40701
G1 X149.068 Y84.140 E5.44167
G1 X150.848 Y85.170 E5.54449
G1 X151.338 Y85.520 E5.57459
G1 X151.578 Y85.720 E5.59021
G1 X152.008 Y86.140 E5.62026
G1 X153.518 Y87.940 E5.73773
G1 X153.848 Y88.430 E5.76727
G1 X153.998 Y88.690 E5.78227
G1 X154.258 Y89.220 E5.81179
G1 X155.058 Y91.420 E5.92883
G1 X155.208 Y92.010 E5.95927
G1 X155.298 Y92.600 E5.98911
G1 X155.318 Y95.250 E6.12160
G1 X155.298 Y95.550 E6.13663
G1 X155.208 Y96.140 E6.16647
G1 X155.058 Y96.730 E6.19691
G1 X154.258 Y98.930 E6.31395
G1 X153.998 Y99.460 E6.34346
G1 X153.688 Y99.970 E6.37330
G1 X153.518 Y100.210 E6.38801
G1 X151.848 Y102.170 E6.51675
G1 X120.628 Y133.390 E8.72420
G1 X120.138 Y133.780 E8.75551
G1 X119.878 Y133.960 E8.77132
G1 X117.838 Y135.140 E8.88915
G1 X117.578 Y135.270 E8.90368
G1 X117.318 Y135.380 E8.91779
G1 X73.598 Y148.140 E11.19485
G1 X72.928 Y148.250 E11.22880
G1 X72.588 Y148.280 E11.24586
G1 X72.248 Y148.290 E11.26287
G1 X63.648 Y148.270 E11.69284
G1 X63.128 Y148.200 E11.71908
G1 X62.618 Y148.090 E11.74516
G1 X61.878 Y147.840 E11.78421
G1 X61.408 Y147.620 E11.81016
G1 X60.948 Y147.350 E11.83683
G1 X60.528 Y147.060 E11.86234
G1 X60.118 Y146.720 E11.88898
G1 X59.748 Y146.350 E11.91514
G1 X59.578 Y146.160 E11.92788
G1 X59.258 Y145.740 E11.95428
G1 X58.978 Y145.300 E11.98036
G1 X58.628 Y144.600 E12.01949
G1 X44.938 Y107.320 E14.00507
G1 X44.788 Y106.740 E14.03502
G1 X44.698 Y106.140 E14.06536
G1 X44.678 Y94.160 E14.66432
G1 X44.698 Y93.860 E14.67935
G1 X44.788 Y93.260 E14.70969
G1 X44.938 Y92.680 E14.73964
G1 X58.491 Y55.770 E16.70551
G1 F600.000 E16.20551
G92 E0
G1 X50.668 Y101.460 F7800.000
G1 F600.000 E0.50000
G1 X99.748 Y101.460 F2400.000 E2.95385
G1 X99.748 Y114.540 E3.60781
G1 X86.194 Y114.540 E4.28549
G1 X87.621 Y113.853 E4.36470
G1 X88.918 Y112.227 E4.46866
G1 X89.380 Y110.200 E4.57261
G1 X88.918 Y108.173 E4.67656
G1 X87.621 Y106.547 E4.78051
G1 X85.748 Y105.645 E4.88446
G1 X83.669 Y105.645 E4.98841
G1 X81.796 Y106.547 E5.09237
G1 X80.499 Y108.173 E5.19632
G1 X80.037 Y110.200 E5.30027
G1 X80.499 Y112.227 E5.40422
G1 X81.796 Y113.853 E5.50817
G1 X83.223 Y114.540 E5.58738
G1 X72.248 Y114.540 E6.13608
G1 X72.248 Y142.290 E7.52349
G1 X64.168 Y142.290 E7.92747
G1 X64.168 Y105.540 E9.76485
G1 X50.668 Y105.540 E10.43981
G1 X50.668 Y101.598 E10.63690
G1 F600.000 E10.13690
G92 E0
G1 X50.668 Y98.540 F7800.000
G1 F600.000 E0.50000
G1 X50.668 Y94.460 F2400.000 E0.70399
G1 X64.168 Y94.460 E1.37895
G1 X64.168 Y57.710 E3.21633
G1 X72.248 Y57.710 E3.62030
G1 X72.248 Y85.460 E5.00772
G1 X83.223 Y85.460 E5.55641
G1 X81.796 Y86.147 E5.63562
G1 X80.499 Y87.773 E5.73958
G1 X80.037 Y89.800 E5.84353
G1 X80.499 Y91.827 E5.94748
G1 X81.796 Y93.453 E6.05143
G1 X83.669 Y94.355 E6.15538
G1 X85.748 Y94.355 E6.25933
G1 X87.621 Y93.453 E6.36329
G1 X88.918 Y91.827 E6.46724
G1 X89.380 Y89.800 E6.57119
G1 X88.918 Y87.773 E6.67514
G1 X87.621 Y86.147 E6.77909
G1 X86.194 Y85.460 E6.85830
G1 X99.748 Y85.460 E7.53599
G1 X99.748 Y98.540 E8.18995
G1 X50.806 Y98.540 E10.63690
G1 F600.000 E10.13690
G92 E0
G1 X141.931 Y95.494 F7800.000
G1 F600.000 E0.50000
G1 X141.931 Y92.672 F2400.000 E0.64108
G1 X144.375 Y91.262 E0.78216
G1 X146.819 Y92.672 E0.92324
G1 X146.819 Y95.494 E1.06432
G1 X144.375 Y96.905 E1.20540
G1 X142.051 Y95.563 E1.33957
G1 F600.000 E0.83957
G92 E0
G1 X115.819 Y95.494 F7800.000
G1 F600.000 E0.50000
G1 X113.375 Y96.905 F2400.000 E0.64108
G1 X110.931 Y95.494 E0.78216
G1 X110.931 Y92.672 E0.92324
G1 X113.375 Y91.262 E1.06432
G1 X115.819 Y92.672 E1.20540
G1 X115.819 Y95.356 E1.33958
G1 F600.000 E0.83958
G92 E0
G1 X113.375 Y122.262 F7800.000
G1 F600.000 E0.50000
G1 X115.819 Y123.672 F2400.000 E0.64108
G1 X115.819 Y126.494 E0.78216
G1 X113.375 Y127.905 E0.92324
G1 X110.931 Y126.494 E1.06432
G1 X110.931 Y123.672 E1.20540
G1 X113.256 Y122.331 E1.33958
G1 F600.000 E0.83958
G92 E0
G1 X116.415 Y121.115 F7800.000
G1 F600.000 E0.50000
G1 X116.610 Y121.228 F2400.000 E0.51126
G1 X117.734 Y122.567 E0.59865
G1 X118.332 Y124.209 E0.68604
G1 X118.332 Y125.957 E0.77343
G1 X117.734 Y127.600 E0.86082
G1 X116.610 Y128.939 E0.94821
G1 X115.096 Y129.813 E1.03560
G1 X113.335 Y130.123 E1.12503
G1 X108.415 Y130.123 E1.37099
G1 X106.654 Y129.813 E1.46043
G1 X105.140 Y128.939 E1.54782
G1 X104.017 Y127.600 E1.63521
G1 X103.419 Y125.957 E1.72259
G1 X103.419 Y124.623 E1.78929
G1 X103.335 Y124.623 E1.79347
G1 X103.335 Y75.543 E4.24731
G1 X107.415 Y75.543 E4.45130
G1 X107.415 Y89.043 E5.12626
G1 X144.335 Y89.043 E6.97213
G1 X146.096 Y89.354 E7.06156
G1 X147.610 Y90.228 E7.14895
G1 X148.734 Y91.567 E7.23634
G1 X149.332 Y93.209 E7.32373
G1 X149.332 Y94.957 E7.41112
G1 X148.734 Y96.600 E7.49851
G1 X147.610 Y97.939 E7.58590
G1 X146.096 Y98.813 E7.67329
G1 X144.375 Y99.116 E7.76068
G1 X142.654 Y98.813 E7.84807
G1 X141.140 Y97.939 E7.93546
G1 X140.456 Y97.123 E7.98868
G1 X117.294 Y97.123 E9.14668
G1 X116.610 Y97.939 E9.19990
G1 X116.415 Y98.052 E9.21116
G1 X116.415 Y108.098 E9.71345
G1 X115.728 Y106.670 E9.79266
G1 X114.102 Y105.374 E9.89661
G1 X112.075 Y104.912 E10.00057
G1 X110.048 Y105.374 E10.10452
G1 X108.423 Y106.670 E10.20847
G1 X107.520 Y108.544 E10.31242
G1 X107.520 Y110.623 E10.41637
G1 X108.423 Y112.496 E10.52033
G1 X110.048 Y113.793 E10.62428
G1 X112.075 Y114.255 E10.72823
G1 X114.102 Y113.793 E10.83218
G1 X115.728 Y112.496 E10.93613
G1 X116.415 Y111.069 E11.01534
G1 X116.415 Y120.977 E11.51073
G1 F600.000 E11.01073
G92 E0
G1 X84.521 Y114.731 F7800.000
G1 F600.000 E0.50000
G1 X84.332 Y114.686 F2400.000 E0.50970
G1 F600.000 E0.00970
G92 E0
G1 X116.514 Y109.897 F7800.000
G1 F600.000 E0.50000
G1 X116.338 Y109.957 F2400.000 E0.50926
G1 F600.000 E0.00926
G92 E0
G1 X85.023 Y85.361 F7800.000
G1 F600.000 E0.50000
G1 X84.230 Y85.350 F2400.000 E0.53963
G1 F600.000 E0.03963
G92 E0
G1 X84.518 Y102.053 F7800.000
G1 F600.000 E0.50000
G1 X96.412 Y113.947 F1920.000 E1.34430
G1 X97.621 Y113.947 F7800.000
G1 X85.727 Y102.054 F1920.000 E2.18855
G1 X86.937 Y102.053 F7800.000
G1 X98.832 Y113.947 F1920.000 E3.03285
G1 X99.155 Y113.062 F7800.000
G1 X88.146 Y102.053 F1920.000 E3.81431
G1 X89.357 Y102.053 F7800.000
G1 X99.155 Y111.851 F1920.000 E4.50983
G1 X99.155 Y110.642 F7800.000
G1 X90.566 Y102.053 F1920.000 E5.11953
G1 X91.777 Y102.053 F7800.000
G1 X99.156 Y109.432 F1920.000 E5.64335
G1 X99.155 Y108.222 F7800.000
G1 X92.986 Y102.053 F1920.000 E6.08128
G1 X94.196 Y102.054 F7800.000
G1 X99.155 Y107.013 F1920.000 E6.43334
G1 X99.155 Y105.803 F7800.000
G1 X95.406 Y102.053 F1920.000 E6.69951
G1 X96.615 Y102.054 F7800.000
G1 X99.155 Y104.593 F1920.000 E6.87981
G1 X99.155 Y103.383 F7800.000
G1 X97.825 Y102.053 F1920.000 E6.97422
G1 X89.641 Y108.386 F7800.000
G1 X95.201 Y113.947 F1920.000 E7.36894
G1 X93.992 Y113.947 F7800.000
G1 X89.993 Y109.948 F1920.000 E7.65278
G1 X89.768 Y110.933 F7800.000
G1 X92.782 Y113.947 F1920.000 E7.86671
G1 X91.572 Y113.947 F7800.000
G1 X89.544 Y111.918 F1920.000 E8.01071
G1 X89.143 Y112.727 F7800.000
G1 X90.363 Y113.947 F1920.000 E8.09734
G1 X86.403 Y105.149 F7800.000
G1 X83.308 Y102.054 F1920.000 E8.31709
G1 X82.098 Y102.053 F7800.000
G1 X85.097 Y105.052 F1920.000 E8.53001
G1 X83.887 Y105.052 F7800.000
G1 X80.888 Y102.054 F1920.000 E8.74288
G1 X79.678 Y102.053 F7800.000
G1 X83.021 Y105.396 F1920.000 E8.98019
G1 X82.205 Y105.788 F7800.000
G1 X78.469 Y102.053 F1920.000 E9.24536
G1 X77.258 Y102.053 F7800.000
G1 X81.430 Y106.224 F1920.000 E9.54145
G1 X80.894 Y106.897 F7800.000
G1 X76.049 Y102.053 F1920.000 E9.88533
G1 X74.839 Y102.054 F7800.000
G1 X80.356 Y107.570 F1920.000 E10.27693
G1 X79.908 Y108.331 F7800.000
G1 X73.630 Y102.053 F1920.000 E10.72260
G1 X72.420 Y102.054 F7800.000
G1 X79.682 Y109.316 F1920.000 E11.23813
G1 X79.458 Y110.301 F7800.000
G1 X71.210 Y102.053 F1920.000 E11.82364
G1 X70.000 Y102.054 F7800.000
G1 X79.721 Y111.775 F1920.000 E12.51369
G1 X79.475 Y113.946 F7800.000
G1 X67.581 Y102.053 F1920.000 E13.35794
G1 X68.790 Y102.053 F7800.000
G1 X80.548 Y113.811 F1920.000 E14.19256
G1 X78.265 Y113.947 F7800.000
G1 X66.370 Y102.053 F1920.000 E15.03686
G1 X65.161 Y102.053 F7800.000
G1 X77.056 Y113.947 F1920.000 E15.88116
G1 X75.845 Y113.947 F7800.000
G1 X63.951 Y102.053 F1920.000 E16.72546
G1 X62.742 Y102.053 F7800.000
G1 X74.636 Y113.947 F1920.000 E17.56976
G1 X73.425 Y113.947 F7800.000
G1 X64.761 Y105.283 F1920.000 E18.18477
G1 X64.425 Y104.947 F7800.000
G1 X61.531 Y102.053 F1920.000 E18.39018
G1 X60.322 Y102.053 F7800.000
G1 X63.216 Y104.947 F1920.000 E18.59562
G1 X62.005 Y104.947 F7800.000
G1 X59.112 Y102.053 F1920.000 E18.80102
G1 X57.902 Y102.053 F7800.000
G1 X60.796 Y104.947 F1920.000 E19.00645
G1 X59.586 Y104.947 F7800.000
G1 X56.692 Y102.053 F1920.000 E19.21188
G1 X55.483 Y102.053 F7800.000
G1 X58.377 Y104.947 F1920.000 E19.41730
G1 X57.167 Y104.947 F7800.000
G1 X54.273 Y102.053 F1920.000 E19.62273
G1 X53.063 Y102.053 F7800.000
G1 X55.957 Y104.947 F1920.000 E19.82815
G1 X54.747 Y104.947 F7800.000
G1 X51.854 Y102.053 F1920.000 E20.03358
G1 X51.261 Y102.671 F7800.000
G1 X53.537 Y104.947 F1920.000 E20.19514
G1 X52.328 Y104.947 F7800.000
G1 X51.262 Y103.881 F1920.000 E20.27082
G1 F600.000 E19.77082
G92 E0
G1 X64.762 Y106.493 F7800.000
G1 F600.000 E0.50000
G1 X72.216 Y113.947 F1920.000 E1.02914
G1 X71.655 Y114.597 F7800.000
G1 X64.761 Y107.703 F1920.000 E1.51852
G1 X64.762 Y108.912 F7800.000
G1 X71.655 Y115.806 F1920.000 E2.00785
G1 X71.655 Y117.017 F7800.000
G1 X64.761 Y110.122 F1920.000 E2.49724
G1 X64.762 Y111.332 F7800.000
G1 X71.655 Y118.226 F1920.000 E2.98657
G1 X71.656 Y119.436 F7800.000
G1 X64.762 Y112.541 F1920.000 E3.47596
G1 X64.761 Y113.751 F7800.000
G1 X71.655 Y120.645 F1920.000 E3.96534
G1 X71.656 Y121.855 F7800.000
G1 X64.762 Y114.961 F1920.000 E4.45472
G1 X64.761 Y116.171 F7800.000
G1 X71.655 Y123.065 F1920.000 E4.94411
G1 X71.655 Y124.274 F7800.000
G1 X64.762 Y117.381 F1920.000 E5.43344
G1 X64.761 Y118.591 F7800.000
G1 X71.655 Y125.485 F1920.000 E5.92282
G1 X71.655 Y126.694 F7800.000
G1 X64.762 Y119.800 F1920.000 E6.41216
G1 X64.761 Y121.010 F7800.000
G1 X71.655 Y127.905 F1920.000 E6.90154
G1 X71.655 Y129.114 F7800.000
G1 X64.762 Y122.220 F1920.000 E7.39087
G1 X64.762 Y123.429 F7800.000
G1 X71.656 Y130.324 F1920.000 E7.88026
G1 X71.655 Y131.533 F7800.000
G1 X64.762 Y124.640 F1920.000 E8.36959
G1 X64.762 Y125.849 F7800.000
G1 X71.656 Y132.743 F1920.000 E8.85898
G1 X71.655 Y133.953 F7800.000
G1 X64.761 Y127.059 F1920.000 E9.34836
G1 X64.762 Y128.269 F7800.000
G1 X71.655 Y135.162 F1920.000 E9.83769
G1 X71.655 Y136.373 F7800.000
G1 X64.761 Y129.479 F1920.000 E10.32708
G1 X64.762 Y130.689 F7800.000
G1 X71.655 Y137.582 F1920.000 E10.81641
G1 X71.655 Y138.793 F7800.000
G1 X64.761 Y131.898 F1920.000 E11.30579
G1 X64.762 Y133.108 F7800.000
G1 X71.655 Y140.002 F1920.000 E11.79513
G1 X71.655 Y141.212 F7800.000
G1 X64.761 Y134.318 F1920.000 E12.28451
G1 X64.762 Y135.528 F7800.000
G1 X70.931 Y141.697 F1920.000 E12.72240
G1 X69.721 Y141.697 F7800.000
G1 X64.762 Y136.737 F1920.000 E13.07445
G1 X64.761 Y137.947 F7800.000
G1 X68.511 Y141.697 F1920.000 E13.34063
G1 X67.302 Y141.697 F7800.000
G1 X64.762 Y139.157 F1920.000 E13.52092
G1 X64.761 Y140.367 F7800.000
G1 X66.092 Y141.697 F1920.000 E13.61538
G1 F600.000 E13.11538
G92 E0
G1 X104.074 Y125.718 F7800.000
G1 F600.000 E0.50000
G1 X107.702 Y129.345 F1920.000 E0.76084
G1 X109.107 Y129.531 F7800.000
G1 X104.011 Y124.436 F1920.000 E1.12724
G1 X103.928 Y123.132 F7800.000
G1 X110.326 Y129.530 F1920.000 E1.58735
G1 X111.547 Y129.530 F7800.000
G1 X103.928 Y121.912 F1920.000 E2.13518
G1 X103.928 Y120.691 F7800.000
G1 X110.338 Y127.101 F1920.000 E2.59610
G1 X110.162 Y126.925 F7800.000
G1 X112.767 Y129.530 F1920.000 E2.78342
G1 X113.049 Y128.592 F7800.000
G1 X113.918 Y129.460 F1920.000 E2.84586
G1 X114.954 Y129.278 F7800.000
G1 X113.870 Y128.194 F1920.000 E2.92381
G1 X114.644 Y127.747 F7800.000
G1 X115.755 Y128.858 F1920.000 E3.00369
G1 X116.468 Y128.351 F7800.000
G1 X115.418 Y127.301 F1920.000 E3.07919
G1 X116.192 Y126.854 F7800.000
G1 X117.025 Y127.688 F1920.000 E3.13914
G1 X117.442 Y126.884 F7800.000
G1 X116.412 Y125.854 F1920.000 E3.21317
G1 X116.412 Y124.634 F7800.000
G1 X117.738 Y125.961 F1920.000 E3.30856
G1 X117.738 Y124.740 F7800.000
G1 X116.412 Y123.414 F1920.000 E3.40395
G1 X115.763 Y122.765 F7800.000
G1 X103.928 Y110.930 F1920.000 E4.25502
G1 X103.928 Y109.710 F7800.000
G1 X115.822 Y121.604 F1920.000 E5.11026
G1 X115.822 Y120.383 F7800.000
G1 X109.863 Y114.424 F1920.000 E5.53875
G1 X111.444 Y114.785 F7800.000
G1 X115.823 Y119.163 F1920.000 E5.85359
G1 X115.822 Y117.944 F7800.000
G1 X112.575 Y114.697 F1920.000 E6.08708
G1 X113.569 Y114.470 F7800.000
G1 X115.822 Y116.723 F1920.000 E6.24907
G1 X115.822 Y115.503 F7800.000
G1 X114.454 Y114.135 F1920.000 E6.34741
G1 X107.309 Y111.870 F7800.000
G1 X103.928 Y108.490 F1920.000 E6.59051
G1 X103.928 Y107.269 F7800.000
G1 X106.928 Y110.269 F1920.000 E6.80620
G1 X106.927 Y109.049 F7800.000
G1 X103.928 Y106.049 F1920.000 E7.02189
G1 X103.928 Y104.829 F7800.000
G1 X107.181 Y108.082 F1920.000 E7.25584
G1 X107.578 Y107.259 F7800.000
G1 X103.928 Y103.609 F1920.000 E7.51826
G1 X103.928 Y102.389 F7800.000
G1 X107.974 Y106.435 F1920.000 E7.80920
G1 X108.636 Y105.876 F7800.000
G1 X103.928 Y101.168 F1920.000 E8.14774
G1 X103.928 Y99.948 F7800.000
G1 X109.314 Y105.335 F1920.000 E8.53509
G1 X110.024 Y104.824 F7800.000
G1 X103.928 Y98.728 F1920.000 E8.97343
G1 X103.928 Y97.508 F7800.000
G1 X111.018 Y104.598 F1920.000 E9.48322
G1 X112.011 Y104.371 F7800.000
G1 X103.928 Y96.288 F1920.000 E10.06445
G1 X103.928 Y95.067 F7800.000
G1 X113.400 Y104.539 F1920.000 E10.74554
G1 X115.562 Y105.482 F7800.000
G1 X103.928 Y93.848 F1920.000 E11.58217
G1 X103.928 Y92.627 F7800.000
G1 X115.822 Y104.521 F1920.000 E12.43746
G1 X115.822 Y103.301 F7800.000
G1 X103.928 Y91.407 F1920.000 E13.29270
G1 X103.928 Y90.187 F7800.000
G1 X115.822 Y102.080 F1920.000 E14.14794
G1 X115.823 Y100.861 F7800.000
G1 X111.877 Y96.915 F1920.000 E14.43166
G1 X113.556 Y97.375 F7800.000
G1 X115.822 Y99.641 F1920.000 E14.59458
G1 X115.822 Y98.420 F7800.000
G1 X114.330 Y96.928 F1920.000 E14.70186
G1 X115.104 Y96.482 F7800.000
G1 X116.214 Y97.592 F1920.000 E14.78174
G1 X116.799 Y96.957 F7800.000
G1 X115.878 Y96.035 F1920.000 E14.84800
G1 X116.412 Y95.349 F7800.000
G1 X117.593 Y96.530 F1920.000 E14.93291
G1 X118.812 Y96.530 F7800.000
G1 X116.412 Y94.130 F1920.000 E15.10553
G1 X116.412 Y92.909 F7800.000
G1 X120.033 Y96.530 F1920.000 E15.36592
G1 X121.253 Y96.530 F7800.000
G1 X114.360 Y89.637 F1920.000 E15.86162
G1 X113.341 Y89.838 F7800.000
G1 X114.591 Y91.088 F1920.000 E15.95152
G1 X113.117 Y90.835 F7800.000
G1 X111.919 Y89.637 F1920.000 E16.03771
