; generated by Slic3r 0.7.2b on 2012-05-02 at 06:38:53

; layer_height = 0.4
; perimeters = 1
; solid_layers = 3
; fill_density = 0.35
; nozzle_diameter = 0.75
; filament_diameter = 3
; extrusion_multiplier = 1
; perimeter_speed = 50
; infill_speed = 80
; travel_speed = 130
; extrusion_width_ratio = 2.3
; scale = 1
; single wall width = 0.92mm

M104 S220 ; set temperature
M92 E380
G92 X0 Y0 Z0  E0.0
G1 Z2.0 F150.0
G1 X-250.0 F2100.0
G1 X-249.0 F300.0
G1 X-251.0 F100.0
G92 X3.0
G1 Y-250.0 F2100.0
G1 Y-249.0 F300.0
G1 Y-251.0 F300.0
G92 Y10.0
G1 Y70.0 F2100.0
G1 Z-250.0 F150.0
G1 Z-249.0 F50.0
G1 Z-251.0 F50.0
G1 Y75.0 E2.0  F1000.0
G1 Y100.0 E2.3  F1000.0
G92 Z0.3
G92 E0.0
M106 S70
M107
M109 S220 ; wait for temperature to be reached
G90 ; use absolute coordinates
G21 ; set units to millimeters
G92 E0 ; reset extrusion distance
M82 ; use absolute distances for extrusion
G1 Z0.400 F7800.000
G1 X68.380 Y72.852
G1 F600.000 E0.50000
G1 X68.560 Y72.672 F2400.000 E0.51273
G1 X68.940 Y72.332 E0.53822
G1 X69.560 Y71.892 E0.57623
G1 X69.780 Y71.762 E0.58901
G1 X70.240 Y71.532 E0.61472
G1 X70.710 Y71.342 E0.64007
G1 X71.200 Y71.192 E0.66569
G1 X71.450 Y71.132 E0.67854
G1 X72.200 Y71.022 E0.71644
G1 X72.710 Y71.002 E0.74196
G1 X122.150 Y71.012 E3.21380
G1 X124.060 Y71.152 E3.30955
G1 X124.630 Y71.272 E3.33868
G1 X124.910 Y71.352 E3.35324
G1 X127.100 Y72.152 E3.46981
G1 X127.630 Y72.412 E3.49932
G1 X128.140 Y72.722 E3.52916
G1 X128.380 Y72.892 E3.54387
G1 X130.170 Y74.402 E3.66095
G1 X130.600 Y74.832 E3.69135
G1 X130.970 Y75.302 E3.72126
G1 X131.300 Y75.802 E3.75121
G1 X132.310 Y77.572 E3.85310
G1 X132.440 Y77.842 E3.86808
G1 X132.650 Y78.392 E3.89752
G1 X132.740 Y78.672 E3.91222
G1 X133.230 Y81.222 E4.04205
G1 X133.260 Y81.442 E4.05315
G1 X133.290 Y81.872 E4.07470
G1 X133.290 Y87.202 E4.34118
G1 X133.260 Y87.632 E4.36273
G1 X133.230 Y87.852 E4.37383
G1 X132.810 Y90.122 E4.48925
G1 X132.740 Y90.402 E4.50368
G1 X132.550 Y90.962 E4.53325
G1 X132.440 Y91.232 E4.54782
G1 X131.300 Y93.272 E4.66466
G1 X130.960 Y93.792 E4.69573
G1 X130.560 Y94.282 E4.72735
G1 X98.950 Y125.872 E6.96167
G1 X97.380 Y127.182 E7.06390
G1 X96.890 Y127.512 E7.09344
G1 X96.630 Y127.662 E7.10844
G1 X96.100 Y127.922 E7.13796
G1 X93.900 Y128.722 E7.25500
G1 X93.310 Y128.872 E7.28543
G1 X92.720 Y128.962 E7.31527
G1 X92.120 Y128.992 E7.34531
G1 X90.070 Y128.982 E7.44780
G1 X89.770 Y128.962 E7.46284
G1 X89.180 Y128.872 E7.49268
G1 X88.590 Y128.722 E7.52311
G1 X86.390 Y127.922 E7.64015
G1 X85.860 Y127.662 E7.66967
G1 X85.350 Y127.352 E7.69951
G1 X85.110 Y127.182 E7.71421
G1 X83.320 Y125.672 E7.83130
G1 X82.890 Y125.242 E7.86170
G1 X82.520 Y124.772 E7.89161
G1 X82.190 Y124.272 E7.92156
G1 X81.220 Y122.572 E8.01942
G1 X81.030 Y122.182 E8.04111
G1 X66.970 Y82.822 E10.13077
G1 X66.820 Y82.252 E10.16024
G1 X66.770 Y81.962 E10.17495
G1 X66.710 Y81.082 E10.21905
G1 X66.730 Y76.492 E10.44854
G1 X66.840 Y75.742 E10.48643
G1 X66.970 Y75.242 E10.51226
G1 X67.140 Y74.762 E10.53772
G1 X67.350 Y74.302 E10.56301
G1 X67.470 Y74.072 E10.57598
G1 X67.600 Y73.852 E10.58875
G1 X68.040 Y73.232 E10.62676
G1 X68.288 Y72.955 E10.64536
G1 F600.000 E10.14536
G92 E0
G1 X90.134 Y116.110 F7800.000
G1 F600.000 E0.50000
G1 X92.366 Y116.110 F2400.000 E0.61155
G1 X93.481 Y118.042 E0.72310
G1 X92.366 Y119.974 E0.83465
G1 X90.134 Y119.974 E0.94620
G1 X89.019 Y118.042 E1.05775
G1 X90.065 Y116.229 E1.16240
G1 F600.000 E0.66240
G92 E0
G1 X90.134 Y88.974 F7800.000
G1 F600.000 E0.50000
G1 X89.019 Y87.042 F2400.000 E0.61155
G1 X90.134 Y85.110 E0.72310
G1 X92.366 Y85.110 E0.83465
G1 X93.481 Y87.042 E0.94620
G1 X92.366 Y88.974 E1.05775
G1 X90.272 Y88.974 E1.16240
G1 F600.000 E0.66240
G92 E0
G1 X120.019 Y87.042 F7800.000
G1 F600.000 E0.50000
G1 X121.134 Y85.110 F2400.000 E0.61155
G1 X123.366 Y85.110 E0.72310
G1 X124.481 Y87.042 E0.83465
G1 X123.366 Y88.974 E0.94620
G1 X121.134 Y88.974 E1.05775
G1 X120.088 Y87.161 E1.16240
G1 F600.000 E0.66240
G92 E0
G1 X118.282 Y90.082 F7800.000
G1 F600.000 E0.50000
G1 X108.235 Y90.082 F2400.000 E1.00229
G1 X109.663 Y89.394 E1.08150
G1 X110.959 Y87.769 E1.18545
G1 X111.422 Y85.742 E1.28940
G1 X110.959 Y83.715 E1.39336
G1 X109.663 Y82.089 E1.49731
G1 X107.790 Y81.187 E1.60126
G1 X105.710 Y81.187 E1.70521
G1 X103.837 Y82.089 E1.80917
G1 X102.541 Y83.715 E1.91312
G1 X102.078 Y85.742 E2.01707
G1 X102.541 Y87.769 E2.12102
G1 X103.837 Y89.394 E2.22497
G1 X105.265 Y90.082 E2.30418
G1 X95.218 Y90.082 E2.80647
G1 X95.105 Y90.277 E2.81773
G1 X94.290 Y90.961 E2.87096
G1 X94.290 Y114.122 E4.02895
G1 X95.105 Y114.807 E4.08217
G1 X95.979 Y116.320 E4.16956
G1 X96.283 Y118.042 E4.25695
G1 X95.979 Y119.763 E4.34434
G1 X95.105 Y121.277 E4.43173
G1 X93.766 Y122.400 E4.51912
G1 X92.124 Y122.998 E4.60651
G1 X90.376 Y122.998 E4.69390
G1 X88.734 Y122.400 E4.78129
G1 X87.395 Y121.277 E4.86868
G1 X86.521 Y119.763 E4.95607
G1 X86.210 Y118.002 E5.04550
G1 X86.210 Y81.082 E6.89137
G1 X72.710 Y81.082 E7.56633
G1 X72.710 Y77.002 E7.77032
G1 X121.790 Y77.002 E10.22416
G1 X121.790 Y77.085 E10.22834
G1 X123.124 Y77.085 E10.29504
G1 X124.766 Y77.683 E10.38243
G1 X126.105 Y78.807 E10.46981
G1 X126.979 Y80.320 E10.55721
G1 X127.290 Y82.082 E10.64664
G1 X127.290 Y87.002 E10.89260
G1 X126.979 Y88.763 E10.98203
G1 X126.105 Y90.277 E11.06942
G1 X124.766 Y91.400 E11.15681
G1 X123.124 Y91.998 E11.24420
G1 X121.376 Y91.998 E11.33159
G1 X119.734 Y91.400 E11.41898
G1 X118.395 Y90.277 E11.50637
G1 X118.351 Y90.201 E11.51073
G1 F600.000 E11.01073
G92 E0
G1 X106.562 Y90.273 F7800.000
G1 F600.000 E0.50000
G1 X106.373 Y90.228 F2400.000 E0.50970
G1 X102.739 Y89.320 F7800.000
G1 X91.014 Y77.595 F1920.000 E1.35283
G1 X92.234 Y77.595 F7800.000
G1 X101.706 Y87.067 F1920.000 E2.03394
G1 X101.537 Y85.678 F7800.000
G1 X93.454 Y77.595 F1920.000 E2.61517
G1 X94.675 Y77.595 F7800.000
G1 X101.764 Y84.684 F1920.000 E3.12495
G1 X101.991 Y83.691 F7800.000
G1 X95.895 Y77.595 F1920.000 E3.56330
G1 X97.115 Y77.595 F7800.000
G1 X102.502 Y82.981 F1920.000 E3.95066
G1 X103.043 Y82.303 F7800.000
G1 X98.335 Y77.595 F1920.000 E4.28920
G1 X99.555 Y77.595 F7800.000
G1 X103.602 Y81.641 F1920.000 E4.58017
G1 X104.425 Y81.245 F7800.000
G1 X100.776 Y77.595 F1920.000 E4.84261
G1 X101.996 Y77.595 F7800.000
G1 X105.249 Y80.848 F1920.000 E5.07654
G1 X106.215 Y80.594 F7800.000
G1 X103.216 Y77.595 F1920.000 E5.29221
G1 X104.436 Y77.595 F7800.000
G1 X107.435 Y80.594 F1920.000 E5.50788
G1 X109.037 Y80.976 F7800.000
G1 X105.656 Y77.595 F1920.000 E5.75100
G1 X106.876 Y77.595 F7800.000
G1 X118.770 Y89.489 F1920.000 E6.60627
G1 X117.550 Y89.489 F7800.000
G1 X111.591 Y83.530 F1920.000 E7.03476
G1 X111.952 Y85.111 F7800.000
G1 X116.330 Y89.489 F1920.000 E7.34957
G1 X115.110 Y89.488 F7800.000
G1 X111.864 Y86.242 F1920.000 E7.58302
G1 X111.637 Y87.235 F7800.000
G1 X113.890 Y89.489 F1920.000 E7.74505
G1 X112.669 Y89.489 F7800.000
G1 X111.302 Y88.121 F1920.000 E7.84339
G1 X110.760 Y88.800 F7800.000
G1 X111.449 Y89.489 F1920.000 E7.89292
G1 F600.000 E7.39292
G92 E0
G1 X119.663 Y87.940 F7800.000
G1 F600.000 E0.50000
G1 X109.317 Y77.595 F1920.000 E1.24394
G1 X110.537 Y77.595 F7800.000
G1 X119.641 Y86.700 F1920.000 E1.89864
G1 X120.088 Y85.926 F7800.000
G1 X111.757 Y77.595 F1920.000 E2.49771
G1 X112.977 Y77.595 F7800.000
G1 X120.535 Y85.152 F1920.000 E3.04117
G1 X121.119 Y84.516 F7800.000
G1 X114.198 Y77.595 F1920.000 E3.53889
G1 X115.418 Y77.595 F7800.000
G1 X122.340 Y84.516 F1920.000 E4.03662
G1 X123.559 Y84.517 F7800.000
G1 X116.638 Y77.595 F1920.000 E4.53435
G1 X117.858 Y77.595 F7800.000
G1 X126.697 Y86.434 F1920.000 E5.16994
G1 X126.627 Y87.584 F7800.000
G1 X124.361 Y85.318 F1920.000 E5.33286
G1 X124.986 Y87.163 F7800.000
G1 X126.444 Y88.621 F1920.000 E5.43772
G1 X126.025 Y89.422 F7800.000
G1 X124.539 Y87.936 F1920.000 E5.54451
G1 X124.093 Y88.710 F7800.000
G1 X125.517 Y90.135 F1920.000 E5.64696
G1 X124.854 Y90.692 F7800.000
G1 X123.646 Y89.484 F1920.000 E5.73382
G1 X122.509 Y89.567 F7800.000
G1 X124.050 Y91.108 F1920.000 E5.84463
G1 X123.127 Y91.405 F7800.000
G1 X121.289 Y89.567 F1920.000 E5.97681
G1 X121.907 Y91.405 F7800.000
G1 X108.097 Y77.595 F1920.000 E6.96988
G1 F600.000 E6.46988
G92 E0
G1 X119.078 Y77.595 F7800.000
G1 F600.000 E0.50000
G1 X126.697 Y85.214 F1920.000 E1.04785
G1 X126.697 Y83.993 F7800.000
G1 X120.299 Y77.595 F1920.000 E1.50795
G1 X121.602 Y77.678 F7800.000
G1 X126.697 Y82.773 F1920.000 E1.87431
G1 X126.512 Y81.368 F7800.000
G1 X122.884 Y77.741 F1920.000 E2.13514
G1 F600.000 E1.63514
G92 E0
G1 X101.688 Y89.489 F7800.000
G1 F600.000 E0.50000
G1 X89.794 Y77.595 F1920.000 E1.35527
G1 X88.574 Y77.595 F7800.000
G1 X100.468 Y89.489 F1920.000 E2.21054
G1 X99.247 Y89.489 F7800.000
G1 X87.353 Y77.595 F1920.000 E3.06581
G1 X86.133 Y77.595 F7800.000
G1 X93.055 Y84.517 F1920.000 E3.56354
G1 X92.684 Y84.146 F7800.000
G1 X98.027 Y89.489 F1920.000 E3.94772
G1 X96.807 Y89.488 F7800.000
G1 X94.168 Y86.849 F1920.000 E4.13754
G1 X93.721 Y87.622 F7800.000
G1 X95.587 Y89.489 F1920.000 E4.27174
G1 X94.759 Y89.881 F7800.000
G1 X93.274 Y88.396 F1920.000 E4.37854
G1 X92.827 Y89.170 F7800.000
G1 X94.123 Y90.466 F1920.000 E4.47173
G1 X93.697 Y91.260 F7800.000
G1 X92.004 Y89.567 F1920.000 E4.59343
G1 X90.785 Y89.567 F7800.000
G1 X93.697 Y92.479 F1920.000 E4.80288
G1 X93.697 Y93.700 F7800.000
G1 X89.564 Y89.567 F1920.000 E5.10006
G1 X89.653 Y89.655 F7800.000
G1 X86.803 Y86.806 F1920.000 E5.30497
G1 X86.803 Y88.026 F7800.000
G1 X93.697 Y94.920 F1920.000 E5.80070
G1 X93.697 Y96.140 F7800.000
G1 X86.803 Y89.246 F1920.000 E6.29644
G1 X86.803 Y90.467 F7800.000
G1 X93.697 Y97.361 F1920.000 E6.79217
G1 X93.697 Y98.580 F7800.000
G1 X86.803 Y91.686 F1920.000 E7.28791
G1 X86.803 Y92.907 F7800.000
G1 X93.697 Y99.801 F1920.000 E7.78364
G1 X93.697 Y101.021 F7800.000
G1 X86.803 Y94.127 F1920.000 E8.27938
G1 X86.803 Y95.347 F7800.000
G1 X93.697 Y102.241 F1920.000 E8.77511
G1 X93.697 Y103.462 F7800.000
G1 X86.803 Y96.568 F1920.000 E9.27084
G1 X86.803 Y97.787 F7800.000
G1 X93.697 Y104.681 F1920.000 E9.76658
G1 X93.697 Y105.901 F7800.000
G1 X86.803 Y99.007 F1920.000 E10.26231
G1 X86.803 Y100.228 F7800.000
G1 X93.697 Y107.122 F1920.000 E10.75805
G1 X93.697 Y108.342 F7800.000
G1 X86.803 Y101.448 F1920.000 E11.25378
G1 X86.803 Y102.668 F7800.000
G1 X93.697 Y109.562 F1920.000 E11.74952
G1 X93.697 Y110.782 F7800.000
G1 X86.803 Y103.888 F1920.000 E12.24524
G1 X86.803 Y105.108 F7800.000
G1 X93.697 Y112.002 F1920.000 E12.74097
G1 X93.697 Y113.223 F7800.000
G1 X86.803 Y106.329 F1920.000 E13.23670
G1 X86.803 Y107.549 F7800.000
G1 X93.697 Y114.443 F1920.000 E13.73243
G1 X92.330 Y115.517 F7800.000
G1 X86.803 Y109.989 F1920.000 E14.12988
G1 X86.803 Y108.769 F7800.000
G1 X95.536 Y117.502 F1920.000 E14.75783
G1 X95.593 Y118.779 F7800.000
G1 X93.675 Y116.861 F1920.000 E14.89575
G1 X93.902 Y118.309 F7800.000
G1 X95.387 Y119.794 F1920.000 E15.00253
G1 X94.940 Y120.567 F7800.000
G1 X93.455 Y119.082 F1920.000 E15.10932
G1 X93.009 Y119.856 F7800.000
G1 X94.393 Y121.240 F1920.000 E15.20885
G1 X93.729 Y121.796 F7800.000
G1 X92.500 Y120.567 F1920.000 E15.29725
G1 X91.280 Y120.567 F7800.000
G1 X92.882 Y122.169 F1920.000 E15.41247
G1 X91.898 Y122.405 F7800.000
G1 X90.060 Y120.567 F1920.000 E15.54465
G1 X88.976 Y119.483 F7800.000
G1 X86.803 Y117.311 F1920.000 E15.70089
G1 X86.803 Y116.090 F7800.000
G1 X88.558 Y117.845 F1920.000 E15.82706
G1 X89.004 Y117.071 F7800.000
G1 X86.803 Y114.870 F1920.000 E15.98535
G1 X86.803 Y113.650 F7800.000
G1 X89.451 Y116.298 F1920.000 E16.17576
G1 X89.898 Y115.524 F7800.000
G1 X86.803 Y112.430 F1920.000 E16.39828
G1 X86.803 Y111.210 F7800.000
G1 X91.110 Y115.517 F1920.000 E16.70800
G1 X86.988 Y118.716 F7800.000
G1 X90.615 Y122.343 F1920.000 E16.96882
G1 F600.000 E16.46882
G92 E0
G1 X88.377 Y87.159 F7800.000
G1 F600.000 E0.50000
G1 X86.803 Y85.585 F1920.000 E0.61314
G1 X86.803 Y84.366 F7800.000
G1 X88.823 Y86.386 F1920.000 E0.75840
G1 X89.270 Y85.612 F7800.000
G1 X86.803 Y83.145 F1920.000 E0.93577
G1 X86.803 Y81.925 F7800.000
G1 X89.716 Y84.838 F1920.000 E1.14526
G1 X90.615 Y84.516 F7800.000
G1 X86.803 Y80.705 F1920.000 E1.41935
G1 X86.587 Y80.489 F7800.000
G1 X83.693 Y77.595 F1920.000 E1.62745
G1 X84.913 Y77.595 F7800.000
G1 X91.835 Y84.516 F1920.000 E2.12517
G1 F600.000 E1.62517
G92 E0
G1 X85.367 Y80.489 F7800.000
G1 F600.000 E0.50000
G1 X82.473 Y77.595 F1920.000 E0.70810
G1 X81.252 Y77.595 F7800.000
G1 X84.146 Y80.489 F1920.000 E0.91620
G1 X82.926 Y80.489 F7800.000
G1 X80.032 Y77.595 F1920.000 E1.12430
G1 X78.812 Y77.595 F7800.000
G1 X81.706 Y80.488 F1920.000 E1.33240
G1 X80.486 Y80.489 F7800.000
G1 X77.592 Y77.595 F1920.000 E1.54050
G1 X76.372 Y77.595 F7800.000
G1 X79.266 Y80.489 F1920.000 E1.74860
G1 X78.045 Y80.489 F7800.000
G1 X75.152 Y77.595 F1920.000 E1.95670
G1 X73.931 Y77.595 F7800.000
G1 X76.825 Y80.489 F1920.000 E2.16480
G1 X75.606 Y80.488 F7800.000
G1 X73.303 Y78.186 F1920.000 E2.33035
G1 X73.303 Y79.407 F7800.000
G1 X74.385 Y80.489 F1920.000 E2.40815
M104 S230 ; set temperature
G1 F600.000 E1.90815
G92 E0
G1 Z0.800 F7800.000
G1 X90.134 Y116.110
G1 F600.000 E0.50000
G1 X92.366 Y116.110 F3000.000 E0.61155
G1 X93.481 Y118.042 E0.72310
G1 X92.366 Y119.974 E0.83465
G1 X90.134 Y119.974 E0.94620
G1 X89.019 Y118.042 E1.05775
G1 X90.065 Y116.229 E1.16240
G1 F600.000 E0.66240
G92 E0
G1 X90.134 Y88.974 F7800.000
G1 F600.000 E0.50000
G1 X89.019 Y87.042 F3000.000 E0.61155
G1 X90.134 Y85.110 E0.72310
G1 X92.366 Y85.110 E0.83465
G1 X93.481 Y87.042 E0.94620
G1 X92.366 Y88.974 E1.05775
G1 X90.272 Y88.974 E1.16240
G1 F600.000 E0.66240
G92 E0
G1 X120.019 Y87.042 F7800.000
G1 F600.000 E0.50000
G1 X121.134 Y85.110 F3000.000 E0.61155
G1 X123.366 Y85.110 E0.72310
G1 X124.481 Y87.042 E0.83465
G1 X123.366 Y88.974 E0.94620
G1 X121.134 Y88.974 E1.05775
G1 X120.088 Y87.161 E1.16240
G1 F600.000 E0.66240
G92 E0
G1 X118.282 Y90.082 F7800.000
G1 F600.000 E0.50000
G1 X108.235 Y90.082 F3000.000 E1.00229
G1 X109.663 Y89.394 E1.08150
G1 X110.959 Y87.769 E1.18545
G1 X111.422 Y85.742 E1.28940
G1 X110.959 Y83.715 E1.39336
G1 X109.663 Y82.089 E1.49731
G1 X107.790 Y81.187 E1.60126
G1 X105.710 Y81.187 E1.70521
G1 X103.837 Y82.089 E1.80917
G1 X102.541 Y83.715 E1.91312
G1 X102.078 Y85.742 E2.01707
G1 X102.541 Y87.769 E2.12102
G1 X103.837 Y89.394 E2.22497
G1 X105.265 Y90.082 E2.30418
G1 X95.218 Y90.082 E2.80647
G1 X95.105 Y90.277 E2.81773
G1 X94.290 Y90.961 E2.87096
G1 X94.290 Y114.122 E4.02895
G1 X95.105 Y114.807 E4.08217
G1 X95.979 Y116.320 E4.16956
G1 X96.283 Y118.042 E4.25695
G1 X95.979 Y119.763 E4.34434
G1 X95.105 Y121.277 E4.43173
G1 X93.766 Y122.400 E4.51912
G1 X92.124 Y122.998 E4.60651
G1 X90.376 Y122.998 E4.69390
G1 X88.734 Y122.400 E4.78129
G1 X87.395 Y121.277 E4.86868
G1 X86.521 Y119.763 E4.95607
G1 X86.210 Y118.002 E5.04550
G1 X86.210 Y81.082 E6.89137
G1 X72.710 Y81.082 E7.56633
G1 X72.710 Y77.002 E7.77032
G1 X121.790 Y77.002 E10.22416
G1 X121.790 Y77.085 E10.22834
G1 X123.124 Y77.085 E10.29504
G1 X124.766 Y77.683 E10.38243
G1 X126.105 Y78.807 E10.46981
G1 X126.979 Y80.320 E10.55721
G1 X127.290 Y82.082 E10.64664
G1 X127.290 Y87.002 E10.89260
G1 X126.979 Y88.763 E10.98203
G1 X126.105 Y90.277 E11.06942
G1 X124.766 Y91.400 E11.15681
G1 X123.124 Y91.998 E11.24420
G1 X121.376 Y91.998 E11.33159
G1 X119.734 Y91.400 E11.41898
G1 X118.395 Y90.277 E11.50637
G1 X118.351 Y90.201 E11.51073
G1 F600.000 E11.01073
G92 E0
G1 X106.562 Y90.273 F7800.000
G1 F600.000 E0.50000
G1 X106.373 Y90.228 F3000.000 E0.50970
G1 X102.560 Y88.575 F7800.000
G1 X101.646 Y89.489 F2400.000 E0.57507
G1 X100.431 Y89.489 F7800.000
G1 X102.021 Y87.899 F2400.000 E0.68879
G1 X101.790 Y86.914 F7800.000
G1 X99.215 Y89.489 F2400.000 E0.87293
G1 X97.998 Y89.489 F7800.000
G1 X101.564 Y85.924 F2400.000 E1.12787
G1 X101.662 Y84.610 F7800.000
G1 X96.784 Y89.489 F2400.000 E1.47669
G1 X95.567 Y89.489 F7800.000
G1 X102.134 Y82.923 F2400.000 E1.94621
G1 X103.725 Y81.331 F7800.000
G1 X107.462 Y77.595 F2400.000 E2.21338
G1 X108.677 Y77.595 F7800.000
G1 X105.678 Y80.594 F2400.000 E2.42781
G1 X106.893 Y80.594 F7800.000
G1 X109.893 Y77.595 F2400.000 E2.64229
G1 X111.109 Y77.595 F7800.000
G1 X107.984 Y80.719 F2400.000 E2.86572
